; generated by Slic3r Prusa Edition 1.39.1-alpha-prusa3d-win64 on 2018-02-08 at 16:10:10

; 

; external perimeters extrusion width = 0.45mm
; perimeters extrusion width = 0.45mm
; infill extrusion width = 0.45mm
; solid infill extrusion width = 0.45mm
; top infill extrusion width = 0.40mm
; first layer extrusion width = 0.80mm

M107
M104 S205 ; set temperature
G28 ; home all axes
G1 Z5 F5000 ; lift nozzle
; Filament gcode
M109 S205 ; set temperature and wait for it to be reached
G21 ; set units to millimeters
G90 ; use absolute coordinates
M82 ; use absolute distances for extrusion
G92 E0
G1 Z0.400 F7800.000
G1 E-2.00000 F2400.00000
G92 E0
G1 X36.520 Y34.131 F7800.000
G1 E2.00000 F2400.00000
G1 F1800
G1 X37.877 Y32.720 E2.23252
G1 X39.455 Y31.576 E2.46405
G1 X41.270 Y30.706 E2.70307
G1 X43.150 Y30.191 E2.93461
G1 X45.092 Y30.016 E3.16618
G1 X46.447 Y30.098 E3.32740
G1 X47.850 Y30.364 E3.49697
G1 X49.154 Y30.787 E3.65975
G1 X50.372 Y31.357 E3.81951
G1 X110.807 Y65.711 E12.07573
G1 X111.914 Y66.511 E12.23794
G1 X112.961 Y67.493 E12.40839
G1 X113.835 Y68.552 E12.57146
G1 X114.564 Y69.700 E12.73294
G1 X115.153 Y70.947 E12.89673
G1 X115.595 Y72.306 E13.06647
G1 X115.849 Y73.656 E13.22962
G1 X115.934 Y75.014 E13.39125
G1 X115.851 Y76.370 E13.55260
G1 X115.596 Y77.727 E13.71655
G1 X115.156 Y79.086 E13.88623
G1 X114.568 Y80.333 E14.04994
G1 X113.840 Y81.481 E14.21141
G1 X112.963 Y82.545 E14.37513
G1 X111.920 Y83.523 E14.54500
G1 X110.813 Y84.325 E14.70728
G1 X50.306 Y118.665 E22.97015
G1 X49.068 Y119.237 E23.13210
G1 X47.781 Y119.647 E23.29251
G1 X46.456 Y119.897 E23.45259
G1 X45.102 Y119.984 E23.61383
G1 X43.996 Y119.930 E23.74533
G1 X42.906 Y119.767 E23.87617
G1 X41.893 Y119.513 E24.00026
G1 X40.856 Y119.142 E24.13100
G1 X39.856 Y118.666 E24.26250
G1 X38.961 Y118.128 E24.38655
G1 X38.076 Y117.470 E24.51752
G1 X37.267 Y116.733 E24.64756
G1 X36.563 Y115.953 E24.77235
G1 X35.907 Y115.067 E24.90325
G1 X35.344 Y114.120 E25.03403
G1 X34.903 Y113.181 E25.15732
G1 X34.531 Y112.137 E25.28894
G1 X34.269 Y111.074 E25.41897
G1 X34.118 Y110.040 E25.54307
G1 X34.066 Y108.950 E25.67262
G1 X34.091 Y41.000 E33.74270
G1 X34.199 Y39.493 E33.92218
G1 X34.639 Y37.600 E34.15295
G1 X35.410 Y35.803 E34.38522
G1 X36.486 Y34.181 E34.61639
G1 E32.61639 F2400.00000
G92 E0
G1 X47.183 Y106.792 F7800.000
G1 E2.00000 F2400.00000
G1 F1800
G1 X47.559 Y107.234 E2.06891
G1 X47.845 Y107.738 E2.13782
G1 X48.026 Y108.280 E2.20569
G1 X48.083 Y108.601 E2.24434
G1 X48.105 Y108.917 E2.28195
G1 X48.094 Y109.233 E2.31956
G1 X48.049 Y109.556 E2.35821
G1 X47.886 Y110.104 E2.42608
G1 X47.618 Y110.618 E2.49499
G1 X47.257 Y111.072 E2.56390
G1 X46.816 Y111.449 E2.63282
G1 X46.318 Y111.731 E2.70082
G1 X46.015 Y111.847 E2.73933
G1 X45.701 Y111.931 E2.77798
G1 X45.133 Y111.996 E2.84585
G1 X44.554 Y111.950 E2.91476
G1 X44.004 Y111.798 E2.98262
G1 X43.706 Y111.665 E3.02128
G1 X43.425 Y111.503 E3.05993
G1 X42.977 Y111.147 E3.12779
G1 X42.600 Y110.706 E3.19670
G1 X42.315 Y110.201 E3.26561
G1 X42.133 Y109.659 E3.33348
G1 X42.077 Y109.338 E3.37213
G1 X42.054 Y109.014 E3.41078
G1 X42.099 Y108.444 E3.47865
G1 X42.252 Y107.893 E3.54652
G1 X42.384 Y107.596 E3.58517
G1 X42.547 Y107.314 E3.62382
G1 X42.897 Y106.874 E3.69064
G1 X43.135 Y106.652 E3.72930
G1 X43.395 Y106.456 E3.76795
G1 X43.897 Y106.183 E3.83582
G1 X44.451 Y106.009 E3.90473
G1 X45.020 Y105.944 E3.97273
G1 X45.344 Y105.956 E4.01125
G1 X45.666 Y106.001 E4.04990
G1 X46.214 Y106.163 E4.11776
G1 X46.728 Y106.431 E4.18667
G1 X47.136 Y106.755 E4.24846
G1 X47.567 Y106.682 F7800.000
G1 E2.24846 F2400.00000
G92 E0
G1 X45.133 Y44.096 F7800.000
G1 E2.00000 F2400.00000
G1 F1800
G1 X44.554 Y44.051 E2.06892
G1 X44.003 Y43.897 E2.13692
G1 X43.706 Y43.765 E2.17543
G1 X43.425 Y43.603 E2.21408
G1 X42.977 Y43.247 E2.28195
G1 X42.600 Y42.806 E2.35086
G1 X42.319 Y42.307 E2.41886
G1 X42.202 Y42.005 E2.45738
G1 X42.118 Y41.690 E2.49603
G1 X42.054 Y41.122 E2.56389
G1 X42.099 Y40.544 E2.63281
G1 X42.252 Y39.992 E2.70081
G1 X42.384 Y39.696 E2.73933
G1 X42.547 Y39.414 E2.77797
G1 X42.897 Y38.974 E2.84480
G1 X43.135 Y38.752 E2.88345
G1 X43.395 Y38.556 E2.92210
G1 X43.897 Y38.283 E2.98997
G1 X44.451 Y38.109 E3.05888
G1 X45.020 Y38.044 E3.12688
G1 X45.344 Y38.056 E3.16540
G1 X45.666 Y38.101 E3.20405
G1 X46.214 Y38.263 E3.27191
G1 X46.728 Y38.531 E3.34082
G1 X47.183 Y38.892 E3.40974
G1 X47.554 Y39.328 E3.47774
G1 X47.726 Y39.603 E3.51626
G1 X47.869 Y39.895 E3.55490
G1 X48.041 Y40.440 E3.62277
G1 X48.105 Y41.008 E3.69064
G1 X48.094 Y41.333 E3.72929
G1 X48.049 Y41.656 E3.76794
G1 X47.886 Y42.204 E3.83581
G1 X47.618 Y42.718 E3.90472
G1 X47.257 Y43.172 E3.97363
G1 X46.816 Y43.549 E4.04254
G1 X46.318 Y43.831 E4.11054
G1 X46.015 Y43.947 E4.14906
G1 X45.701 Y44.031 E4.18771
G1 X45.192 Y44.089 E4.24845
G1 X44.934 Y44.443 F7800.000
G1 E2.24845 F2400.00000
G92 E0
G1 X47.679 Y45.569 F7800.000
G1 E2.00000 F2400.00000
G1 F1800
G1 X99.584 Y75.021 E9.08771
G1 X48.015 Y104.315 E16.13154
G1 X48.506 Y100.038 E16.64279
G1 X48.783 Y97.936 E16.89465
G1 X49.116 Y95.701 E17.16308
G1 X49.439 Y93.748 E17.39816
G1 X49.813 Y91.692 E17.64632
G1 X50.046 Y90.060 E17.84215
G1 X50.252 Y88.412 E18.03940
G1 X50.431 Y86.761 E18.23657
G1 X50.589 Y84.995 E18.44712
G1 X50.704 Y83.450 E18.63113
G1 X50.798 Y81.793 E18.82831
G1 X50.866 Y80.021 E19.03885
G1 X50.901 Y78.472 E19.22287
G1 X50.911 Y76.811 E19.42012
G1 X50.892 Y75.151 E19.61736
G1 X50.845 Y73.490 E19.81461
G1 X50.770 Y71.832 E20.01178
G1 X50.658 Y70.063 E20.22233
G1 X50.535 Y68.518 E20.40634
G1 X50.375 Y66.865 E20.60359
G1 X50.188 Y65.215 E20.80084
G1 X49.972 Y63.568 E20.99808
G1 X49.728 Y61.925 E21.19533
G1 X49.457 Y60.287 E21.39257
G1 X48.906 Y57.280 E21.75562
G1 X48.475 Y54.536 E22.08553
G1 X48.138 Y51.779 E22.41543
G1 X48.004 Y50.389 E22.58130
G1 X47.888 Y48.910 E22.75741
G1 X47.683 Y45.629 E23.14788
G1 X48.474 Y46.841 F7800.000
G1 F1800
G1 X98.138 Y75.021 E29.92953
G1 X48.885 Y103.000 E36.65695
G1 X49.215 Y100.126 E37.00050
G1 X49.490 Y98.035 E37.25092
G1 X49.822 Y95.811 E37.51795
G1 X50.142 Y93.870 E37.75168
G1 X50.518 Y91.806 E38.00078
G1 X50.754 Y90.154 E38.19896
G1 X50.962 Y88.494 E38.39764
G1 X51.142 Y86.831 E38.59631
G1 X51.301 Y85.054 E38.80829
G1 X51.416 Y83.497 E38.99371
G1 X51.511 Y81.827 E39.19237
G1 X51.580 Y80.043 E39.40435
G1 X51.615 Y78.482 E39.58977
G1 X51.625 Y76.809 E39.78845
G1 X51.606 Y75.137 E39.98714
G1 X51.559 Y73.464 E40.18583
G1 X51.483 Y71.793 E40.38449
G1 X51.370 Y70.012 E40.59648
G1 X51.247 Y68.456 E40.78189
G1 X51.086 Y66.790 E40.98058
G1 X50.897 Y65.128 E41.17926
G1 X50.679 Y63.469 E41.37795
G1 X50.434 Y61.815 E41.57664
G1 X50.160 Y60.164 E41.77533
G1 X49.610 Y57.160 E42.13801
G1 X49.183 Y54.437 E42.46540
G1 X48.848 Y51.701 E42.79278
G1 X48.715 Y50.326 E42.95680
G1 X48.600 Y48.860 E43.13146
G1 X48.478 Y46.901 E43.36459
G1 X48.601 Y46.462 F7800.000
G1 E41.36459 F2400.00000
G92 E0
G1 X46.936 Y45.124 F7800.000
G1 E2.00000 F2400.00000
G1 F1800
G1 X47.175 Y48.960 E2.45657
G1 X47.292 Y50.451 E2.63412
G1 X47.428 Y51.856 E2.80183
G1 X47.768 Y54.635 E3.13426
G1 X48.202 Y57.400 E3.46669
G1 X48.753 Y60.410 E3.83010
G1 X49.023 Y62.036 E4.02590
G1 X49.265 Y63.667 E4.22171
G1 X49.479 Y65.302 E4.41751
G1 X49.665 Y66.940 E4.61332
G1 X49.824 Y68.581 E4.80912
G1 X49.945 Y70.114 E4.99174
G1 X50.105 Y72.941 E5.32804
G1 X49.748 Y73.015 E5.37136
G1 X48.683 Y70.235 E5.72500
G1 X48.169 Y68.789 E5.90726
G1 X47.677 Y67.327 E6.09038
G1 X47.210 Y65.858 E6.27350
G1 X46.768 Y64.381 E6.45662
G1 X46.351 Y62.896 E6.63974
G1 X45.616 Y60.009 E6.99363
G1 X45.249 Y58.403 E7.18920
G1 X44.932 Y56.895 E7.37221
G1 X44.393 Y53.965 E7.72610
G1 X44.135 Y52.339 E7.92167
G1 X43.920 Y50.813 E8.10468
G1 X43.731 Y49.282 E8.28780
G1 X43.568 Y47.749 E8.47092
G1 X43.356 Y45.200 E8.77468
G1 X44.305 Y45.464 E8.89159
G1 X45.158 Y45.531 E8.99320
G1 X45.968 Y45.438 E9.09000
G1 X46.457 Y45.307 E9.15013
G1 X46.880 Y45.145 E9.20398
G1 E7.20398 F2400.00000
G92 E0
G1 X49.850 Y76.753 F7800.000
G1 E2.00000 F2400.00000
G1 F1800
G1 X50.197 Y76.822 E2.04201
G1 X50.187 Y78.462 E2.23676
G1 X50.152 Y79.999 E2.41938
G1 X50.084 Y81.759 E2.62849
G1 X49.991 Y83.404 E2.82417
G1 X49.878 Y84.937 E3.00679
G1 X49.720 Y86.691 E3.21590
G1 X49.543 Y88.329 E3.41159
G1 X49.338 Y89.965 E3.60739
G1 X49.108 Y91.577 E3.80087
G1 X48.735 Y93.626 E4.04811
G1 X48.411 Y95.590 E4.28453
G1 X48.075 Y97.837 E4.55436
G1 X47.797 Y99.951 E4.80765
G1 X47.209 Y105.071 E5.41971
G1 X46.751 Y104.833 E5.48100
G1 X45.970 Y104.601 E5.57781
G1 X45.468 Y104.531 E5.63794
G1 X44.964 Y104.513 E5.69793
G1 X44.153 Y104.605 E5.79488
G1 X43.272 Y104.883 E5.90453
G1 X43.308 Y104.065 E6.00178
G1 X43.404 Y102.679 E6.16675
G1 X43.524 Y101.295 E6.33172
G1 X43.839 Y98.511 E6.66446
G1 X44.248 Y95.748 E6.99629
G1 X44.737 Y93.085 E7.31784
G1 X45.040 Y91.640 E7.49314
G1 X45.690 Y88.908 E7.82671
G1 X46.045 Y87.573 E7.99074
G1 X46.836 Y84.877 E8.32442
G1 X47.260 Y83.562 E8.48844
G1 X48.190 Y80.911 E8.82212
G1 X48.682 Y79.619 E8.98640
G1 X49.827 Y76.809 E9.34677
G1 E7.34677 F2400.00000
G92 E0
G1 X47.653 Y105.342 F7800.000
G1 E2.00000 F2400.00000
G1 F1800
G1 X100.485 Y75.330 E9.21631
G1 X100.556 Y75.947 E9.29008
G1 X100.801 Y76.725 E9.38689
G1 X101.023 Y77.180 E9.44701
G1 X101.290 Y77.608 E9.50701
G1 X101.820 Y78.229 E9.60396
G1 X102.459 Y78.737 E9.70079
G1 X102.862 Y78.970 E9.75612
G1 X49.557 Y109.205 E17.03441
G1 X49.503 Y108.427 E17.12708
G1 X49.415 Y107.928 E17.18723
G1 X49.156 Y107.155 E17.28403
G1 X48.735 Y106.410 E17.38561
G1 X48.179 Y105.760 E17.48719
G1 X47.700 Y105.379 E17.55988
G1 E15.55988 F2400.00000
G92 E0
G1 X102.849 Y71.066 F7800.000
G1 E2.00000 F2400.00000
G1 F1800
G1 X102.332 Y71.390 E2.07253
G1 X101.711 Y71.920 E2.16948
G1 X101.203 Y72.558 E2.26631
G1 X100.950 Y72.997 E2.32644
G1 X100.744 Y73.458 E2.38643
G1 X100.526 Y74.245 E2.48339
G1 X100.489 Y74.713 E2.53923
G1 X47.639 Y44.725 E9.75609
G1 X48.289 Y44.169 E9.85772
G1 X48.822 Y43.500 E9.95930
G1 X49.217 Y42.741 E10.06088
G1 X49.448 Y41.960 E10.15769
G1 X49.519 Y41.458 E10.21783
G1 X49.539 Y40.893 E10.28503
G1 X102.797 Y71.037 E17.55320
G1 X104.573 Y71.221 F7800.000
G1 F1800
G1 X103.480 Y71.566 E17.68922
G1 X103.107 Y71.748 E17.73861
G1 X102.755 Y71.968 E17.78786
G1 X102.227 Y72.419 E17.87034
G1 X101.795 Y72.961 E17.95269
G1 X101.587 Y73.321 E18.00208
G1 X101.418 Y73.700 E18.05133
G1 X101.233 Y74.369 E18.13381
G1 X101.176 Y75.085 E18.21907
G1 X101.258 Y75.798 E18.30432
G1 X101.466 Y76.459 E18.38665
G1 X101.648 Y76.833 E18.43604
G1 X101.868 Y77.185 E18.48529
G1 X102.319 Y77.713 E18.56777
G1 X102.862 Y78.145 E18.65013
G1 X103.222 Y78.353 E18.69951
G1 X103.601 Y78.521 E18.74877
G1 X104.607 Y78.801 E18.87283
G1 X48.472 Y110.642 E26.53757
G1 X48.749 Y109.708 E26.65325
G1 X48.806 Y109.296 E26.70265
G1 X48.820 Y108.904 E26.74915
G1 X48.793 Y108.514 E26.79565
G1 X48.721 Y108.104 E26.84505
G1 X48.501 Y107.447 E26.92739
G1 X48.147 Y106.822 E27.01264
G1 X47.681 Y106.276 E27.09788
G1 X47.119 Y105.829 E27.18312
G1 X46.483 Y105.498 E27.26837
G1 X45.818 Y105.301 E27.35071
G1 X45.406 Y105.243 E27.40009
G1 X44.992 Y105.229 E27.44935
G1 X44.302 Y105.307 E27.53182
G1 X43.617 Y105.523 E27.61708
G1 X43.008 Y105.854 E27.69942
G1 X42.498 Y106.238 E27.77517
G1 X42.594 Y104.025 E28.03824
G1 X42.692 Y102.624 E28.20504
G1 X42.813 Y101.224 E28.37184
G1 X43.130 Y98.419 E28.70715
G1 X43.544 Y95.631 E29.04191
G1 X44.036 Y92.947 E29.36597
G1 X44.343 Y91.484 E29.54349
G1 X44.998 Y88.733 E29.87930
G1 X45.357 Y87.381 E30.04553
G1 X46.154 Y84.667 E30.38141
G1 X46.583 Y83.335 E30.54764
G1 X47.519 Y80.666 E30.88352
G1 X48.017 Y79.357 E31.04990
G1 X49.219 Y76.409 E31.42801
G1 X49.327 Y76.031 E31.47462
G1 X49.407 Y75.599 E31.52688
G1 X49.441 Y75.216 E31.57252
G1 X49.438 Y74.761 E31.62649
G1 X49.365 Y74.176 E31.69654
G1 X49.214 Y73.616 E31.76545
G1 X48.013 Y70.482 E32.16403
G1 X47.494 Y69.022 E32.34805
G1 X46.999 Y67.549 E32.53260
G1 X46.528 Y66.068 E32.71714
G1 X46.082 Y64.580 E32.90169
G1 X45.662 Y63.084 E33.08623
G1 X45.266 Y61.581 E33.27078
G1 X44.551 Y58.556 E33.63992
G1 X44.232 Y57.036 E33.82440
G1 X43.939 Y55.510 E34.00895
G1 X43.689 Y54.083 E34.18111
G1 X43.428 Y52.444 E34.37810
G1 X43.212 Y50.906 E34.56258
G1 X43.022 Y49.364 E34.74713
G1 X42.857 Y47.819 E34.93167
G1 X42.718 Y46.271 E35.11622
G1 X42.555 Y43.824 E35.40752
G1 X43.021 Y44.195 E35.47823
G1 X43.382 Y44.403 E35.52762
G1 X43.760 Y44.571 E35.57688
G1 X44.430 Y44.757 E35.65936
G1 X45.145 Y44.813 E35.74461
G1 X45.834 Y44.735 E35.82695
G1 X46.236 Y44.627 E35.87634
G1 X46.623 Y44.479 E35.92559
G1 X47.228 Y44.137 E36.00807
G1 X47.773 Y43.671 E36.09333
G1 X48.220 Y43.109 E36.17858
G1 X48.552 Y42.472 E36.26382
G1 X48.749 Y41.808 E36.34616
G1 X48.806 Y41.396 E36.39556
G1 X48.821 Y40.980 E36.44496
G1 X48.742 Y40.291 E36.52729
G1 X48.485 Y39.476 E36.62882
G1 X104.520 Y71.192 E44.27588
G1 X104.291 Y72.059 F7800.000
G1 F1800
G1 X104.860 Y71.994 E44.34388
G1 X105.184 Y72.006 E44.38240
G1 X105.506 Y72.051 E44.42105
G1 X106.054 Y72.213 E44.48891
G1 X106.569 Y72.481 E44.55782
G1 X107.023 Y72.842 E44.62674
G1 X107.400 Y73.284 E44.69565
G1 X107.681 Y73.782 E44.76365
G1 X107.798 Y74.085 E44.80217
G1 X107.882 Y74.399 E44.84082
G1 X107.946 Y74.967 E44.90868
G1 X107.901 Y75.545 E44.97760
G1 X107.748 Y76.097 E45.04560
G1 X107.616 Y76.393 E45.08411
G1 X107.453 Y76.675 E45.12276
G1 X107.097 Y77.122 E45.19063
G1 X106.656 Y77.499 E45.25954
G1 X106.158 Y77.781 E45.32754
G1 X105.855 Y77.897 E45.36606
G1 X105.541 Y77.981 E45.40471
G1 X104.973 Y78.046 E45.47257
G1 X104.394 Y78.000 E45.54149
G1 X103.843 Y77.847 E45.60949
G1 X103.546 Y77.715 E45.64801
G1 X103.265 Y77.553 E45.68665
G1 X102.817 Y77.197 E45.75453
G1 X102.446 Y76.761 E45.82253
G1 X102.274 Y76.486 E45.86104
G1 X102.131 Y76.194 E45.89969
G1 X101.959 Y75.649 E45.96756
G1 X101.894 Y75.072 E46.03647
G1 X101.939 Y74.494 E46.10538
G1 X102.092 Y73.942 E46.17338
G1 X102.224 Y73.646 E46.21190
G1 X102.387 Y73.364 E46.25055
G1 X102.743 Y72.917 E46.31842
G1 X103.178 Y72.545 E46.38642
G1 X103.453 Y72.373 E46.42494
G1 X103.746 Y72.231 E46.46358
G1 X104.234 Y72.077 E46.52433
G1 X104.420 Y71.680 F7800.000
G1 E44.52433 F2400.00000
G92 E0
G1 X41.754 Y106.921 F7800.000
G1 E2.00000 F2400.00000
G1 F1800
G1 X41.881 Y103.984 E2.34906
G1 X41.980 Y102.568 E2.51770
G1 X42.103 Y101.153 E2.68633
G1 X42.422 Y98.326 E3.02421
G1 X42.839 Y95.514 E3.36189
G1 X43.335 Y92.809 E3.68848
G1 X43.646 Y91.328 E3.86821
G1 X44.305 Y88.559 E4.20627
G1 X44.669 Y87.188 E4.37470
G1 X45.471 Y84.457 E4.71278
G1 X45.906 Y83.107 E4.88121
G1 X46.848 Y80.421 E5.21929
G1 X47.353 Y79.095 E5.38778
G1 X48.543 Y76.175 E5.76225
G1 X48.631 Y75.868 E5.80022
G1 X48.698 Y75.501 E5.84446
G1 X48.727 Y75.186 E5.88208
G1 X48.725 Y74.808 E5.92694
G1 X48.662 Y74.315 E5.98605
G1 X48.534 Y73.837 E6.04475
G1 X47.343 Y70.730 E6.44001
G1 X46.819 Y69.256 E6.62580
G1 X46.320 Y67.771 E6.81177
G1 X45.846 Y66.279 E6.99773
G1 X45.397 Y64.779 E7.18370
G1 X44.973 Y63.272 E7.36967
G1 X44.574 Y61.757 E7.55564
G1 X44.226 Y60.338 E7.72919
G1 X43.854 Y58.709 E7.92761
G1 X43.532 Y57.177 E8.11355
G1 X43.236 Y55.639 E8.29952
G1 X42.984 Y54.200 E8.47307
G1 X42.722 Y52.550 E8.67148
G1 X42.504 Y51.000 E8.85743
G1 X42.312 Y49.446 E9.04340
G1 X42.146 Y47.889 E9.22937
G1 X42.006 Y46.329 E9.41534
G1 X41.893 Y44.767 E9.60131
G1 X41.801 Y43.118 E9.79755
G1 X41.507 Y42.534 E9.87517
G1 X41.352 Y42.087 E9.93127
G1 X41.242 Y41.557 E9.99557
G1 X41.206 Y41.012 E10.06051
G1 X41.221 Y40.679 E10.10012
G1 X41.279 Y40.276 E10.14837
G1 X41.379 Y39.881 E10.19683
G1 X41.492 Y39.563 E10.23686
G1 X41.664 Y39.195 E10.28511
G1 X41.874 Y38.847 E10.33338
G1 X42.119 Y38.523 E10.38163
G1 X42.346 Y38.274 E10.42166
G1 X42.649 Y38.001 E10.47011
G1 X42.920 Y37.801 E10.51013
G1 X43.270 Y37.590 E10.55859
G1 X43.638 Y37.418 E10.60686
G1 X44.021 Y37.284 E10.65510
G1 X44.349 Y37.205 E10.69513
G1 X44.753 Y37.147 E10.74360
G1 X45.155 Y37.131 E10.79143
G1 X45.631 Y37.167 E10.84814
G1 X46.096 Y37.259 E10.90443
G1 X46.545 Y37.407 E10.96051
G1 X47.033 Y37.641 E11.02482
G1 X47.485 Y37.942 E11.08935
G1 X47.942 Y38.348 E11.16191
G1 X107.078 Y71.819 E19.23216
G1 X107.094 Y71.791 E19.23594
