; generated by Slic3r Prusa Edition 1.41.0-beta+win64 on 2018-11-20 at 19:49:14

; 

; external perimeters extrusion width = 0.45mm
; perimeters extrusion width = 0.45mm
; infill extrusion width = 0.45mm
; solid infill extrusion width = 0.45mm
; top infill extrusion width = 0.40mm
; first layer extrusion width = 0.80mm

M107
M104 S210 ; set temperature
G28 ; home all axes
G1 Z5 F5000 ; lift nozzle
; Filament gcode
M109 S210 ; set temperature and wait for it to be reached
G21 ; set units to millimeters
G90 ; use absolute coordinates
M82 ; use absolute distances for extrusion
G92 E0
G1 Z0.400 F7800.000
G1 E-2.00000 F1800.00000
G92 E0
G1 X53.760 Y59.754 F7800.000
G1 E2.00000 F1800.00000
G1 X55.047 Y59.012 E2.17641
G1 X56.086 Y58.668 E2.30645
G1 X57.169 Y58.508 E2.43649
G1 X69.129 Y58.156 E3.85750
G1 X90.274 Y58.524 E6.36923
G1 X91.648 Y58.709 E6.53387
G1 X92.922 Y59.173 E6.69484
G1 X94.068 Y59.897 E6.85581
G1 X100.860 Y66.005 E7.94069
G1 X101.563 Y66.844 E8.07074
G1 X102.108 Y67.787 E8.20004
G1 X102.485 Y68.808 E8.32935
G1 X102.683 Y69.885 E8.45939
G1 X102.712 Y85.494 E10.31322
G1 X102.589 Y86.732 E10.46094
G1 X102.225 Y87.928 E10.60940
G1 X101.634 Y89.029 E10.75785
G1 X100.839 Y89.994 E10.90631
G1 X99.933 Y90.743 E11.04593
G1 X98.898 Y91.314 E11.18629
G1 X97.776 Y91.684 E11.32665
G1 X96.604 Y91.840 E11.46700
G1 X53.645 Y91.845 E16.56905
G1 X52.401 Y91.722 E16.71751
G1 X51.205 Y91.358 E16.86597
G1 X50.104 Y90.767 E17.01442
G1 X49.139 Y89.972 E17.16288
G1 X48.387 Y89.061 E17.30324
G1 X47.817 Y88.026 E17.44359
G1 X47.448 Y86.903 E17.58395
G1 X47.293 Y85.731 E17.72431
G1 X47.297 Y70.170 E19.57246
G1 X47.390 Y69.366 E19.66857
G1 X47.585 Y68.581 E19.76467
G1 X47.875 Y67.832 E19.86004
G1 X48.261 Y67.121 E19.95615
G1 X52.680 Y60.774 E20.87464
G1 X53.716 Y59.795 E21.04392
; PURGING FINISHED
G1 E19.04392
G92 E0
G1 X95.955 Y85.088 F7800.000
G1 E2.00000 F1800.00000
G1 X82.506 Y85.088 E3.59719
G1 X78.518 Y81.555 E4.23000
G1 X78.051 Y81.442 E4.28705
G1 X77.582 Y81.582 E4.34519
G1 X77.279 Y81.909 E4.39815
G1 X75.830 Y85.088 E4.81308
G1 X63.203 Y85.088 E6.31271
G1 X63.175 Y84.458 E6.38755
G1 X62.482 Y83.555 E6.52281
G1 X61.395 Y83.213 E6.65807
G1 X60.309 Y83.555 E6.79333
G1 X59.615 Y84.458 E6.92860
G1 X59.588 Y85.088 E7.00343
G1 X54.045 Y85.088 E7.66167
G1 X54.045 Y84.388 E7.74480
G1 X58.849 Y84.388 E8.31535
G1 X59.942 Y82.881 E8.53646
G1 X61.395 Y82.409 E8.71789
G1 X62.848 Y82.881 E8.89933
G1 X63.941 Y84.388 E9.12044
G1 X66.167 Y84.388 E9.38472
G1 X65.110 Y80.446 E9.86946
G1 X58.140 Y79.528 E10.70438
G1 X57.208 Y81.143 E10.92587
G1 X56.602 Y80.793 E11.00901
G1 X57.768 Y78.773 E11.28606
G1 X65.665 Y79.813 E12.23207
G1 X66.690 Y83.638 E12.70242
G1 X69.031 Y83.638 E12.98046
G1 X69.489 Y78.407 E13.60406
G1 X89.947 Y78.764 E16.03415
G1 X92.680 Y81.594 E16.50141
G1 X92.169 Y82.088 E16.58573
G1 X89.641 Y79.469 E17.01807
G1 X70.139 Y79.129 E19.33460
G1 X69.679 Y84.378 E19.96041
G1 X75.373 Y84.378 E20.63663
G1 X76.673 Y81.526 E21.00886
G1 X77.076 Y80.992 E21.08829
G1 X77.628 Y80.701 E21.16240
G1 X78.251 Y80.671 E21.23651
G1 X78.849 Y80.916 E21.31320
G1 X82.774 Y84.378 E21.93480
G1 X95.955 Y84.378 E23.50019
G1 X95.955 Y85.028 E23.57739
G1 X95.555 Y85.081 F7800.000
G1 E21.57739 F1800.00000
G92 E0
G1 X69.089 Y84.238 F7800.000
G1 X69.322 Y84.363
G1 E2.00000 F1800.00000
G1 X66.530 Y84.363 E2.34174
G1 E0.34174
G92 E0
G1 X81.599 Y88.488 F7800.000
G1 X98.355 Y88.488
G1 X99.183 Y88.316
G1 X99.355 Y87.488
G1 X99.355 Y81.978
G1 X95.955 Y71.600
G1 E2.00000 F1800.00000
G1 X82.506 Y71.600 E3.59719
G1 X78.518 Y68.067 E4.23000
G1 X78.051 Y67.954 E4.28705
G1 X77.582 Y68.094 E4.34519
G1 X77.279 Y68.421 E4.39815
G1 X75.830 Y71.600 E4.81308
G1 X63.203 Y71.600 E6.31271
G1 X63.175 Y70.970 E6.38755
G1 X62.481 Y70.067 E6.52281
G1 X61.395 Y69.725 E6.65807
G1 X60.309 Y70.067 E6.79333
G1 X59.615 Y70.970 E6.92860
G1 X59.588 Y71.600 E7.00343
G1 X54.045 Y71.600 E7.66167
G1 X54.045 Y70.900 E7.74480
G1 X58.849 Y70.900 E8.31535
G1 X59.942 Y69.393 E8.53646
G1 X61.395 Y68.921 E8.71789
G1 X62.848 Y69.393 E8.89933
G1 X63.941 Y70.900 E9.12044
G1 X66.167 Y70.900 E9.38472
G1 X65.110 Y66.958 E9.86946
G1 X58.140 Y66.040 E10.70438
G1 X57.208 Y67.655 E10.92587
G1 X56.602 Y67.305 E11.00901
G1 X57.768 Y65.285 E11.28606
G1 X65.665 Y66.325 E12.23207
G1 X66.690 Y70.150 E12.70242
G1 X69.031 Y70.150 E12.98046
G1 X69.489 Y64.919 E13.60406
G1 X89.947 Y65.276 E16.03415
G1 X92.680 Y68.106 E16.50141
G1 X92.169 Y68.600 E16.58573
G1 X89.641 Y65.981 E17.01807
G1 X70.139 Y65.641 E19.33460
G1 X69.679 Y70.890 E19.96041
G1 X75.373 Y70.890 E20.63663
G1 X76.673 Y68.038 E21.00886
G1 X77.076 Y67.505 E21.08829
G1 X77.628 Y67.213 E21.16240
G1 X78.251 Y67.183 E21.23651
G1 X78.849 Y67.428 E21.31320
G1 X82.774 Y70.890 E21.93480
G1 X95.955 Y70.890 E23.50019
G1 X95.955 Y71.540 E23.57739
G1 X95.555 Y71.593 F7800.000
G1 E21.57739 F1800.00000
G92 E0
G1 X69.089 Y70.750 F7800.000
G1 X69.322 Y70.875
G1 E2.00000 F1800.00000
G1 X66.530 Y70.875 E2.34174
G1 Z0.700 F7800.000
M104 S200 ; set temperature
; PURGING FINISHED
G1 E0.34174 F1800.00000
G92 E0
G1 X69.093 Y84.234 F7800.000
G1 E2.00000 F1800.00000
G1 F900
G1 X69.071 Y84.492 E2.01243
G1 X66.812 Y84.492 E2.12110
G1 X66.743 Y84.234 E2.13392
G1 X69.033 Y84.234 E2.24410
G1 X69.093 Y83.849 F7800.000
G1 F3600
G1 X69.224 Y83.849 E2.25040
G1 X69.682 Y78.621 E2.50277
G1 X89.856 Y78.973 E3.47325
G1 X92.382 Y81.589 E3.64815
G1 X92.175 Y81.790 E3.66204
G1 X89.732 Y79.260 E3.83119
G1 X69.946 Y78.915 E4.78296
G1 X69.450 Y84.589 E5.05690
G1 X75.509 Y84.589 E5.34832
G1 X76.855 Y81.634 E5.50446
G1 X77.216 Y81.157 E5.53326
G1 X77.685 Y80.909 E5.55877
G1 X78.215 Y80.884 E5.58427
G1 X78.736 Y81.098 E5.61137
G1 X82.695 Y84.589 E5.86523
G1 X95.744 Y84.589 E6.49287
G1 X95.744 Y84.877 E6.50675
G1 X82.586 Y84.877 E7.13960
G1 X78.619 Y81.362 E7.39454
G1 X78.045 Y81.223 E7.42291
G1 X77.467 Y81.397 E7.45195
G1 X77.101 Y81.790 E7.47779
G1 X75.694 Y84.877 E7.64095
G1 X63.404 Y84.877 E8.23206
G1 X63.383 Y84.383 E8.25586
G1 X62.608 Y83.374 E8.31703
G1 X61.395 Y82.992 E8.37819
G1 X60.182 Y83.374 E8.43935
G1 X59.408 Y84.383 E8.50052
G1 X59.386 Y84.877 E8.52432
G1 X54.256 Y84.877 E8.77107
G1 X54.256 Y84.599 E8.78447
G1 X58.957 Y84.599 E9.01057
G1 X60.073 Y83.060 E9.10198
G1 X61.395 Y82.630 E9.16887
G1 X62.718 Y83.060 E9.23576
G1 X63.834 Y84.599 E9.32717
G1 X66.441 Y84.599 E9.45257
G1 X65.277 Y80.255 E9.66884
G1 X58.028 Y79.301 E10.02050
G1 X57.131 Y80.855 E10.10684
G1 X56.889 Y80.716 E10.12025
G1 X57.880 Y79.000 E10.21554
G1 X65.498 Y80.003 E10.58512
G1 X66.529 Y83.849 E10.77660
G1 X69.033 Y83.849 E10.89707
G1 X68.871 Y83.463 F7800.000
G1 F1800
G1 X69.329 Y78.229 E11.14974
G1 X90.023 Y78.591 E12.14520
G1 X92.928 Y81.599 E12.34633
G1 X92.165 Y82.335 E12.39731
G1 X89.565 Y79.643 E12.57732
G1 X70.299 Y79.306 E13.50412
G1 X69.870 Y84.203 E13.74052
G1 X75.261 Y84.203 E13.99977
G1 X76.522 Y81.436 E14.14603
G1 X76.960 Y80.856 E14.18100
G1 X77.581 Y80.528 E14.21475
G1 X78.282 Y80.494 E14.24851
G1 X78.942 Y80.766 E14.28285
G1 X82.840 Y84.203 E14.53282
G1 X96.130 Y84.203 E15.17199
G1 X96.130 Y85.263 E15.22298
G1 X82.440 Y85.263 E15.88140
G1 X78.435 Y81.715 E16.13877
G1 X78.056 Y81.623 E16.15750
G1 X77.678 Y81.736 E16.17648
G1 X77.426 Y82.007 E16.19428
G1 X75.942 Y85.263 E16.36636
G1 X63.036 Y85.263 E16.98714
G1 X63.003 Y84.521 E17.02285
G1 X62.376 Y83.705 E17.07232
G1 X61.395 Y83.396 E17.12179
G1 X60.414 Y83.705 E17.17126
G1 X59.788 Y84.521 E17.22073
G1 X59.755 Y85.263 E17.25644
G1 X53.870 Y85.263 E17.53948
G1 X53.870 Y84.213 E17.58998
G1 X58.760 Y84.213 E17.82516
G1 X59.834 Y82.732 E17.91315
G1 X61.395 Y82.225 E17.99210
G1 X62.956 Y82.732 E18.07105
G1 X64.031 Y84.213 E18.15903
G1 X65.938 Y84.213 E18.25080
G1 X64.971 Y80.604 E18.43051
G1 X58.233 Y79.717 E18.75738
G1 X57.272 Y81.382 E18.84988
G1 X56.363 Y80.857 E18.90038
G1 X57.675 Y78.584 E19.02661
G1 X65.804 Y79.654 E19.42097
G1 X66.825 Y83.463 E19.61062
G1 X68.811 Y83.463 E19.70616
G1 X69.246 Y83.602 F7800.000
G1 E17.70616 F1800.00000
G92 E0
G1 X69.093 Y70.746 F7800.000
G1 E2.00000 F1800.00000
G1 F900
G1 X69.071 Y71.004 E2.01243
G1 X66.812 Y71.004 E2.12110
G1 X66.743 Y70.746 E2.13392
G1 X69.033 Y70.746 E2.24410
G1 X69.093 Y70.361 F7800.000
G1 F3600
G1 X69.224 Y70.361 E2.25040
G1 X69.682 Y65.133 E2.50277
G1 X89.856 Y65.485 E3.47325
G1 X92.382 Y68.101 E3.64815
G1 X92.175 Y68.302 E3.66204
G1 X89.732 Y65.772 E3.83119
G1 X69.946 Y65.427 E4.78296
G1 X69.450 Y71.101 E5.05690
G1 X75.509 Y71.101 E5.34832
G1 X76.855 Y68.147 E5.50446
G1 X77.216 Y67.669 E5.53326
G1 X77.685 Y67.421 E5.55877
G1 X78.215 Y67.396 E5.58427
G1 X78.736 Y67.610 E5.61137
G1 X82.695 Y71.101 E5.86523
G1 X95.744 Y71.101 E6.49287
G1 X95.744 Y71.389 E6.50675
G1 X82.586 Y71.389 E7.13960
G1 X78.619 Y67.875 E7.39454
G1 X78.045 Y67.735 E7.42291
G1 X77.467 Y67.909 E7.45195
G1 X77.101 Y68.302 E7.47779
G1 X75.694 Y71.389 E7.64095
G1 X63.404 Y71.389 E8.23206
G1 X63.383 Y70.895 E8.25586
G1 X62.608 Y69.886 E8.31703
G1 X61.395 Y69.504 E8.37819
G1 X60.182 Y69.886 E8.43935
G1 X59.408 Y70.895 E8.50052
G1 X59.386 Y71.389 E8.52432
G1 X54.256 Y71.389 E8.77107
G1 X54.256 Y71.111 E8.78447
G1 X58.957 Y71.111 E9.01057
G1 X60.073 Y69.572 E9.10198
G1 X61.395 Y69.142 E9.16887
G1 X62.718 Y69.572 E9.23576
G1 X63.834 Y71.111 E9.32717
G1 X66.441 Y71.111 E9.45257
G1 X65.277 Y66.767 E9.66884
G1 X58.028 Y65.813 E10.02050
G1 X57.131 Y67.367 E10.10684
G1 X56.889 Y67.228 E10.12025
G1 X57.880 Y65.512 E10.21554
G1 X65.498 Y66.515 E10.58512
G1 X66.529 Y70.361 E10.77660
G1 X69.033 Y70.361 E10.89707
G1 X68.871 Y69.975 F7800.000
G1 F1800
G1 X69.329 Y64.741 E11.14974
G1 X90.023 Y65.103 E12.14520
G1 X92.928 Y68.111 E12.34633
G1 X92.165 Y68.847 E12.39731
G1 X89.565 Y66.155 E12.57732
G1 X70.299 Y65.819 E13.50412
G1 X69.870 Y70.715 E13.74052
G1 X75.261 Y70.715 E13.99977
G1 X76.522 Y67.948 E14.14603
G1 X76.960 Y67.368 E14.18100
G1 X77.581 Y67.040 E14.21475
G1 X78.282 Y67.006 E14.24851
G1 X78.942 Y67.278 E14.28285
G1 X82.840 Y70.715 E14.53282
G1 X96.130 Y70.715 E15.17199
G1 X96.130 Y71.775 E15.22298
G1 X82.440 Y71.775 E15.88140
G1 X78.435 Y68.227 E16.13877
G1 X78.056 Y68.135 E16.15750
G1 X77.678 Y68.248 E16.17648
G1 X77.426 Y68.519 E16.19428
G1 X75.942 Y71.775 E16.36636
G1 X63.036 Y71.775 E16.98714
G1 X63.003 Y71.033 E17.02285
G1 X62.376 Y70.217 E17.07232
G1 X61.395 Y69.908 E17.12179
G1 X60.414 Y70.217 E17.17126
G1 X59.788 Y71.033 E17.22073
G1 X59.755 Y71.775 E17.25644
G1 X53.870 Y71.775 E17.53948
G1 X53.870 Y70.725 E17.58998
G1 X58.760 Y70.725 E17.82516
G1 X59.834 Y69.244 E17.91315
G1 X61.395 Y68.737 E17.99210
G1 X62.956 Y69.244 E18.07105
G1 X64.031 Y70.725 E18.15903
G1 X65.938 Y70.725 E18.25080
G1 X64.971 Y67.116 E18.43051
G1 X58.233 Y66.229 E18.75738
G1 X57.272 Y67.894 E18.84988
G1 X56.363 Y67.369 E18.90038
G1 X57.675 Y65.096 E19.02661
G1 X65.804 Y66.166 E19.42097
G1 X66.825 Y69.975 E19.61062
G1 X68.811 Y69.975 E19.70616
G1 X69.246 Y70.114 F7800.000
G1 Z1.000 F7800.000
; PURGING FINISHED
G1 E17.70616 F1800.00000
G92 E0
G1 X69.093 Y84.234 F7800.000
G1 E2.00000 F1800.00000
G1 F900
G1 X69.071 Y84.492 E2.01243
G1 X66.812 Y84.492 E2.12110
G1 X66.743 Y84.234 E2.13392
G1 X69.033 Y84.234 E2.24410
G1 X69.093 Y83.849 F7800.000
G1 F3600
G1 X69.224 Y83.849 E2.25040
G1 X69.682 Y78.621 E2.50277
G1 X89.856 Y78.973 E3.47325
G1 X92.382 Y81.589 E3.64815
G1 X92.175 Y81.790 E3.66204
G1 X89.732 Y79.260 E3.83119
G1 X69.946 Y78.915 E4.78296
G1 X69.450 Y84.589 E5.05690
G1 X75.509 Y84.589 E5.34832
G1 X76.855 Y81.634 E5.50446
G1 X77.216 Y81.157 E5.53326
G1 X77.685 Y80.909 E5.55877
G1 X78.215 Y80.884 E5.58427
G1 X78.736 Y81.098 E5.61137
G1 X82.695 Y84.589 E5.86523
G1 X95.744 Y84.589 E6.49287
G1 X95.744 Y84.877 E6.50675
G1 X82.586 Y84.877 E7.13960
G1 X78.619 Y81.362 E7.39454
G1 X78.045 Y81.223 E7.42291
G1 X77.467 Y81.397 E7.45195
G1 X77.101 Y81.790 E7.47779
G1 X75.694 Y84.877 E7.64095
G1 X63.404 Y84.877 E8.23206
G1 X63.383 Y84.383 E8.25586
G1 X62.608 Y83.374 E8.31703
G1 X61.395 Y82.992 E8.37819
G1 X60.182 Y83.374 E8.43935
G1 X59.408 Y84.383 E8.50052
G1 X59.386 Y84.877 E8.52432
G1 X54.256 Y84.877 E8.77107
G1 X54.256 Y84.599 E8.78447
G1 X58.957 Y84.599 E9.01057
G1 X60.073 Y83.060 E9.10198
G1 X61.395 Y82.630 E9.16887
G1 X62.718 Y83.060 E9.23576
G1 X63.834 Y84.599 E9.32717
G1 X66.441 Y84.599 E9.45257
G1 X65.277 Y80.255 E9.66884
G1 X58.028 Y79.301 E10.02050
G1 X57.131 Y80.855 E10.10684
G1 X56.889 Y80.716 E10.12025
G1 X57.880 Y79.000 E10.21554
G1 X65.498 Y80.003 E10.58512
G1 X66.529 Y83.849 E10.77660
G1 X69.033 Y83.849 E10.89707
G1 X68.871 Y83.463 F7800.000
G1 F1800
G1 X69.329 Y78.229 E11.14974
G1 X90.023 Y78.591 E12.14520
G1 X92.928 Y81.599 E12.34633
G1 X92.165 Y82.335 E12.39731
G1 X89.565 Y79.643 E12.57732
G1 X70.299 Y79.306 E13.50412
G1 X69.870 Y84.203 E13.74052
G1 X75.261 Y84.203 E13.99977
G1 X76.522 Y81.436 E14.14603
G1 X76.960 Y80.856 E14.18100
G1 X77.581 Y80.528 E14.21475
G1 X78.282 Y80.494 E14.24851
G1 X78.942 Y80.766 E14.28285
G1 X82.840 Y84.203 E14.53282
G1 X96.130 Y84.203 E15.17199
G1 X96.130 Y85.263 E15.22298
G1 X82.440 Y85.263 E15.88140
G1 X78.435 Y81.715 E16.13877
G1 X78.056 Y81.623 E16.15750
G1 X77.678 Y81.736 E16.17648
G1 X77.426 Y82.007 E16.19428
G1 X75.942 Y85.263 E16.36636
G1 X63.036 Y85.263 E16.98714
G1 X63.003 Y84.521 E17.02285
G1 X62.376 Y83.705 E17.07232
G1 X61.395 Y83.396 E17.12179
G1 X60.414 Y83.705 E17.17126
G1 X59.788 Y84.521 E17.22073
G1 X59.755 Y85.263 E17.25644
G1 X53.870 Y85.263 E17.53948
G1 X53.870 Y84.213 E17.58998
G1 X58.760 Y84.213 E17.82516
G1 X59.834 Y82.732 E17.91315
G1 X61.395 Y82.225 E17.99210
G1 X62.956 Y82.732 E18.07105
G1 X64.031 Y84.213 E18.15903
G1 X65.938 Y84.213 E18.25080
G1 X64.971 Y80.604 E18.43051
G1 X58.233 Y79.717 E18.75738
G1 X57.272 Y81.382 E18.84988
G1 X56.363 Y80.857 E18.90038
G1 X57.675 Y78.584 E19.02661
G1 X65.804 Y79.654 E19.42097
G1 X66.825 Y83.463 E19.61062
G1 X68.811 Y83.463 E19.70616
G1 X69.246 Y83.602 F7800.000
G1 E17.70616 F1800.00000
G92 E0
G1 X69.093 Y70.746 F7800.000
G1 E2.00000 F1800.00000
G1 F900
G1 X69.071 Y71.004 E2.01243
G1 X66.812 Y71.004 E2.12110
G1 X66.743 Y70.746 E2.13392
G1 X69.033 Y70.746 E2.24410
G1 X69.093 Y70.361 F7800.000
G1 F3600
G1 X69.224 Y70.361 E2.25040
G1 X69.682 Y65.133 E2.50277
G1 X89.856 Y65.485 E3.47325
G1 X92.382 Y68.101 E3.64815
G1 X92.175 Y68.302 E3.66204
G1 X89.732 Y65.772 E3.83119
G1 X69.946 Y65.427 E4.78296
G1 X69.450 Y71.101 E5.05690
G1 X75.509 Y71.101 E5.34832
G1 X76.855 Y68.147 E5.50446
G1 X77.216 Y67.669 E5.53326
G1 X77.685 Y67.421 E5.55877
G1 X78.215 Y67.396 E5.58427
G1 X78.736 Y67.610 E5.61137
G1 X82.695 Y71.101 E5.86523
G1 X95.744 Y71.101 E6.49287
G1 X95.744 Y71.389 E6.50675
G1 X82.586 Y71.389 E7.13960
G1 X78.619 Y67.875 E7.39454
G1 X78.045 Y67.735 E7.42291
G1 X77.467 Y67.909 E7.45195
G1 X77.101 Y68.302 E7.47779
G1 X75.694 Y71.389 E7.64095
G1 X63.404 Y71.389 E8.23206
G1 X63.383 Y70.895 E8.25586
G1 X62.608 Y69.886 E8.31703
G1 X61.395 Y69.504 E8.37819
G1 X60.182 Y69.886 E8.43935
G1 X59.408 Y70.895 E8.50052
G1 X59.386 Y71.389 E8.52432
G1 X54.256 Y71.389 E8.77107
G1 X54.256 Y71.111 E8.78447
G1 X58.957 Y71.111 E9.01057
G1 X60.073 Y69.572 E9.10198
G1 X61.395 Y69.142 E9.16887
G1 X62.718 Y69.572 E9.23576
G1 X63.834 Y71.111 E9.32717
G1 X66.441 Y71.111 E9.45257
G1 X65.277 Y66.767 E9.66884
G1 X58.028 Y65.813 E10.02050
G1 X57.131 Y67.367 E10.10684
G1 X56.889 Y67.228 E10.12025
G1 X57.880 Y65.512 E10.21554
G1 X65.498 Y66.515 E10.58512
G1 X66.529 Y70.361 E10.77660
G1 X69.033 Y70.361 E10.89707
G1 X68.871 Y69.975 F7800.000
G1 F1800
G1 X69.329 Y64.741 E11.14974
G1 X90.023 Y65.103 E12.14520
G1 X92.928 Y68.111 E12.34633
G1 X92.165 Y68.847 E12.39731
G1 X89.565 Y66.155 E12.57732
G1 X70.299 Y65.819 E13.50412
G1 X69.870 Y70.715 E13.74052
G1 X75.261 Y70.715 E13.99977
G1 X76.522 Y67.948 E14.14603
G1 X76.960 Y67.368 E14.18100
G1 X77.581 Y67.040 E14.21475
G1 X78.282 Y67.006 E14.24851
G1 X78.942 Y67.278 E14.28285
G1 X82.840 Y70.715 E14.53282
G1 X96.130 Y70.715 E15.17199
G1 X96.130 Y71.775 E15.22298
G1 X82.440 Y71.775 E15.88140
G1 X78.435 Y68.227 E16.13877
G1 X78.056 Y68.135 E16.15750
G1 X77.678 Y68.248 E16.17648
G1 X77.426 Y68.519 E16.19428
G1 X75.942 Y71.775 E16.36636
