; generated by Slic3r Prusa Edition 1.41.0-beta+win64 on 2018-10-01 at 11:30:02

; 

; external perimeters extrusion width = 0.45mm
; perimeters extrusion width = 0.45mm
; infill extrusion width = 0.45mm
; solid infill extrusion width = 0.45mm
; top infill extrusion width = 0.40mm
; first layer extrusion width = 0.80mm

M107
M104 S210 ; set temperature
G28 ; home all axes
G1 Z5 F5000 ; lift nozzle
; Filament gcode
M109 S210 ; set temperature and wait for it to be reached
G21 ; set units to millimeters
G90 ; use absolute coordinates
M82 ; use absolute distances for extrusion
G92 E0
G1 Z0.400 F7800.000
G1 E-2.00000 F1800.00000
G92 E0
G1 X52.932 Y53.875 F7800.000
G1 E2.00000 F1800.00000
G1 X53.833 Y53.045 E2.14551
G1 X54.883 Y52.401 E2.29176
G1 X56.037 Y51.971 E2.43801
G1 X57.252 Y51.772 E2.58426
G1 X69.167 Y51.428 E3.99997
G1 X90.243 Y51.427 E6.50304
G1 X91.389 Y51.532 E6.63971
G1 X92.503 Y51.845 E6.77713
G1 X93.537 Y52.351 E6.91380
G1 X94.467 Y53.039 E7.05121
G1 X101.061 Y59.616 E8.15738
G1 X101.903 Y60.870 E8.33672
G1 X102.425 Y62.287 E8.51607
G1 X102.598 Y63.725 E8.68807
G1 X102.592 Y92.484 E12.10359
G1 X102.454 Y93.563 E12.23290
G1 X102.130 Y94.609 E12.36294
G1 X101.635 Y95.579 E12.49224
G1 X100.978 Y96.455 E12.62228
G1 X100.002 Y97.341 E12.77884
G1 X98.864 Y98.006 E12.93539
G1 X97.614 Y98.423 E13.09194
G1 X96.304 Y98.573 E13.24850
G1 X53.541 Y98.569 E18.32725
G1 X52.448 Y98.436 E18.45803
G1 X51.388 Y98.114 E18.58954
G1 X50.406 Y97.617 E18.72032
G1 X49.520 Y96.953 E18.85184
G1 X48.686 Y96.047 E18.99808
G1 X48.040 Y94.991 E19.14507
G1 X47.610 Y93.830 E19.29205
G1 X47.414 Y92.609 E19.43904
G1 X47.422 Y63.257 E22.92493
G1 X47.695 Y61.854 E23.09472
G1 X48.277 Y60.542 E23.26525
G1 X52.898 Y53.924 E24.22377
; PURGING FINISHED
G1 E22.22377
G92 E0
G1 X95.841 Y78.339 F7800.000
G1 E2.00000 F1800.00000
G1 X82.394 Y78.339 E3.59708
G1 X78.452 Y74.817 E4.22484
G1 X78.013 Y74.720 E4.27823
G1 X77.584 Y74.843 E4.33123
G1 X77.279 Y75.141 E4.38192
G1 X75.955 Y78.339 E4.79296
G1 X63.317 Y78.339 E6.29390
G1 X63.289 Y77.709 E6.36874
G1 X62.595 Y76.806 E6.50400
G1 X61.509 Y76.463 E6.63926
G1 X60.423 Y76.806 E6.77452
G1 X59.729 Y77.709 E6.90979
G1 X59.701 Y78.339 E6.98462
G1 X54.159 Y78.339 E7.64286
G1 X54.159 Y77.639 E7.72599
G1 X58.963 Y77.639 E8.29654
G1 X60.056 Y76.132 E8.51765
G1 X61.509 Y75.659 E8.69908
G1 X62.962 Y76.132 E8.88052
G1 X64.055 Y77.639 E9.10163
G1 X66.280 Y77.639 E9.36591
G1 X65.224 Y73.696 E9.85065
G1 X58.254 Y72.779 E10.68557
G1 X57.322 Y74.394 E10.90706
G1 X56.715 Y74.044 E10.99020
G1 X57.882 Y72.024 E11.26725
G1 X65.779 Y73.063 E12.21327
G1 X66.804 Y76.889 E12.68361
G1 X69.146 Y76.889 E12.96175
G1 X69.603 Y71.661 E13.58493
G1 X90.071 Y71.661 E16.01579
G1 X92.853 Y74.443 E16.48305
G1 X92.358 Y74.938 E16.56618
G1 X89.781 Y72.361 E16.99901
G1 X70.245 Y72.361 E19.31925
G1 X69.783 Y77.639 E19.94839
G1 X75.487 Y77.639 E20.62580
G1 X76.687 Y74.740 E20.99839
G1 X77.075 Y74.252 E21.07243
G1 X77.602 Y73.977 E21.14305
G1 X78.196 Y73.940 E21.21368
G1 X78.762 Y74.150 E21.28539
G1 X82.661 Y77.639 E21.90675
G1 X95.841 Y77.639 E23.47208
G1 X95.841 Y78.279 E23.54809
G1 X95.441 Y78.332 F7800.000
G1 E21.54809 F1800.00000
G92 E0
G1 X69.194 Y77.489 F7800.000
G1 X69.427 Y77.614
G1 E2.00000 F1800.00000
G1 X66.643 Y77.614 E2.34062
G1 E0.34062
G92 E0
G1 X70.245 Y58.884 F7800.000
G1 E2.00000 F1800.00000
G1 X69.783 Y64.161 E2.62914
G1 X75.487 Y64.161 E3.30655
G1 X76.687 Y61.263 E3.67914
G1 X77.075 Y60.775 E3.75317
G1 X77.602 Y60.500 E3.82380
G1 X78.196 Y60.463 E3.89443
G1 X78.762 Y60.673 E3.96613
G1 X82.661 Y64.161 E4.58750
G1 X95.841 Y64.161 E6.15283
G1 X95.841 Y64.861 E6.23597
G1 X82.394 Y64.861 E7.83304
G1 X78.452 Y61.340 E8.46080
G1 X78.013 Y61.243 E8.51419
G1 X77.584 Y61.365 E8.56720
G1 X77.279 Y61.664 E8.61789
G1 X75.955 Y64.861 E9.02893
G1 X63.317 Y64.861 E10.52987
G1 X63.289 Y64.232 E10.60470
G1 X62.595 Y63.329 E10.73997
G1 X61.509 Y62.986 E10.87523
G1 X60.423 Y63.329 E11.01049
G1 X59.729 Y64.232 E11.14575
G1 X59.701 Y64.861 E11.22059
G1 X54.159 Y64.861 E11.87882
G1 X54.159 Y64.161 E11.96196
G1 X58.963 Y64.161 E12.53251
G1 X60.056 Y62.654 E12.75361
G1 X61.509 Y62.182 E12.93505
G1 X62.962 Y62.654 E13.11648
G1 X64.055 Y64.161 E13.33759
G1 X66.280 Y64.161 E13.60188
G1 X65.224 Y60.219 E14.08661
G1 X58.254 Y59.301 E14.92153
G1 X57.322 Y60.917 E15.14303
G1 X56.715 Y60.567 E15.22617
G1 X57.882 Y58.546 E15.50321
G1 X65.779 Y59.586 E16.44923
G1 X66.804 Y63.411 E16.91958
G1 X69.146 Y63.411 E17.19772
G1 X69.603 Y58.184 E17.82090
G1 X90.071 Y58.184 E20.25176
G1 X92.853 Y60.966 E20.71902
G1 X92.358 Y61.461 E20.80215
G1 X89.781 Y58.884 E21.23498
G1 X70.305 Y58.884 E23.54809
G1 X69.847 Y58.846 F7800.000
G1 E21.54809 F1800.00000
G92 E0
G1 X69.427 Y64.136 F7800.000
G1 E2.00000 F1800.00000
G1 X66.643 Y64.136 E2.34062
G1 E0.34062
G92 E0
G1 X52.724 Y70.227 F7800.000
G1 X51.975 Y73.023
G1 X50.759 Y75.239
G1 X50.759 Y80.739
G1 X69.603 Y85.139
G1 E2.00000 F1800.00000
G1 X90.071 Y85.139 E4.43086
G1 X92.853 Y87.921 E4.89812
G1 X92.358 Y88.416 E4.98125
G1 X89.781 Y85.839 E5.41408
G1 X70.245 Y85.839 E7.73432
G1 X69.783 Y91.116 E8.36346
G1 X75.487 Y91.116 E9.04087
G1 X76.687 Y88.217 E9.41346
G1 X77.075 Y87.729 E9.48750
G1 X77.602 Y87.454 E9.55812
G1 X78.196 Y87.417 E9.62875
G1 X78.762 Y87.627 E9.70046
G1 X82.661 Y91.116 E10.32182
G1 X95.841 Y91.116 E11.88715
G1 X95.841 Y91.816 E11.97029
G1 X82.394 Y91.816 E13.56736
G1 X78.452 Y88.294 E14.19512
G1 X78.013 Y88.197 E14.24852
G1 X77.584 Y88.320 E14.30152
G1 X77.279 Y88.618 E14.35221
G1 X75.954 Y91.816 E14.76325
G1 X63.317 Y91.816 E16.26419
G1 X63.289 Y91.186 E16.33903
G1 X62.595 Y90.283 E16.47429
G1 X61.509 Y89.941 E16.60955
G1 X60.423 Y90.283 E16.74481
G1 X59.729 Y91.186 E16.88007
G1 X59.701 Y91.816 E16.95491
G1 X54.159 Y91.816 E17.61315
G1 X54.159 Y91.116 E17.69628
G1 X58.963 Y91.116 E18.26683
G1 X60.056 Y89.609 E18.48794
G1 X61.509 Y89.136 E18.66937
G1 X62.962 Y89.609 E18.85081
G1 X64.055 Y91.116 E19.07191
G1 X66.280 Y91.116 E19.33620
G1 X65.224 Y87.173 E19.82093
G1 X58.254 Y86.256 E20.65586
G1 X57.321 Y87.871 E20.87735
G1 X56.715 Y87.521 E20.96049
G1 X57.882 Y85.501 E21.23754
G1 X65.779 Y86.540 E22.18355
G1 X66.804 Y90.366 E22.65390
G1 X69.146 Y90.366 E22.93204
G1 X69.598 Y85.198 E23.54809
G1 X69.912 Y85.392 F7800.000
G1 E21.54809 F1800.00000
G92 E0
G1 X69.427 Y91.091 F7800.000
G1 E2.00000 F1800.00000
G1 X66.643 Y91.091 E2.34062
G1 Z0.700 F7800.000
M104 S200 ; set temperature
; PURGING FINISHED
G1 E0.34062 F1800.00000
G92 E0
G1 X69.198 Y77.485 F7800.000
G1 E2.00000 F1800.00000
G1 F900
G1 X69.175 Y77.742 E2.01243
G1 X66.925 Y77.742 E2.12065
G1 X66.856 Y77.485 E2.13348
G1 X69.138 Y77.485 E2.24322
G1 X69.198 Y77.099 F7800.000
G1 F3600
G1 X69.339 Y77.099 E2.25000
G1 X69.796 Y71.872 E2.50237
G1 X89.984 Y71.872 E3.47332
G1 X92.555 Y74.443 E3.64822
G1 X92.358 Y74.641 E3.66163
G1 X89.868 Y72.151 E3.83097
G1 X70.052 Y72.151 E4.78409
G1 X69.553 Y77.849 E5.05921
G1 X75.628 Y77.849 E5.35136
G1 X76.871 Y74.848 E5.50760
G1 X77.212 Y74.418 E5.53401
G1 X77.660 Y74.185 E5.55831
G1 X78.165 Y74.153 E5.58261
G1 X78.651 Y74.334 E5.60759
G1 X82.581 Y77.849 E5.86117
G1 X95.630 Y77.849 E6.48883
G1 X95.630 Y78.128 E6.50224
G1 X82.474 Y78.128 E7.13501
G1 X78.551 Y74.623 E7.38802
G1 X78.006 Y74.503 E7.41486
G1 X77.475 Y74.655 E7.44145
G1 X77.101 Y75.021 E7.46662
G1 X75.814 Y78.128 E7.62838
G1 X63.518 Y78.128 E8.21976
G1 X63.496 Y77.633 E8.24357
G1 X62.722 Y76.625 E8.30473
G1 X61.509 Y76.243 E8.36589
G1 X60.296 Y76.625 E8.42706
G1 X59.522 Y77.633 E8.48822
G1 X59.500 Y78.128 E8.51203
G1 X54.370 Y78.128 E8.75877
G1 X54.370 Y77.849 E8.77218
G1 X59.070 Y77.849 E8.99827
G1 X60.186 Y76.311 E9.08968
G1 X61.509 Y75.881 E9.15657
G1 X62.831 Y76.311 E9.22346
G1 X63.948 Y77.849 E9.31487
G1 X66.555 Y77.849 E9.44027
G1 X65.391 Y73.506 E9.65654
G1 X58.142 Y72.551 E10.00820
G1 X57.244 Y74.106 E10.09454
G1 X57.003 Y73.967 E10.10795
G1 X57.994 Y72.251 E10.20325
G1 X65.612 Y73.254 E10.57282
G1 X66.642 Y77.099 E10.76430
G1 X69.138 Y77.099 E10.88433
G1 X68.986 Y76.714 F7800.000
G1 F1800
G1 X69.443 Y71.486 E11.13670
G1 X90.144 Y71.486 E12.13233
G1 X93.101 Y74.443 E12.33346
G1 X92.358 Y75.186 E12.38396
G1 X89.709 Y72.536 E12.56417
G1 X70.405 Y72.536 E13.49261
G1 X69.974 Y77.464 E13.73049
G1 X75.370 Y77.464 E13.99002
G1 X76.535 Y74.651 E14.13646
G1 X76.961 Y74.114 E14.16941
G1 X77.554 Y73.805 E14.20158
G1 X78.222 Y73.763 E14.23376
G1 X78.854 Y73.997 E14.26618
G1 X82.728 Y77.464 E14.51619
G1 X96.016 Y77.464 E15.15531
G1 X96.016 Y78.514 E15.20581
G1 X82.327 Y78.514 E15.86421
G1 X78.370 Y74.978 E16.11945
G1 X78.019 Y74.900 E16.13674
G1 X77.675 Y74.999 E16.15394
G1 X77.427 Y75.241 E16.17061
G1 X76.071 Y78.514 E16.34098
G1 X63.149 Y78.514 E16.96249
G1 X63.116 Y77.772 E16.99820
G1 X62.490 Y76.956 E17.04767
G1 X61.509 Y76.647 E17.09714
G1 X60.528 Y76.956 E17.14661
G1 X59.901 Y77.772 E17.19609
G1 X59.869 Y78.514 E17.23179
G1 X53.984 Y78.514 E17.51483
G1 X53.984 Y77.464 E17.56533
G1 X58.874 Y77.464 E17.80051
G1 X59.948 Y75.983 E17.88850
G1 X61.509 Y75.475 E17.96745
G1 X63.070 Y75.983 E18.04640
G1 X64.144 Y77.464 E18.13438
G1 X66.052 Y77.464 E18.22615
G1 X65.085 Y73.854 E18.40586
G1 X58.347 Y72.967 E18.73273
G1 X57.386 Y74.633 E18.82523
G1 X56.476 Y74.108 E18.87573
G1 X57.789 Y71.835 E19.00197
G1 X65.918 Y72.905 E19.39633
G1 X66.938 Y76.714 E19.58597
G1 X68.926 Y76.714 E19.68155
G1 X69.361 Y76.853 F7800.000
G1 E17.68155 F1800.00000
G92 E0
G1 X69.198 Y64.008 F7800.000
G1 E2.00000 F1800.00000
G1 F900
G1 X69.175 Y64.265 E2.01243
G1 X66.925 Y64.265 E2.12065
G1 X66.856 Y64.008 E2.13348
G1 X69.138 Y64.008 E2.24322
G1 X69.198 Y63.622 F7800.000
G1 F3600
G1 X69.339 Y63.622 E2.25000
G1 X69.796 Y58.395 E2.50237
G1 X89.984 Y58.395 E3.47332
G1 X92.555 Y60.966 E3.64822
G1 X92.358 Y61.163 E3.66163
G1 X89.868 Y58.674 E3.83097
G1 X70.052 Y58.674 E4.78409
G1 X69.553 Y64.372 E5.05921
G1 X75.628 Y64.372 E5.35136
G1 X76.871 Y61.371 E5.50760
G1 X77.212 Y60.941 E5.53401
G1 X77.660 Y60.707 E5.55831
G1 X78.165 Y60.676 E5.58261
G1 X78.651 Y60.856 E5.60759
G1 X82.581 Y64.372 E5.86117
G1 X95.630 Y64.372 E6.48883
G1 X95.630 Y64.651 E6.50224
G1 X82.474 Y64.651 E7.13501
G1 X78.551 Y61.146 E7.38802
G1 X78.006 Y61.026 E7.41486
G1 X77.475 Y61.178 E7.44145
G1 X77.101 Y61.544 E7.46662
G1 X75.814 Y64.651 E7.62838
G1 X63.518 Y64.651 E8.21976
G1 X63.496 Y64.156 E8.24357
G1 X62.722 Y63.148 E8.30473
G1 X61.509 Y62.765 E8.36589
G1 X60.296 Y63.148 E8.42706
G1 X59.522 Y64.156 E8.48822
G1 X59.500 Y64.651 E8.51203
G1 X54.370 Y64.651 E8.75877
G1 X54.370 Y64.372 E8.77218
G1 X59.070 Y64.372 E8.99827
G1 X60.186 Y62.834 E9.08968
G1 X61.509 Y62.404 E9.15657
G1 X62.831 Y62.834 E9.22346
G1 X63.948 Y64.372 E9.31487
G1 X66.555 Y64.372 E9.44027
G1 X65.391 Y60.029 E9.65654
G1 X58.142 Y59.074 E10.00820
G1 X57.244 Y60.629 E10.09454
G1 X57.003 Y60.489 E10.10795
G1 X57.994 Y58.774 E10.20325
G1 X65.612 Y59.777 E10.57282
G1 X66.642 Y63.622 E10.76430
G1 X69.138 Y63.622 E10.88433
G1 X68.986 Y63.236 F7800.000
G1 F1800
G1 X69.443 Y58.009 E11.13670
G1 X90.144 Y58.009 E12.13233
G1 X93.101 Y60.966 E12.33346
G1 X92.358 Y61.709 E12.38396
G1 X89.709 Y59.059 E12.56417
G1 X70.405 Y59.059 E13.49261
G1 X69.974 Y63.986 E13.73049
G1 X75.370 Y63.986 E13.99002
G1 X76.535 Y61.173 E14.13646
G1 X76.961 Y60.637 E14.16941
G1 X77.554 Y60.328 E14.20158
G1 X78.222 Y60.286 E14.23376
G1 X78.854 Y60.520 E14.26618
G1 X82.728 Y63.986 E14.51619
G1 X96.016 Y63.986 E15.15531
G1 X96.016 Y65.036 E15.20581
G1 X82.327 Y65.036 E15.86421
G1 X78.370 Y61.501 E16.11945
G1 X78.019 Y61.423 E16.13674
G1 X77.675 Y61.521 E16.15394
G1 X77.427 Y61.764 E16.17061
G1 X76.071 Y65.036 E16.34098
G1 X63.149 Y65.036 E16.96249
G1 X63.116 Y64.295 E16.99820
G1 X62.490 Y63.479 E17.04767
G1 X61.509 Y63.170 E17.09714
G1 X60.528 Y63.479 E17.14661
G1 X59.901 Y64.295 E17.19609
G1 X59.869 Y65.036 E17.23179
G1 X53.984 Y65.036 E17.51483
G1 X53.984 Y63.986 E17.56533
G1 X58.874 Y63.986 E17.80051
G1 X59.948 Y62.506 E17.88850
G1 X61.509 Y61.998 E17.96745
G1 X63.070 Y62.506 E18.04640
G1 X64.144 Y63.986 E18.13438
G1 X66.052 Y63.986 E18.22615
G1 X65.085 Y60.377 E18.40586
G1 X58.347 Y59.490 E18.73273
G1 X57.386 Y61.156 E18.82523
G1 X56.476 Y60.631 E18.87573
G1 X57.789 Y58.358 E19.00197
G1 X65.918 Y59.428 E19.39633
G1 X66.938 Y63.236 E19.58597
G1 X68.926 Y63.236 E19.68155
G1 X69.361 Y63.376 F7800.000
G1 E17.68155 F1800.00000
G92 E0
G1 X52.724 Y70.227 F7800.000
G1 X51.975 Y73.023
G1 X50.759 Y75.239
G1 X50.759 Y80.739
G1 X69.198 Y90.962
G1 E2.00000 F1800.00000
G1 F900
G1 X69.175 Y91.220 E2.01243
G1 X66.925 Y91.220 E2.12065
G1 X66.856 Y90.962 E2.13348
G1 X69.138 Y90.962 E2.24322
G1 X69.198 Y90.576 F7800.000
G1 F3600
G1 X69.339 Y90.576 E2.25000
G1 X69.796 Y85.349 E2.50237
G1 X89.984 Y85.349 E3.47332
G1 X92.555 Y87.921 E3.64822
G1 X92.358 Y88.118 E3.66163
G1 X89.868 Y85.628 E3.83097
G1 X70.052 Y85.628 E4.78409
G1 X69.553 Y91.326 E5.05921
G1 X75.627 Y91.326 E5.35136
G1 X76.871 Y88.325 E5.50760
G1 X77.212 Y87.895 E5.53401
G1 X77.660 Y87.662 E5.55831
G1 X78.165 Y87.630 E5.58261
G1 X78.651 Y87.811 E5.60759
G1 X82.581 Y91.326 E5.86117
G1 X95.630 Y91.326 E6.48883
G1 X95.630 Y91.605 E6.50224
G1 X82.474 Y91.605 E7.13501
G1 X78.551 Y88.100 E7.38802
G1 X78.006 Y87.980 E7.41486
G1 X77.475 Y88.132 E7.44145
G1 X77.101 Y88.498 E7.46662
G1 X75.814 Y91.605 E7.62838
G1 X63.518 Y91.605 E8.21976
G1 X63.496 Y91.111 E8.24357
G1 X62.722 Y90.102 E8.30473
G1 X61.509 Y89.720 E8.36589
G1 X60.296 Y90.102 E8.42706
G1 X59.522 Y91.111 E8.48822
G1 X59.500 Y91.605 E8.51203
G1 X54.370 Y91.605 E8.75877
G1 X54.370 Y91.326 E8.77218
G1 X59.070 Y91.326 E8.99827
G1 X60.186 Y89.788 E9.08968
G1 X61.509 Y89.358 E9.15657
G1 X62.831 Y89.788 E9.22346
G1 X63.948 Y91.326 E9.31487
G1 X66.555 Y91.326 E9.44027
G1 X65.391 Y86.983 E9.65654
G1 X58.142 Y86.029 E10.00820
G1 X57.244 Y87.583 E10.09454
G1 X57.003 Y87.444 E10.10795
G1 X57.994 Y85.728 E10.20325
G1 X65.612 Y86.731 E10.57282
G1 X66.642 Y90.576 E10.76430
G1 X69.138 Y90.576 E10.88433
G1 X68.986 Y90.191 F7800.000
G1 F1800
G1 X69.443 Y84.964 E11.13670
G1 X90.143 Y84.964 E12.13233
G1 X93.100 Y87.921 E12.33346
G1 X92.358 Y88.663 E12.38396
G1 X89.709 Y86.014 E12.56417
G1 X70.405 Y86.014 E13.49261
G1 X69.974 Y90.941 E13.73049
G1 X75.370 Y90.941 E13.99002
G1 X76.535 Y88.128 E14.13646
G1 X76.961 Y87.591 E14.16941
G1 X77.554 Y87.282 E14.20158
G1 X78.222 Y87.240 E14.23376
G1 X78.854 Y87.475 E14.26618
G1 X82.728 Y90.941 E14.51619
G1 X96.016 Y90.941 E15.15531
G1 X96.016 Y91.991 E15.20581
G1 X82.327 Y91.991 E15.86421
G1 X78.370 Y88.455 E16.11945
G1 X78.019 Y88.377 E16.13674
G1 X77.675 Y88.476 E16.15394
G1 X77.427 Y88.718 E16.17061
G1 X76.071 Y91.991 E16.34098
G1 X63.149 Y91.991 E16.96249
G1 X63.116 Y91.249 E16.99820
G1 X62.490 Y90.433 E17.04767
G1 X61.509 Y90.124 E17.09714
G1 X60.528 Y90.433 E17.14661
G1 X59.901 Y91.249 E17.19609
G1 X59.869 Y91.991 E17.23179
G1 X53.984 Y91.991 E17.51483
G1 X53.984 Y90.941 E17.56533
G1 X58.874 Y90.941 E17.80051
G1 X59.948 Y89.460 E17.88850
G1 X61.509 Y88.952 E17.96745
G1 X63.070 Y89.460 E18.04640
G1 X64.144 Y90.941 E18.13438
G1 X66.052 Y90.941 E18.22615
G1 X65.085 Y87.332 E18.40586
G1 X58.347 Y86.445 E18.73273
G1 X57.386 Y88.110 E18.82523
G1 X56.476 Y87.585 E18.87573
G1 X57.789 Y85.312 E19.00197
G1 X65.918 Y86.382 E19.39633
G1 X66.938 Y90.191 E19.58597
G1 X68.926 Y90.191 E19.68155
G1 X69.360 Y90.330 F7800.000
G1 Z1.000 F7800.000
; PURGING FINISHED
G1 E17.68155 F1800.00000
G92 E0
G1 X69.198 Y77.485 F7800.000
G1 E2.00000 F1800.00000
G1 F900
G1 X69.175 Y77.742 E2.01243
G1 X66.925 Y77.742 E2.12065
G1 X66.856 Y77.485 E2.13348
G1 X69.138 Y77.485 E2.24322
G1 X69.198 Y77.099 F7800.000
G1 F3600
G1 X69.339 Y77.099 E2.25000
G1 X69.796 Y71.872 E2.50237
G1 X89.984 Y71.872 E3.47332
G1 X92.555 Y74.443 E3.64822
G1 X92.358 Y74.641 E3.66163
G1 X89.868 Y72.151 E3.83097
G1 X70.052 Y72.151 E4.78409
G1 X69.553 Y77.849 E5.05921
G1 X75.628 Y77.849 E5.35136
G1 X76.871 Y74.848 E5.50760
G1 X77.212 Y74.418 E5.53401
G1 X77.660 Y74.185 E5.55831
G1 X78.165 Y74.153 E5.58261
G1 X78.651 Y74.334 E5.60759
G1 X82.581 Y77.849 E5.86117
G1 X95.630 Y77.849 E6.48883
G1 X95.630 Y78.128 E6.50224
