; generated by Slic3r Prusa Edition 1.41.0-beta+win64 on 2018-10-28 at 18:22:59

; 

; external perimeters extrusion width = 0.45mm
; perimeters extrusion width = 0.45mm
; infill extrusion width = 0.45mm
; solid infill extrusion width = 0.45mm
; top infill extrusion width = 0.40mm
; first layer extrusion width = 0.80mm

M107
M104 S210 ; set temperature
G28 ; home all axes
G1 Z5 F5000 ; lift nozzle
; Filament gcode
M109 S210 ; set temperature and wait for it to be reached
G21 ; set units to millimeters
G90 ; use absolute coordinates
M82 ; use absolute distances for extrusion
G92 E0
G1 Z0.400 F7800.000
G1 E-2.00000 F1800.00000
G92 E0
G1 X63.529 Y62.981 F7800.000
G1 E2.00000 F1800.00000
G1 X64.573 Y62.146 E2.15876
G1 X65.768 Y61.548 E2.31752
G1 X67.062 Y61.212 E2.47628
G1 X67.968 Y61.143 E2.58420
G1 X82.006 Y61.143 E4.25142
G1 X83.079 Y61.235 E4.37925
G1 X84.126 Y61.509 E4.50782
G1 X85.106 Y61.953 E4.63565
G1 X86.002 Y62.561 E4.76421
G1 X86.778 Y63.307 E4.89204
G1 X87.417 Y64.173 E5.01988
G1 X87.901 Y65.135 E5.14771
G1 X88.216 Y66.170 E5.27627
G1 X88.357 Y67.450 E5.42915
G1 X88.351 Y82.786 E7.25063
G1 X88.256 Y83.628 E7.35117
G1 X88.049 Y84.455 E7.45244
G1 X87.736 Y85.241 E7.55298
G1 X87.317 Y85.984 E7.65425
G1 X86.395 Y87.093 E7.82552
G1 X85.247 Y87.965 E7.99678
G1 X83.932 Y88.556 E8.16804
G1 X82.511 Y88.837 E8.34004
G1 X67.639 Y88.847 E10.10630
G1 X66.817 Y88.746 E10.20462
G1 X66.010 Y88.537 E10.30368
G1 X65.242 Y88.228 E10.40200
G1 X64.516 Y87.817 E10.50107
G1 X63.403 Y86.891 E10.67306
G1 X62.528 Y85.736 E10.84506
G1 X61.936 Y84.408 E11.01779
G1 X61.662 Y82.986 E11.18979
G1 X61.652 Y67.158 E13.06965
G1 X61.752 Y66.329 E13.16871
G1 X61.959 Y65.521 E13.26777
G1 X62.270 Y64.748 E13.36683
G1 X62.683 Y64.016 E13.46663
G1 X63.491 Y63.027 E13.61826
; PURGING FINISHED
G1 E11.61826
G92 E0
G1 X80.172 Y80.672 F7800.000
G1 E2.00000 F1800.00000
G1 X75.471 Y80.672 E2.55824
G1 X75.274 Y79.636 E2.68345
G1 X74.616 Y78.634 E2.82580
G1 X73.614 Y77.976 E2.96816
G1 X72.500 Y77.764 E3.10284
G1 X71.407 Y77.972 E3.23497
G1 X70.389 Y78.626 E3.37866
G1 X70.134 Y79.015 E3.43390
G1 X69.828 Y78.924 E3.47180
G1 X69.828 Y71.076 E4.40381
G1 X70.134 Y70.985 E4.44171
G1 X70.384 Y71.366 E4.49584
G1 X71.386 Y72.024 E4.63819
G1 X72.500 Y72.236 E4.77287
G1 X73.614 Y72.024 E4.90755
G1 X74.616 Y71.366 E5.04991
G1 X75.274 Y70.364 E5.19226
G1 X75.471 Y69.328 E5.31747
G1 X80.172 Y69.328 E5.87571
G1 X80.172 Y80.612 E7.21578
G1 X80.886 Y81.386 F7800.000
G1 F1800
G1 X74.638 Y81.386 E7.95781
G1 X74.759 Y80.750 E8.03469
G1 X74.599 Y79.909 E8.13632
G1 X74.100 Y79.150 E8.24424
G1 X73.341 Y78.651 E8.35216
G1 X72.500 Y78.491 E8.45378
G1 X71.677 Y78.648 E8.55330
G1 X70.903 Y79.145 E8.66255
G1 X70.401 Y79.909 E8.77115
G1 X70.241 Y80.750 E8.87278
G1 X70.362 Y81.386 E8.94966
G1 X69.114 Y81.386 E9.09786
G1 X69.114 Y68.614 E10.61469
G1 X70.362 Y68.614 E10.76290
G1 X70.241 Y69.250 E10.83977
G1 X70.401 Y70.091 E10.94140
G1 X70.900 Y70.850 E11.04932
G1 X71.659 Y71.349 E11.15724
G1 X72.500 Y71.509 E11.25887
G1 X73.341 Y71.349 E11.36050
G1 X74.100 Y70.850 E11.46842
G1 X74.599 Y70.091 E11.57634
G1 X74.759 Y69.250 E11.67797
G1 X74.638 Y68.614 E11.75484
G1 X80.886 Y68.614 E12.49687
G1 X80.886 Y81.326 E14.00658
G1 X81.600 Y82.100 F7800.000
G1 F1800
G1 X73.410 Y82.100 E14.97928
G1 X73.924 Y81.317 E15.09051
G1 X74.032 Y80.750 E15.15909
G1 X73.924 Y80.183 E15.22767
G1 X73.584 Y79.666 E15.30115
G1 X73.067 Y79.326 E15.37464
G1 X72.500 Y79.218 E15.44322
G1 X71.947 Y79.323 E15.51012
G1 X71.417 Y79.664 E15.58493
G1 X71.076 Y80.183 E15.65865
G1 X70.968 Y80.750 E15.72723
G1 X71.076 Y81.317 E15.79581
G1 X71.590 Y82.100 E15.90704
G1 X68.400 Y82.100 E16.28592
G1 X68.400 Y67.900 E17.97239
G1 X71.590 Y67.900 E18.35127
G1 X71.076 Y68.683 E18.46250
G1 X70.968 Y69.250 E18.53108
G1 X71.076 Y69.817 E18.59966
G1 X71.416 Y70.334 E18.67314
G1 X71.933 Y70.674 E18.74662
G1 X72.500 Y70.782 E18.81520
G1 X73.067 Y70.674 E18.88378
G1 X73.584 Y70.334 E18.95726
G1 X73.924 Y69.817 E19.03074
G1 X74.032 Y69.250 E19.09932
G1 X73.924 Y68.683 E19.16790
G1 X73.410 Y67.900 E19.27913
G1 X81.600 Y67.900 E20.25184
G1 X81.600 Y82.040 E21.93118
G1 X81.224 Y81.963 F7800.000
G1 E19.93118 F1800.00000
G92 E0
G1 X75.831 Y79.700 F7800.000
G1 E2.00000 F1800.00000
G1 X76.268 Y80.136 E2.07719
G1 X77.331 Y80.136 E2.21014
G1 X70.364 Y73.169 E3.44212
G1 X70.364 Y72.106 E3.57507
G1 X78.394 Y80.136 E4.99508
G1 X79.458 Y80.136 E5.12803
G1 X72.009 Y72.688 E6.44507
G1 X72.500 Y72.782 E6.50750
G1 X73.060 Y72.675 E6.57874
G1 X79.636 Y79.251 E7.74165
G1 X79.636 Y78.188 E7.87460
G1 X73.915 Y72.467 E8.88625
G1 X74.557 Y72.045 E8.98226
G1 X79.636 Y77.125 E9.88043
G1 X79.636 Y76.061 E10.01339
G1 X75.131 Y71.557 E10.80997
G1 X75.553 Y70.915 E10.90598
G1 X79.636 Y74.998 E11.62802
G1 X79.636 Y73.935 E11.76097
G1 X75.859 Y70.157 E12.42895
G1 X75.914 Y69.864 E12.46628
G1 X76.629 Y69.864 E12.55557
G1 X79.636 Y72.871 E13.08739
G1 X79.636 Y71.808 E13.22034
G1 X77.692 Y69.864 E13.56413
G1 X78.755 Y69.864 E13.69708
G1 X79.957 Y71.066 E13.90967
G1 E11.90967
G92 E0
G1 X73.550 Y77.419 F7800.000
G1 E2.00000 F1800.00000
G1 X70.364 Y74.232 E2.56347
G1 X70.364 Y75.296 E2.69642
G1 X72.321 Y77.253 E3.04247
G1 X71.428 Y77.423 E3.15614
G1 X70.364 Y76.359 E3.34429
G1 X70.364 Y77.422 E3.47724
G1 X70.952 Y78.010 E3.58120
G1 X70.274 Y79.430 F7800.000
G1 F1800
G1 X69.788 Y79.615 E3.63604
G1 X69.770 Y79.717 E3.64689
G1 X69.747 Y79.965 E3.67172
G1 X69.723 Y80.214 E3.69460
G1 X69.700 Y80.463 E3.71553
G1 X69.676 Y80.712 E3.73450
G1 X69.676 Y80.788 E3.73973
G1 X69.699 Y81.029 E3.75642
G1 E1.75642
G92 E0
G1 X70.274 Y70.570 F7800.000
G1 E2.00000 F1800.00000
G1 X69.788 Y70.385 E2.04762
G1 X69.723 Y69.786 E2.10277
G1 X69.676 Y69.212 E2.14202
G1 X69.699 Y68.971 E2.15871
G1 Z0.700 F7800.000
M104 S200 ; set temperature
; PURGING FINISHED
G1 X81.004 Y81.504
G1 F3600
G1 X74.495 Y81.504 E2.47174
G1 X74.639 Y80.750 E2.50865
G1 X74.487 Y79.955 E2.54760
G1 X74.015 Y79.235 E2.58900
G1 X73.295 Y78.763 E2.63040
G1 X72.500 Y78.611 E2.66935
G1 X71.750 Y78.754 E2.70605
G1 X70.993 Y79.224 E2.74894
G1 X70.513 Y79.955 E2.79099
G1 X70.361 Y80.750 E2.82994
G1 X70.505 Y81.504 E2.86685
G1 X68.996 Y81.504 E2.93939
G1 X68.996 Y68.496 E3.56501
G1 X70.505 Y68.496 E3.63756
G1 X70.361 Y69.250 E3.67446
G1 X70.513 Y70.045 E3.71341
G1 X70.985 Y70.765 E3.75481
G1 X71.705 Y71.237 E3.79621
G1 X72.500 Y71.389 E3.83516
G1 X73.295 Y71.237 E3.87411
G1 X74.015 Y70.765 E3.91551
G1 X74.487 Y70.045 E3.95691
G1 X74.639 Y69.250 E3.99586
G1 X74.495 Y68.496 E4.03276
G1 X81.004 Y68.496 E4.34579
G1 X81.004 Y81.444 E4.96852
G1 X81.389 Y81.889 F7800.000
G1 F3600
G1 X73.800 Y81.889 E5.33354
G1 X74.123 Y81.398 E5.36183
G1 X74.247 Y80.750 E5.39355
G1 X74.123 Y80.102 E5.42527
G1 X73.736 Y79.514 E5.45914
G1 X73.148 Y79.127 E5.49301
G1 X72.500 Y79.003 E5.52473
G1 X71.893 Y79.119 E5.55446
G1 X71.268 Y79.507 E5.58981
G1 X70.877 Y80.102 E5.62408
G1 X70.753 Y80.750 E5.65580
G1 X70.877 Y81.398 E5.68752
G1 X71.200 Y81.889 E5.71581
G1 X68.611 Y81.889 E5.84034
G1 X68.611 Y68.111 E6.50305
G1 X71.200 Y68.111 E6.62758
G1 X70.877 Y68.602 E6.65587
G1 X70.753 Y69.250 E6.68759
G1 X70.877 Y69.898 E6.71931
G1 X71.264 Y70.486 E6.75318
G1 X71.852 Y70.873 E6.78705
G1 X72.500 Y70.997 E6.81877
G1 X73.148 Y70.873 E6.85049
G1 X73.736 Y70.486 E6.88436
G1 X74.123 Y69.898 E6.91823
G1 X74.247 Y69.250 E6.94995
G1 X74.123 Y68.602 E6.98167
G1 X73.800 Y68.111 E7.00996
G1 X81.389 Y68.111 E7.37497
G1 X81.389 Y81.829 E8.03480
G1 X81.775 Y82.275 F7800.000
G1 F1800
G1 X72.722 Y82.275 E8.47020
G1 X72.703 Y82.065 E8.48032
G1 X73.000 Y82.009 E8.49489
G1 X73.458 Y81.708 E8.52123
G1 X73.759 Y81.250 E8.54757
G1 X73.854 Y80.750 E8.57207
G1 X73.759 Y80.250 E8.59656
G1 X73.458 Y79.792 E8.62290
G1 X73.000 Y79.491 E8.64924
G1 X72.500 Y79.396 E8.67373
G1 X72.035 Y79.485 E8.69649
G1 X71.544 Y79.789 E8.72431
G1 X71.241 Y80.250 E8.75080
G1 X71.146 Y80.750 E8.77529
G1 X71.241 Y81.250 E8.79978
G1 X71.542 Y81.708 E8.82612
G1 X72.000 Y82.009 E8.85247
G1 X72.297 Y82.065 E8.86704
G1 X72.278 Y82.275 E8.87716
G1 X68.225 Y82.275 E9.07208
G1 X68.225 Y67.725 E9.77188
G1 X72.278 Y67.725 E9.96679
G1 X72.297 Y67.935 E9.97692
G1 X72.035 Y67.985 E9.98975
G1 X71.544 Y68.289 E10.01757
G1 X71.241 Y68.750 E10.04406
G1 X71.146 Y69.250 E10.06855
G1 X71.241 Y69.750 E10.09305
G1 X71.542 Y70.208 E10.11939
G1 X72.000 Y70.509 E10.14573
G1 X72.500 Y70.604 E10.17022
G1 X73.000 Y70.509 E10.19471
G1 X73.458 Y70.208 E10.22105
G1 X73.759 Y69.750 E10.24740
G1 X73.854 Y69.250 E10.27189
G1 X73.759 Y68.750 E10.29638
G1 X73.458 Y68.292 E10.32272
G1 X73.000 Y67.991 E10.34906
G1 X72.703 Y67.935 E10.36363
G1 X72.722 Y67.725 E10.37376
G1 X81.775 Y67.725 E10.80916
G1 X81.775 Y82.215 E11.50607
G1 X81.398 Y82.142 F7800.000
G1 X80.106 Y81.388
G1 F1200
G1 X80.715 Y80.779 E11.54765
G1 X80.715 Y80.232 E11.57407
G1 X79.732 Y81.215 E11.64115
G1 X79.184 Y81.215 E11.66757
G1 X80.715 Y79.684 E11.77202
G1 X80.715 Y79.137 E11.79844
G1 X78.637 Y81.215 E11.94026
G1 X78.090 Y81.215 E11.96668
G1 X80.715 Y78.590 E12.14585
G1 X80.715 Y78.043 E12.17227
G1 X77.543 Y81.215 E12.38881
G1 X76.995 Y81.215 E12.41523
G1 X80.715 Y77.495 E12.66913
G1 X80.715 Y76.948 E12.69555
G1 X76.448 Y81.215 E12.98682
G1 X75.901 Y81.215 E13.01324
G1 X80.715 Y76.401 E13.34187
G1 X80.715 Y75.853 E13.36829
G1 X75.353 Y81.215 E13.73428
G1 X74.845 Y81.215 E13.75881
G1 X74.854 Y81.166 E13.76119
G1 X80.715 Y75.306 E14.16124
G1 X80.715 Y74.759 E14.18766
G1 X74.900 Y80.573 E14.58460
G1 X74.812 Y80.114 E14.60719
G1 X80.715 Y74.211 E15.01011
G1 X80.715 Y73.664 E15.03653
G1 X74.671 Y79.707 E15.44909
G1 X74.454 Y79.377 E15.46817
G1 X80.715 Y73.117 E15.89553
G1 X80.715 Y72.569 E15.92195
G1 X74.237 Y79.047 E16.36414
G1 X73.914 Y78.823 E16.38312
G1 X80.715 Y72.022 E16.84737
G1 X80.715 Y71.475 E16.87379
G1 X73.583 Y78.606 E17.36060
G1 X73.406 Y78.489 E17.37084
G1 X73.193 Y78.449 E17.38130
G1 X80.715 Y70.927 E17.89474
G1 X80.715 Y70.380 E17.92116
G1 X72.734 Y78.361 E18.46598
G1 X72.500 Y78.316 E18.47746
G1 X72.167 Y78.380 E18.49380
G1 X80.715 Y69.833 E19.07727
G1 X80.715 Y69.285 E19.10369
G1 X69.285 Y80.715 E19.88390
G1 X69.285 Y81.215 E19.90804
G1 X69.333 Y81.215 E19.91032
G1 X70.130 Y80.417 E19.96474
G1 X70.066 Y80.750 E19.98108
G1 X70.111 Y80.984 E19.99256
G1 X69.706 Y81.388 E20.02017
G1 X69.112 Y80.341 F7800.000
G1 F1200
G1 X80.667 Y68.785 E20.80899
G1 X80.120 Y68.785 E20.83541
G1 X69.285 Y79.620 E21.57503
G1 X69.285 Y79.073 E21.60145
G1 X79.573 Y68.785 E22.30370
G1 X79.025 Y68.785 E22.33012
G1 X69.285 Y78.525 E22.99500
G1 X69.285 Y77.978 E23.02142
G1 X78.478 Y68.785 E23.64895
G1 X77.931 Y68.785 E23.67537
G1 X69.285 Y77.431 E24.26553
G1 X69.285 Y76.883 E24.29195
G1 X77.383 Y68.785 E24.84475
G1 X76.836 Y68.785 E24.87116
G1 X69.285 Y76.336 E25.38660
G1 X69.285 Y75.789 E25.41302
G1 X76.289 Y68.785 E25.89109
G1 X75.741 Y68.785 E25.91751
G1 X74.853 Y69.674 E25.97817
G1 X74.934 Y69.250 E25.99900
G1 X74.901 Y69.079 E26.00743
G1 X75.368 Y68.612 E26.03928
G1 X75.263 Y69.132 F7800.000
G1 X76.361 Y70.404
G1 X77.432 Y72.068
G1 X76.242 Y75.000
G1 X72.609 Y75.000
G1 X71.277 Y73.477
G1 X70.280 Y71.837
G1 X69.822 Y70.498
G1 X69.685 Y69.378
G1 X69.112 Y69.394
G1 F1200
G1 X69.721 Y68.785 E26.08085
G1 X70.155 Y68.785 E26.10181
G1 X70.128 Y68.925 E26.10867
G1 X69.285 Y69.768 E26.16622
G1 X69.285 Y70.315 E26.19264
G1 X70.112 Y69.489 E26.24906
G1 X70.200 Y69.949 E26.27165
G1 X69.285 Y70.863 E26.33405
G1 X69.285 Y71.410 E26.36047
G1 X70.358 Y70.337 E26.43371
G1 X70.575 Y70.668 E26.45279
G1 X69.285 Y71.957 E26.54083
G1 X69.285 Y72.505 E26.56725
G1 X70.800 Y70.990 E26.67068
G1 X71.131 Y71.207 E26.68975
G1 X69.285 Y73.052 E26.81573
G1 X69.285 Y73.599 E26.84215
G1 X71.461 Y71.424 E26.99068
G1 X71.594 Y71.511 E26.99834
G1 X71.869 Y71.563 E27.01185
G1 X69.285 Y74.147 E27.18821
G1 X69.285 Y74.694 E27.21463
G1 X72.329 Y71.651 E27.42237
G1 X72.500 Y71.684 E27.43079
G1 X72.924 Y71.603 E27.45163
G1 X69.112 Y75.415 E27.71186
G1 Z1.000 F7800.000
; PURGING FINISHED
G1 X81.004 Y81.504
G1 F3600
G1 X74.495 Y81.504 E28.02489
G1 X74.639 Y80.750 E28.06180
G1 X74.487 Y79.955 E28.10074
G1 X74.015 Y79.235 E28.14215
G1 X73.295 Y78.763 E28.18355
G1 X72.500 Y78.611 E28.22249
G1 X71.705 Y78.763 E28.26144
G1 X70.985 Y79.235 E28.30284
G1 X70.513 Y79.955 E28.34424
G1 X70.361 Y80.750 E28.38319
G1 X70.505 Y81.504 E28.42010
G1 X68.996 Y81.504 E28.49264
G1 X68.996 Y68.496 E29.11826
G1 X70.505 Y68.496 E29.19081
G1 X70.361 Y69.250 E29.22771
G1 X70.513 Y70.045 E29.26666
G1 X70.985 Y70.765 E29.30806
G1 X71.705 Y71.237 E29.34946
G1 X72.500 Y71.389 E29.38841
G1 X73.295 Y71.237 E29.42736
G1 X74.015 Y70.765 E29.46876
G1 X74.487 Y70.045 E29.51016
G1 X74.639 Y69.250 E29.54911
G1 X74.495 Y68.496 E29.58601
G1 X81.004 Y68.496 E29.89904
G1 X81.004 Y81.444 E30.52177
G1 X81.389 Y81.889 F7800.000
G1 F3600
G1 X73.800 Y81.889 E30.88679
G1 X74.123 Y81.398 E30.91508
G1 X74.247 Y80.750 E30.94680
G1 X74.123 Y80.102 E30.97852
G1 X73.736 Y79.514 E31.01239
G1 X73.148 Y79.127 E31.04626
G1 X72.500 Y79.003 E31.07798
G1 X71.852 Y79.127 E31.10970
G1 X71.264 Y79.514 E31.14357
G1 X70.877 Y80.102 E31.17744
G1 X70.753 Y80.750 E31.20916
G1 X70.877 Y81.398 E31.24088
G1 X71.200 Y81.889 E31.26917
G1 X68.611 Y81.889 E31.39370
G1 X68.611 Y68.111 E32.05641
G1 X71.200 Y68.111 E32.18094
G1 X70.877 Y68.602 E32.20923
G1 X70.753 Y69.250 E32.24095
G1 X70.877 Y69.898 E32.27267
G1 X71.264 Y70.486 E32.30654
G1 X71.852 Y70.873 E32.34041
G1 X72.500 Y70.997 E32.37213
G1 X73.148 Y70.873 E32.40385
G1 X73.736 Y70.486 E32.43772
G1 X74.123 Y69.898 E32.47159
G1 X74.247 Y69.250 E32.50331
G1 X74.123 Y68.602 E32.53503
G1 X73.800 Y68.111 E32.56332
G1 X81.389 Y68.111 E32.92833
G1 X81.389 Y81.829 E33.58816
G1 X81.775 Y82.275 F7800.000
G1 F1800
G1 X72.722 Y82.275 E34.02355
G1 X72.703 Y82.065 E34.03368
G1 X73.000 Y82.009 E34.04825
G1 X73.458 Y81.708 E34.07459
G1 X73.759 Y81.250 E34.10093
G1 X73.854 Y80.750 E34.12542
G1 X73.759 Y80.250 E34.14992
G1 X73.458 Y79.792 E34.17626
G1 X73.000 Y79.491 E34.20260
G1 X72.500 Y79.396 E34.22709
G1 X72.000 Y79.491 E34.25158
G1 X71.542 Y79.792 E34.27793
G1 X71.241 Y80.250 E34.30427
G1 X71.146 Y80.750 E34.32876
G1 X71.241 Y81.250 E34.35325
G1 X71.542 Y81.708 E34.37959
G1 X72.000 Y82.009 E34.40593
G1 X72.297 Y82.065 E34.42050
G1 X72.278 Y82.275 E34.43063
G1 X68.225 Y82.275 E34.62554
G1 X68.225 Y67.725 E35.32535
G1 X72.278 Y67.725 E35.52026
G1 X72.297 Y67.935 E35.53039
G1 X72.000 Y67.991 E35.54496
G1 X71.542 Y68.292 E35.57130
G1 X71.241 Y68.750 E35.59764
G1 X71.146 Y69.250 E35.62213
G1 X71.241 Y69.750 E35.64663
G1 X71.542 Y70.208 E35.67297
G1 X72.000 Y70.509 E35.69931
G1 X72.500 Y70.604 E35.72380
G1 X73.000 Y70.509 E35.74829
G1 X73.458 Y70.208 E35.77463
G1 X73.759 Y69.750 E35.80097
G1 X73.854 Y69.250 E35.82547
G1 X73.759 Y68.750 E35.84996
G1 X73.458 Y68.292 E35.87630
G1 X73.000 Y67.991 E35.90264
G1 X72.703 Y67.935 E35.91721
G1 X72.722 Y67.725 E35.92734
G1 X81.775 Y67.725 E36.36273
G1 X81.775 Y82.215 E37.05965
G1 X81.398 Y82.142 F7800.000
G1 X80.888 Y80.888
G1 F1200
G1 X69.285 Y69.285 E37.85171
G1 X69.285 Y69.833 E37.87813
G1 X80.667 Y81.215 E38.65510
G1 X80.120 Y81.215 E38.68152
G1 X69.285 Y70.380 E39.42114
G1 X69.285 Y70.927 E39.44756
G1 X79.573 Y81.215 E40.14981
G1 X79.025 Y81.215 E40.17623
G1 X69.285 Y71.475 E40.84111
G1 X69.285 Y72.022 E40.86753
G1 X78.478 Y81.215 E41.49506
G1 X77.931 Y81.215 E41.52148
G1 X69.285 Y72.569 E42.11164
G1 X69.285 Y73.117 E42.13806
G1 X77.383 Y81.215 E42.69085
G1 X76.836 Y81.215 E42.71727
G1 X69.285 Y73.664 E43.23271
G1 X69.285 Y74.211 E43.25913
G1 X76.289 Y81.215 E43.73720
G1 X75.741 Y81.215 E43.76362
G1 X74.853 Y80.326 E43.82428
G1 X74.934 Y80.750 E43.84511
G1 X74.901 Y80.921 E43.85354
G1 X75.367 Y81.388 E43.88539
G1 X73.142 Y78.616 F7800.000
G1 F1200
G1 X69.285 Y74.759 E44.14868
G1 X69.285 Y75.306 E44.17510
G1 X72.329 Y78.349 E44.38284
G1 X71.869 Y78.437 E44.40542
G1 X69.285 Y75.853 E44.58178
G1 X69.285 Y76.401 E44.60820
G1 X71.461 Y78.576 E44.75673
G1 X71.131 Y78.793 E44.77581
G1 X69.285 Y76.948 E44.90178
G1 X69.285 Y77.495 E44.92820
G1 X70.800 Y79.010 E45.03163
G1 X70.575 Y79.332 E45.05060
G1 X69.285 Y78.043 E45.13864
