; generated by Slic3r Prusa Edition 1.41.0-beta+win64 on 2018-10-27 at 16:40:44

; 

; external perimeters extrusion width = 0.45mm
; perimeters extrusion width = 0.45mm
; infill extrusion width = 0.45mm
; solid infill extrusion width = 0.45mm
; top infill extrusion width = 0.40mm
; first layer extrusion width = 0.80mm

M107
M104 S210 ; set temperature
G28 ; home all axes
G1 Z5 F5000 ; lift nozzle
; Filament gcode
M109 S210 ; set temperature and wait for it to be reached
G21 ; set units to millimeters
G90 ; use absolute coordinates
M82 ; use absolute distances for extrusion
G92 E0
G1 Z0.700 F7800.000
M104 S200 ; set temperature
G1 E-2.00000 F1800.00000
G92 E0
G1 X68.103 Y68.098 F7800.000
G1 E2.00000 F1800.00000
G1 F3562
G1 X69.081 Y67.299 E2.23872
G1 X70.491 Y66.380 E2.55701
G1 X71.319 Y65.964 E2.73236
G1 X72.528 Y65.600 E2.97109
G1 X74.092 Y65.308 E3.27182
G1 X75.004 Y65.243 E3.44483
G1 X75.910 Y65.308 E3.61666
G1 X77.479 Y65.601 E3.91847
G1 X78.688 Y65.967 E4.15720
G1 X79.511 Y66.381 E4.33138
G1 X80.920 Y67.300 E4.64960
G1 X81.902 Y68.103 E4.88950
G1 X82.701 Y69.081 E5.12822
G1 X83.620 Y70.491 E5.44652
G1 X84.036 Y71.319 E5.62188
G1 X84.400 Y72.528 E5.86060
G1 X84.692 Y74.091 E6.16132
G1 X84.757 Y75.004 E6.33432
G1 X84.692 Y75.910 E6.50615
G1 X84.399 Y77.479 E6.80798
G1 X84.033 Y78.688 E7.04671
G1 X83.619 Y79.511 E7.22089
G1 X82.700 Y80.920 E7.53910
G1 X81.897 Y81.902 E7.77900
G1 X80.919 Y82.701 E8.01772
G1 X79.509 Y83.620 E8.33602
G1 X78.681 Y84.036 E8.51137
G1 X77.472 Y84.400 E8.75010
G1 X75.909 Y84.692 E9.05082
G1 X74.996 Y84.757 E9.22383
G1 X74.090 Y84.692 E9.39566
G1 X72.521 Y84.399 E9.69749
G1 X71.312 Y84.033 E9.93621
G1 X70.489 Y83.619 E10.11039
G1 X69.080 Y82.700 E10.42861
G1 X68.098 Y81.897 E10.66850
G1 X67.299 Y80.919 E10.90723
G1 X66.380 Y79.509 E11.22552
G1 X65.964 Y78.681 E11.40088
G1 X65.600 Y77.472 E11.63960
G1 X65.308 Y75.908 E11.94033
G1 X65.243 Y74.996 E12.11334
G1 X65.308 Y74.090 E12.28517
G1 X65.601 Y72.521 E12.58699
G1 X65.967 Y71.312 E12.82571
G1 X66.381 Y70.489 E12.99989
G1 X67.303 Y69.075 E13.31930
G1 X68.065 Y68.145 E13.54668
; PURGING FINISHED
G1 E11.54668 F1800.00000
G92 E0
G1 X74.667 Y72.234 F7800.000
G1 E2.00000 F1800.00000
G1 F900
G1 X74.960 Y72.179 E2.01435
G1 X75.331 Y72.224 E2.03231
G1 X75.387 Y72.435 E2.04282
G1 X75.493 Y72.265 E2.05250
G1 X76.137 Y72.388 E2.08403
G1 X76.125 Y72.663 E2.09729
G1 X76.283 Y72.527 E2.10729
G1 X76.837 Y72.892 E2.13920
G1 X76.764 Y73.099 E2.14977
G1 X76.998 Y72.995 E2.16210
G1 X77.361 Y73.547 E2.19388
G1 X77.246 Y73.703 E2.20320
G1 X77.448 Y73.680 E2.21299
G1 X77.630 Y73.957 E2.22891
G1 X77.696 Y74.300 E2.24572
G1 X77.529 Y74.423 E2.25569
G1 X77.726 Y74.460 E2.26536
G1 X77.849 Y75.104 E2.29688
G1 X77.586 Y75.194 E2.31023
G1 X77.773 Y75.292 E2.32039
G1 X77.650 Y75.940 E2.35209
G1 X77.414 Y75.948 E2.36343
G1 X77.583 Y76.115 E2.37486
G1 X77.219 Y76.669 E2.40672
G1 X77.028 Y76.617 E2.41626
G1 X77.129 Y76.807 E2.42659
G1 X77.001 Y77.001 E2.43778
G1 X76.626 Y77.247 E2.45933
G1 X76.461 Y77.143 E2.46871
G1 X76.497 Y77.332 E2.47797
G1 X75.947 Y77.693 E2.50961
G1 X75.764 Y77.478 E2.52318
G1 X75.741 Y77.688 E2.53331
G1 X75.094 Y77.811 E2.56501
G1 X75.000 Y77.594 E2.57641
G1 X74.906 Y77.811 E2.58780
G1 X74.259 Y77.688 E2.61950
G1 X74.236 Y77.478 E2.62963
G1 X74.053 Y77.693 E2.64320
G1 X73.503 Y77.332 E2.67484
G1 X73.539 Y77.143 E2.68410
G1 X73.374 Y77.247 E2.69350
G1 X72.999 Y77.001 E2.71505
G1 X72.871 Y76.807 E2.72623
G1 X72.972 Y76.617 E2.73656
G1 X72.781 Y76.669 E2.74610
G1 X72.417 Y76.115 E2.77796
G1 X72.586 Y75.948 E2.78939
G1 X72.350 Y75.940 E2.80073
G1 X72.227 Y75.292 E2.83243
G1 X72.414 Y75.194 E2.84260
G1 X72.151 Y75.104 E2.85595
G1 X72.274 Y74.460 E2.88747
G1 X72.471 Y74.423 E2.89713
G1 X72.304 Y74.300 E2.90711
G1 X72.370 Y73.957 E2.92391
G1 X72.552 Y73.680 E2.93983
G1 X72.754 Y73.703 E2.94963
G1 X72.639 Y73.547 E2.95894
G1 X73.002 Y72.995 E2.99072
G1 X73.236 Y73.099 E3.00305
G1 X73.163 Y72.892 E3.01362
G1 X73.717 Y72.527 E3.04553
G1 X73.875 Y72.663 E3.05554
G1 X73.863 Y72.388 E3.06880
G1 X74.507 Y72.265 E3.10033
G1 X74.613 Y72.435 E3.11000
G1 X74.652 Y72.293 E3.11711
G1 X74.765 Y71.953 F7800.000
G1 X75.000 Y71.829
G1 F900
G1 X76.165 Y72.051 E3.17418
G1 X77.242 Y72.758 E3.23611
G1 X77.949 Y73.835 E3.29804
G1 X78.171 Y75.000 E3.35511
G1 X77.949 Y76.165 E3.41217
G1 X77.242 Y77.242 E3.47410
G1 X76.165 Y77.949 E3.53604
G1 X75.000 Y78.171 E3.59310
G1 X73.835 Y77.949 E3.65016
G1 X72.758 Y77.242 E3.71210
G1 X72.051 Y76.165 E3.77403
G1 X71.829 Y75.000 E3.83109
G1 X72.051 Y73.835 E3.88816
G1 X72.758 Y72.758 E3.95009
G1 X73.835 Y72.051 E4.01202
G1 X74.941 Y71.840 E4.06620
G1 X75.202 Y72.174 F7800.000
G1 Z1.000 F7800.000
; PURGING FINISHED
G1 X75.333 Y72.234
G1 F600
G1 X75.387 Y72.435 E4.07620
G1 X75.493 Y72.265 E4.08587
G1 X76.137 Y72.388 E4.11740
G1 X76.125 Y72.663 E4.13066
G1 X76.283 Y72.527 E4.14067
G1 X76.837 Y72.892 E4.17258
G1 X76.764 Y73.099 E4.18315
G1 X76.998 Y72.995 E4.19548
G1 X77.361 Y73.547 E4.22726
G1 X77.246 Y73.703 E4.23657
G1 X77.448 Y73.680 E4.24637
G1 X77.630 Y73.957 E4.26229
G1 X77.696 Y74.300 E4.27909
G1 X77.529 Y74.423 E4.28907
G1 X77.726 Y74.460 E4.29873
G1 X77.849 Y75.104 E4.33025
G1 X77.586 Y75.194 E4.34360
G1 X77.773 Y75.292 E4.35377
G1 X77.650 Y75.940 E4.38547
G1 X77.414 Y75.948 E4.39681
G1 X77.583 Y76.115 E4.40824
G1 X77.219 Y76.669 E4.44010
G1 X77.028 Y76.617 E4.44964
G1 X77.129 Y76.807 E4.45997
G1 X77.001 Y77.001 E4.47115
G1 X76.626 Y77.247 E4.49270
G1 X76.461 Y77.143 E4.50210
G1 X76.497 Y77.332 E4.51136
G1 X75.947 Y77.693 E4.54300
G1 X75.764 Y77.478 E4.55657
G1 X75.741 Y77.688 E4.56670
G1 X75.094 Y77.811 E4.59840
G1 X75.000 Y77.594 E4.60979
G1 X74.906 Y77.811 E4.62119
G1 X74.259 Y77.688 E4.65289
G1 X74.236 Y77.478 E4.66302
G1 X74.053 Y77.693 E4.67659
G1 X73.503 Y77.332 E4.70823
G1 X73.539 Y77.143 E4.71749
G1 X73.374 Y77.247 E4.72689
G1 X72.999 Y77.001 E4.74844
G1 X72.871 Y76.807 E4.75962
G1 X72.972 Y76.617 E4.76995
G1 X72.781 Y76.669 E4.77949
G1 X72.417 Y76.115 E4.81135
G1 X72.586 Y75.948 E4.82278
G1 X72.350 Y75.940 E4.83412
G1 X72.227 Y75.292 E4.86582
G1 X72.414 Y75.194 E4.87599
G1 X72.151 Y75.104 E4.88934
G1 X72.274 Y74.460 E4.92086
G1 X72.471 Y74.423 E4.93052
G1 X72.304 Y74.300 E4.94049
G1 X72.370 Y73.957 E4.95730
G1 X72.552 Y73.680 E4.97322
G1 X72.754 Y73.703 E4.98301
G1 X72.639 Y73.547 E4.99233
G1 X73.002 Y72.995 E5.02411
G1 X73.236 Y73.099 E5.03644
G1 X73.163 Y72.892 E5.04701
G1 X73.717 Y72.527 E5.07892
G1 X73.875 Y72.663 E5.08893
G1 X73.863 Y72.388 E5.10219
G1 X74.507 Y72.265 E5.13372
G1 X74.613 Y72.435 E5.14339
G1 X74.667 Y72.234 E5.15339
G1 X75.000 Y72.171 E5.16970
G1 X75.274 Y72.223 E5.18312
G1 X75.538 Y72.199 F7800.000
G1 X75.000 Y71.829
G1 F600
G1 X76.165 Y72.051 E5.24019
G1 X77.242 Y72.758 E5.30212
G1 X77.949 Y73.835 E5.36405
G1 X78.171 Y75.000 E5.42112
G1 X77.949 Y76.165 E5.47818
G1 X77.242 Y77.242 E5.54011
G1 X76.165 Y77.949 E5.60205
G1 X75.000 Y78.171 E5.65911
G1 X73.835 Y77.949 E5.71617
G1 X72.758 Y77.242 E5.77811
G1 X72.051 Y76.165 E5.84004
G1 X71.829 Y75.000 E5.89710
G1 X72.051 Y73.835 E5.95417
G1 X72.758 Y72.758 E6.01610
G1 X73.835 Y72.051 E6.07803
G1 X74.941 Y71.840 E6.13221
G1 X75.202 Y72.174 F7800.000
M106 S255
G1 Z1.300 F7800.000
; PURGING FINISHED
G1 X75.333 Y72.234
G1 F600
G1 X75.387 Y72.435 E6.14221
G1 X75.493 Y72.265 E6.15188
G1 X76.137 Y72.388 E6.18341
G1 X76.125 Y72.663 E6.19667
G1 X76.283 Y72.527 E6.20668
G1 X76.837 Y72.892 E6.23859
G1 X76.764 Y73.099 E6.24916
G1 X76.998 Y72.995 E6.26149
G1 X77.361 Y73.547 E6.29327
G1 X77.246 Y73.703 E6.30258
G1 X77.448 Y73.680 E6.31237
G1 X77.630 Y73.957 E6.32830
G1 X77.696 Y74.300 E6.34510
G1 X77.529 Y74.423 E6.35508
G1 X77.726 Y74.460 E6.36474
G1 X77.849 Y75.104 E6.39626
G1 X77.586 Y75.194 E6.40961
G1 X77.773 Y75.292 E6.41978
G1 X77.650 Y75.940 E6.45148
G1 X77.414 Y75.948 E6.46282
G1 X77.583 Y76.115 E6.47425
G1 X77.219 Y76.669 E6.50611
G1 X77.028 Y76.617 E6.51565
G1 X77.129 Y76.807 E6.52598
G1 X77.001 Y77.001 E6.53716
G1 X76.626 Y77.247 E6.55871
G1 X76.461 Y77.143 E6.56811
G1 X76.497 Y77.332 E6.57737
G1 X75.947 Y77.693 E6.60901
G1 X75.764 Y77.478 E6.62258
G1 X75.741 Y77.688 E6.63271
G1 X75.094 Y77.811 E6.66440
G1 X75.000 Y77.594 E6.67580
G1 X74.906 Y77.811 E6.68720
G1 X74.259 Y77.688 E6.71890
G1 X74.236 Y77.478 E6.72903
G1 X74.053 Y77.693 E6.74260
G1 X73.503 Y77.332 E6.77424
G1 X73.539 Y77.143 E6.78350
G1 X73.374 Y77.247 E6.79290
G1 X72.999 Y77.001 E6.81445
G1 X72.871 Y76.807 E6.82563
G1 X72.972 Y76.617 E6.83596
G1 X72.781 Y76.669 E6.84550
G1 X72.417 Y76.115 E6.87736
G1 X72.586 Y75.948 E6.88879
G1 X72.350 Y75.940 E6.90013
G1 X72.227 Y75.292 E6.93183
G1 X72.414 Y75.194 E6.94199
G1 X72.151 Y75.104 E6.95534
G1 X72.274 Y74.460 E6.98687
G1 X72.471 Y74.423 E6.99653
G1 X72.304 Y74.300 E7.00650
G1 X72.370 Y73.957 E7.02331
G1 X72.552 Y73.680 E7.03923
G1 X72.754 Y73.703 E7.04902
G1 X72.639 Y73.547 E7.05834
G1 X73.002 Y72.995 E7.09012
G1 X73.236 Y73.099 E7.10245
G1 X73.163 Y72.892 E7.11302
G1 X73.717 Y72.527 E7.14493
G1 X73.875 Y72.663 E7.15494
G1 X73.863 Y72.388 E7.16820
G1 X74.507 Y72.265 E7.19973
G1 X74.613 Y72.435 E7.20940
G1 X74.667 Y72.234 E7.21940
G1 X75.000 Y72.171 E7.23571
G1 X75.274 Y72.223 E7.24913
G1 X75.538 Y72.199 F7800.000
G1 X75.000 Y71.829
G1 F600
G1 X76.165 Y72.051 E7.30619
G1 X77.242 Y72.758 E7.36813
G1 X77.949 Y73.835 E7.43006
G1 X78.171 Y75.000 E7.48713
G1 X77.949 Y76.165 E7.54419
G1 X77.242 Y77.242 E7.60612
G1 X76.165 Y77.949 E7.66806
G1 X75.000 Y78.171 E7.72512
G1 X73.835 Y77.949 E7.78218
G1 X72.758 Y77.242 E7.84412
G1 X72.051 Y76.165 E7.90605
G1 X71.829 Y75.000 E7.96311
G1 X72.051 Y73.835 E8.02017
G1 X72.758 Y72.758 E8.08211
G1 X73.835 Y72.051 E8.14404
G1 X74.941 Y71.840 E8.19822
G1 X75.202 Y72.174 F7800.000
G1 Z1.600 F7800.000
; PURGING FINISHED
G1 X75.333 Y72.234
G1 F600
G1 X75.387 Y72.435 E8.20822
G1 X75.493 Y72.265 E8.21789
G1 X76.137 Y72.388 E8.24942
G1 X76.125 Y72.663 E8.26268
G1 X76.283 Y72.527 E8.27269
G1 X76.837 Y72.892 E8.30460
G1 X76.764 Y73.099 E8.31517
G1 X76.998 Y72.995 E8.32749
G1 X77.361 Y73.547 E8.35928
G1 X77.246 Y73.703 E8.36859
G1 X77.448 Y73.680 E8.37838
G1 X77.630 Y73.957 E8.39431
G1 X77.696 Y74.300 E8.41111
G1 X77.529 Y74.423 E8.42108
G1 X77.726 Y74.460 E8.43075
G1 X77.849 Y75.104 E8.46227
G1 X77.586 Y75.194 E8.47562
G1 X77.773 Y75.292 E8.48579
G1 X77.650 Y75.940 E8.51749
G1 X77.414 Y75.948 E8.52883
G1 X77.583 Y76.115 E8.54026
G1 X77.219 Y76.669 E8.57212
G1 X77.028 Y76.617 E8.58166
G1 X77.129 Y76.807 E8.59199
G1 X77.001 Y77.001 E8.60317
G1 X76.626 Y77.247 E8.62472
G1 X76.461 Y77.143 E8.63412
G1 X76.497 Y77.332 E8.64338
G1 X75.947 Y77.693 E8.67502
G1 X75.764 Y77.478 E8.68858
G1 X75.741 Y77.688 E8.69871
G1 X75.094 Y77.811 E8.73041
G1 X75.000 Y77.594 E8.74181
G1 X74.906 Y77.811 E8.75321
G1 X74.259 Y77.688 E8.78491
G1 X74.236 Y77.478 E8.79504
G1 X74.053 Y77.693 E8.80860
G1 X73.503 Y77.332 E8.84024
G1 X73.539 Y77.143 E8.84950
G1 X73.374 Y77.247 E8.85890
G1 X72.999 Y77.001 E8.88046
G1 X72.871 Y76.807 E8.89164
G1 X72.972 Y76.617 E8.90197
G1 X72.781 Y76.669 E8.91151
G1 X72.417 Y76.115 E8.94337
G1 X72.586 Y75.948 E8.95480
G1 X72.350 Y75.940 E8.96614
G1 X72.227 Y75.292 E8.99784
G1 X72.414 Y75.194 E9.00800
G1 X72.151 Y75.104 E9.02135
G1 X72.274 Y74.460 E9.05287
G1 X72.471 Y74.423 E9.06254
G1 X72.304 Y74.300 E9.07251
G1 X72.370 Y73.957 E9.08932
G1 X72.552 Y73.680 E9.10524
G1 X72.754 Y73.703 E9.11503
G1 X72.639 Y73.547 E9.12435
G1 X73.002 Y72.995 E9.15613
G1 X73.236 Y73.099 E9.16846
G1 X73.163 Y72.892 E9.17903
G1 X73.717 Y72.527 E9.21094
G1 X73.875 Y72.663 E9.22094
G1 X73.863 Y72.388 E9.23420
G1 X74.507 Y72.265 E9.26573
G1 X74.613 Y72.435 E9.27541
G1 X74.667 Y72.234 E9.28541
G1 X75.000 Y72.171 E9.30172
G1 X75.274 Y72.223 E9.31514
G1 X75.538 Y72.199 F7800.000
G1 X75.000 Y71.829
G1 F600
G1 X76.165 Y72.051 E9.37220
G1 X77.242 Y72.758 E9.43414
G1 X77.949 Y73.835 E9.49607
G1 X78.171 Y75.000 E9.55313
G1 X77.949 Y76.165 E9.61020
G1 X77.242 Y77.242 E9.67213
G1 X76.165 Y77.949 E9.73407
G1 X75.000 Y78.171 E9.79113
G1 X73.835 Y77.949 E9.84819
G1 X72.758 Y77.242 E9.91012
G1 X72.051 Y76.165 E9.97206
G1 X71.829 Y75.000 E10.02912
G1 X72.051 Y73.835 E10.08618
G1 X72.758 Y72.758 E10.14812
G1 X73.835 Y72.051 E10.21005
G1 X74.941 Y71.840 E10.26423
G1 X75.202 Y72.174 F7800.000
G1 Z1.900 F7800.000
; PURGING FINISHED
G1 X74.855 Y72.199
G1 F600
G1 X75.000 Y72.171 E10.27135
G1 X75.333 Y72.234 E10.28766
G1 X75.387 Y72.435 E10.29766
G1 X75.493 Y72.265 E10.30733
G1 X76.137 Y72.388 E10.33886
G1 X76.125 Y72.663 E10.35212
G1 X76.283 Y72.527 E10.36213
G1 X76.837 Y72.892 E10.39404
G1 X76.764 Y73.099 E10.40461
G1 X76.998 Y72.995 E10.41693
G1 X77.361 Y73.547 E10.44872
G1 X77.246 Y73.703 E10.45803
G1 X77.448 Y73.680 E10.46782
G1 X77.630 Y73.957 E10.48375
G1 X77.696 Y74.300 E10.50055
G1 X77.529 Y74.423 E10.51053
G1 X77.726 Y74.460 E10.52019
G1 X77.849 Y75.104 E10.55171
G1 X77.586 Y75.194 E10.56506
G1 X77.773 Y75.292 E10.57523
G1 X77.650 Y75.940 E10.60693
G1 X77.414 Y75.948 E10.61827
G1 X77.583 Y76.115 E10.62970
G1 X77.219 Y76.669 E10.66156
G1 X77.028 Y76.617 E10.67110
G1 X77.129 Y76.807 E10.68143
G1 X77.001 Y77.001 E10.69261
G1 X76.626 Y77.247 E10.71416
G1 X76.461 Y77.143 E10.72356
G1 X76.497 Y77.332 E10.73282
G1 X75.947 Y77.693 E10.76446
G1 X75.764 Y77.478 E10.77803
G1 X75.741 Y77.688 E10.78816
G1 X75.094 Y77.811 E10.81985
G1 X75.000 Y77.594 E10.83125
G1 X74.906 Y77.811 E10.84265
G1 X74.259 Y77.688 E10.87435
G1 X74.236 Y77.478 E10.88448
G1 X74.053 Y77.693 E10.89804
G1 X73.503 Y77.332 E10.92968
G1 X73.539 Y77.143 E10.93895
G1 X73.374 Y77.247 E10.94834
G1 X72.999 Y77.001 E10.96990
G1 X72.871 Y76.807 E10.98108
G1 X72.972 Y76.617 E10.99141
G1 X72.781 Y76.669 E11.00095
G1 X72.417 Y76.115 E11.03281
G1 X72.586 Y75.948 E11.04424
G1 X72.350 Y75.940 E11.05558
G1 X72.227 Y75.292 E11.08728
G1 X72.414 Y75.194 E11.09744
G1 X72.151 Y75.104 E11.11079
G1 X72.274 Y74.460 E11.14231
G1 X72.471 Y74.423 E11.15198
G1 X72.304 Y74.300 E11.16195
G1 X72.370 Y73.957 E11.17876
G1 X72.552 Y73.680 E11.19468
G1 X72.754 Y73.703 E11.20447
G1 X72.639 Y73.547 E11.21379
G1 X73.002 Y72.995 E11.24557
G1 X73.236 Y73.099 E11.25790
G1 X73.163 Y72.892 E11.26847
G1 X73.717 Y72.527 E11.30038
G1 X73.875 Y72.663 E11.31038
G1 X73.863 Y72.388 E11.32364
G1 X74.507 Y72.265 E11.35518
G1 X74.613 Y72.435 E11.36485
G1 X74.667 Y72.234 E11.37485
G1 X74.796 Y72.210 E11.38115
G1 X74.875 Y72.052 F7800.000
G1 X75.000 Y71.829
G1 F600
G1 X76.165 Y72.051 E11.43821
G1 X77.242 Y72.758 E11.50015
G1 X77.949 Y73.835 E11.56208
G1 X78.171 Y75.000 E11.61914
G1 X77.949 Y76.165 E11.67621
G1 X77.242 Y77.242 E11.73814
G1 X76.165 Y77.949 E11.80007
G1 X75.000 Y78.171 E11.85714
G1 X73.835 Y77.949 E11.91420
G1 X72.758 Y77.242 E11.97613
G1 X72.051 Y76.165 E12.03807
G1 X71.829 Y75.000 E12.09513
G1 X72.051 Y73.835 E12.15219
G1 X72.758 Y72.758 E12.21413
G1 X73.835 Y72.051 E12.27606
G1 X74.941 Y71.840 E12.33024
G1 X75.202 Y72.174 F7800.000
G1 Z2.200 F7800.000
; PURGING FINISHED
G1 X74.667 Y72.234
G1 F600
G1 X75.000 Y72.171 E12.34655
G1 X75.333 Y72.234 E12.36286
G1 X75.387 Y72.435 E12.37286
G1 X75.493 Y72.265 E12.38253
G1 X76.137 Y72.388 E12.41406
G1 X76.125 Y72.663 E12.42732
G1 X76.283 Y72.527 E12.43733
G1 X76.837 Y72.892 E12.46924
G1 X76.764 Y73.099 E12.47981
G1 X76.998 Y72.995 E12.49213
G1 X77.361 Y73.547 E12.52392
G1 X77.246 Y73.703 E12.53323
G1 X77.448 Y73.680 E12.54302
G1 X77.630 Y73.957 E12.55895
G1 X77.696 Y74.300 E12.57575
G1 X77.529 Y74.423 E12.58572
G1 X77.726 Y74.460 E12.59539
G1 X77.849 Y75.104 E12.62691
G1 X77.586 Y75.194 E12.64026
G1 X77.773 Y75.292 E12.65043
G1 X77.650 Y75.940 E12.68213
G1 X77.414 Y75.948 E12.69346
G1 X77.583 Y76.115 E12.70489
G1 X77.219 Y76.669 E12.73676
G1 X77.028 Y76.617 E12.74630
G1 X77.129 Y76.807 E12.75663
G1 X77.001 Y77.001 E12.76781
G1 X76.626 Y77.247 E12.78936
G1 X76.461 Y77.143 E12.79876
G1 X76.497 Y77.332 E12.80802
G1 X75.947 Y77.693 E12.83966
G1 X75.764 Y77.478 E12.85322
G1 X75.741 Y77.688 E12.86335
G1 X75.094 Y77.811 E12.89505
G1 X75.000 Y77.594 E12.90645
G1 X74.906 Y77.811 E12.91785
G1 X74.259 Y77.688 E12.94955
G1 X74.236 Y77.478 E12.95968
G1 X74.053 Y77.693 E12.97324
