; generated by Slic3r Prusa Edition 1.41.0-beta+win64 on 2018-10-28 at 16:50:32

; 

; external perimeters extrusion width = 0.45mm
; perimeters extrusion width = 0.45mm
; infill extrusion width = 0.45mm
; solid infill extrusion width = 0.45mm
; top infill extrusion width = 0.40mm
; first layer extrusion width = 0.80mm

M107
M104 S210 ; set temperature
G28 ; home all axes
G1 Z5 F5000 ; lift nozzle
; Filament gcode
M109 S210 ; set temperature and wait for it to be reached
G21 ; set units to millimeters
G90 ; use absolute coordinates
M82 ; use absolute distances for extrusion
G92 E0
G1 Z0.400 F7800.000
G1 E-2.00000 F1800.00000
G92 E0
G1 X52.267 Y61.256 F7800.000
G1 E2.00000 F1800.00000
G1 X53.340 Y60.302 E2.17053
G1 X54.135 Y59.825 E2.28066
G1 X54.991 Y59.469 E2.39079
G1 X55.890 Y59.241 E2.50092
G1 X56.813 Y59.146 E2.61105
G1 X93.006 Y59.143 E6.90959
G1 X94.152 Y59.248 E7.04627
G1 X95.260 Y59.558 E7.18294
G1 X96.295 Y60.063 E7.31962
G1 X97.221 Y60.746 E7.45629
G1 X98.012 Y61.590 E7.59370
G1 X98.635 Y62.558 E7.73037
G1 X99.073 Y63.622 E7.86705
G1 X99.312 Y64.747 E8.00372
G1 X99.322 Y85.171 E10.42938
G1 X99.037 Y86.490 E10.58961
G1 X98.478 Y87.725 E10.75058
G1 X97.674 Y88.808 E10.91081
G1 X96.660 Y89.698 E11.07104
G1 X95.865 Y90.175 E11.18117
G1 X95.009 Y90.531 E11.29131
G1 X94.110 Y90.759 E11.40144
G1 X93.187 Y90.854 E11.51157
G1 X56.782 Y90.853 E15.83526
G1 X55.332 Y90.634 E16.00946
G1 X53.976 Y90.092 E16.18293
G1 X52.779 Y89.254 E16.35639
G1 X51.802 Y88.160 E16.53060
G1 X51.342 Y87.398 E16.63630
G1 X50.991 Y86.574 E16.74274
G1 X50.759 Y85.708 E16.84918
G1 X50.651 Y84.818 E16.95562
G1 X50.652 Y65.151 E19.29135
G1 X50.891 Y63.742 E19.46114
G1 X51.438 Y62.421 E19.63093
G1 X52.232 Y61.305 E19.79360
; PURGING FINISHED
G1 E17.79360
G92 E0
G1 X91.172 Y82.672 F7800.000
G1 E2.00000 F1800.00000
G1 X58.828 Y82.672 E5.84127
G1 X58.828 Y67.328 E7.66352
G1 X91.172 Y67.328 E11.50479
G1 X91.172 Y82.612 E13.31992
G1 X91.886 Y83.386 F7800.000
G1 F1800
G1 X58.114 Y83.386 E17.33082
G1 X58.114 Y66.614 E19.32271
G1 X91.886 Y66.614 E23.33361
G1 X91.886 Y83.326 E25.31838
G1 X92.600 Y84.100 F7800.000
G1 F1800
G1 X57.400 Y84.100 E29.49891
G1 X57.400 Y65.900 E31.66044
G1 X92.600 Y65.900 E35.84097
G1 X92.600 Y84.040 E37.99537
G1 X92.205 Y84.037 F7800.000
G1 E35.99537 F1800.00000
G92 E0
G1 X90.957 Y69.003 F7800.000
G1 E2.00000 F1800.00000
G1 X89.818 Y67.864 E2.19342
G1 X88.797 Y67.864 E2.31604
G1 X90.636 Y69.703 E2.62829
G1 X90.636 Y70.724 E2.75091
G1 X87.776 Y67.864 E3.23657
G1 X86.755 Y67.864 E3.35919
G1 X90.636 Y71.745 E4.01826
G1 X90.636 Y72.766 E4.14088
G1 X85.734 Y67.864 E4.97336
G1 X84.713 Y67.864 E5.09598
G1 X90.636 Y73.787 E6.10186
G1 X90.636 Y74.808 E6.22448
G1 X83.692 Y67.864 E7.40377
G1 X82.670 Y67.864 E7.52639
G1 X90.636 Y75.830 E8.87909
G1 X90.636 Y76.851 E9.00171
G1 X81.649 Y67.864 E10.52782
G1 X80.628 Y67.864 E10.65043
G1 X90.636 Y77.872 E12.34995
G1 X90.636 Y78.893 E12.47257
G1 X79.607 Y67.864 E14.34549
G1 X78.586 Y67.864 E14.46811
G1 X90.636 Y79.914 E16.51444
G1 X90.636 Y80.935 E16.63706
G1 X77.565 Y67.864 E18.85680
G1 X76.544 Y67.864 E18.97941
G1 X90.636 Y81.956 E21.37256
G1 X90.636 Y82.136 E21.39414
G1 X89.795 Y82.136 E21.49518
G1 X75.522 Y67.864 E23.91884
G1 X74.501 Y67.864 E24.04145
G1 X88.773 Y82.136 E26.46511
G1 X87.752 Y82.136 E26.58773
G1 X73.480 Y67.864 E29.01138
G1 X72.459 Y67.864 E29.13400
G1 X86.731 Y82.136 E31.55766
G1 X85.710 Y82.136 E31.68028
G1 X71.438 Y67.864 E34.10393
G1 X70.417 Y67.864 E34.22655
G1 X84.689 Y82.136 E36.65021
G1 X83.668 Y82.136 E36.77282
G1 X69.396 Y67.864 E39.19648
G1 X68.374 Y67.864 E39.31910
G1 X82.647 Y82.136 E41.74275
G1 X81.625 Y82.136 E41.86537
G1 X67.353 Y67.864 E44.28903
G1 X66.332 Y67.864 E44.41165
G1 X80.604 Y82.136 E46.83530
G1 X79.583 Y82.136 E46.95792
G1 X65.311 Y67.864 E49.38158
G1 X64.290 Y67.864 E49.50420
G1 X78.562 Y82.136 E51.92785
G1 X77.541 Y82.136 E52.05047
G1 X63.269 Y67.864 E54.47413
G1 X62.248 Y67.864 E54.59674
G1 X76.520 Y82.136 E57.02040
G1 X75.499 Y82.136 E57.14302
G1 X61.226 Y67.864 E59.56667
G1 X60.205 Y67.864 E59.68929
G1 X74.477 Y82.136 E62.11295
G1 X73.456 Y82.136 E62.23557
G1 X59.364 Y68.044 E64.62869
G1 X59.364 Y69.065 E64.75131
G1 X72.435 Y82.136 E66.97103
G1 X71.414 Y82.136 E67.09364
G1 X59.364 Y70.086 E69.13996
G1 X59.364 Y71.107 E69.26257
G1 X70.393 Y82.136 E71.13548
G1 X69.372 Y82.136 E71.25809
G1 X59.364 Y72.128 E72.95759
G1 X59.364 Y73.149 E73.08021
G1 X68.351 Y82.136 E74.60629
G1 X67.329 Y82.136 E74.72891
G1 X59.364 Y74.171 E76.08159
G1 X59.364 Y75.192 E76.20421
G1 X66.308 Y82.136 E77.38348
G1 X65.287 Y82.136 E77.50610
G1 X59.364 Y76.213 E78.51196
G1 X59.364 Y77.234 E78.63458
G1 X64.266 Y82.136 E79.46704
G1 X63.245 Y82.136 E79.58966
G1 X59.364 Y78.255 E80.24870
G1 X59.364 Y79.276 E80.37132
G1 X62.224 Y82.136 E80.85696
G1 X61.203 Y82.136 E80.97958
G1 X59.364 Y80.297 E81.29182
G1 X59.364 Y81.319 E81.41443
G1 X60.503 Y82.457 E81.60783
G1 Z0.700 F7800.000
M104 S200 ; set temperature
; PURGING FINISHED
G1 X92.004 Y83.504
G1 F3600
G1 X57.996 Y83.504 E83.24348
G1 X57.996 Y66.496 E84.06148
G1 X92.004 Y66.496 E85.69713
G1 X92.004 Y83.444 E86.51225
G1 X92.389 Y83.889 F7800.000
G1 F3600
G1 X57.611 Y83.889 E88.18499
G1 X57.611 Y66.111 E89.04008
G1 X92.389 Y66.111 E90.71282
G1 X92.389 Y83.829 E91.56504
G1 X92.775 Y84.275 F7800.000
G1 F1800
G1 X57.225 Y84.275 E93.27487
G1 X57.225 Y65.725 E94.16706
G1 X92.775 Y65.725 E95.87690
G1 X92.775 Y84.215 E96.76620
G1 X92.380 Y84.211 F7800.000
G1 X91.101 Y83.388
G1 F1200
G1 X91.715 Y82.775 E96.80831
G1 X91.715 Y82.224 E96.83502
G1 X90.724 Y83.215 E96.90299
G1 X90.174 Y83.215 E96.92970
G1 X91.715 Y81.674 E97.03544
G1 X91.715 Y81.124 E97.06215
G1 X89.624 Y83.215 E97.20567
G1 X89.073 Y83.215 E97.23238
G1 X91.715 Y80.573 E97.41367
G1 X91.715 Y80.023 E97.44038
G1 X88.523 Y83.215 E97.65944
G1 X87.973 Y83.215 E97.68615
G1 X91.715 Y79.473 E97.94299
G1 X91.715 Y78.922 E97.96970
G1 X87.422 Y83.215 E98.26431
G1 X86.872 Y83.215 E98.29102
G1 X91.715 Y78.372 E98.62340
G1 X91.715 Y77.822 E98.65011
G1 X86.322 Y83.215 E99.02027
G1 X85.771 Y83.215 E99.04698
G1 X91.715 Y77.271 E99.45491
G1 X91.715 Y76.721 E99.48162
G1 X85.221 Y83.215 E99.92733
G1 X84.671 Y83.215 E99.95404
G1 X91.715 Y76.171 E100.43751
G1 X91.715 Y75.620 E100.46422
G1 X84.120 Y83.215 E100.98548
G1 X83.570 Y83.215 E101.01219
G1 X91.715 Y75.070 E101.57121
G1 X91.715 Y74.520 E101.59792
G1 X83.020 Y83.215 E102.19472
G1 X82.470 Y83.215 E102.22143
G1 X91.715 Y73.970 E102.85600
G1 X91.715 Y73.419 E102.88271
G1 X81.919 Y83.215 E103.55505
G1 X81.369 Y83.215 E103.58176
G1 X91.715 Y72.869 E104.29188
G1 X91.715 Y72.319 E104.31859
G1 X80.819 Y83.215 E105.06648
G1 X80.268 Y83.215 E105.09319
G1 X91.715 Y71.768 E105.87886
G1 X91.715 Y71.218 E105.90557
G1 X79.718 Y83.215 E106.72901
G1 X79.168 Y83.215 E106.75572
G1 X91.715 Y70.668 E107.61693
G1 X91.715 Y70.117 E107.64364
G1 X78.617 Y83.215 E108.54262
G1 X78.067 Y83.215 E108.56933
G1 X91.715 Y69.567 E109.50609
G1 X91.715 Y69.017 E109.53280
G1 X77.517 Y83.215 E110.50733
G1 X76.966 Y83.215 E110.53404
G1 X91.715 Y68.466 E111.54635
G1 X91.715 Y67.916 E111.57306
G1 X76.416 Y83.215 E112.62314
G1 X75.866 Y83.215 E112.64985
G1 X91.715 Y67.366 E113.73770
G1 X91.715 Y66.815 E113.76441
G1 X75.315 Y83.215 E114.89004
G1 X74.765 Y83.215 E114.91675
G1 X91.194 Y66.785 E116.04443
G1 X90.644 Y66.785 E116.07114
G1 X74.215 Y83.215 E117.19882
G1 X73.664 Y83.215 E117.22553
G1 X90.094 Y66.785 E118.35321
G1 X89.543 Y66.785 E118.37992
G1 X73.114 Y83.215 E119.50760
G1 X72.564 Y83.215 E119.53431
G1 X88.993 Y66.785 E120.66199
G1 X88.443 Y66.785 E120.68870
G1 X72.013 Y83.215 E121.81638
G1 X71.463 Y83.215 E121.84309
G1 X87.892 Y66.785 E122.97077
G1 X87.342 Y66.785 E122.99748
G1 X70.913 Y83.215 E124.12516
G1 X70.362 Y83.215 E124.15187
G1 X86.792 Y66.785 E125.27955
G1 X86.241 Y66.785 E125.30626
G1 X69.812 Y83.215 E126.43394
G1 X69.262 Y83.215 E126.46064
G1 X85.691 Y66.785 E127.58832
G1 X85.141 Y66.785 E127.61503
G1 X68.712 Y83.215 E128.74271
G1 X68.161 Y83.215 E128.76942
G1 X84.590 Y66.785 E129.89710
G1 X84.040 Y66.785 E129.92381
G1 X67.611 Y83.215 E131.05149
G1 X67.061 Y83.215 E131.07820
G1 X83.490 Y66.785 E132.20588
G1 X82.939 Y66.785 E132.23259
G1 X66.510 Y83.215 E133.36027
G1 X65.960 Y83.215 E133.38698
G1 X82.389 Y66.785 E134.51466
G1 X81.839 Y66.785 E134.54137
G1 X65.410 Y83.215 E135.66905
G1 X64.859 Y83.215 E135.69576
G1 X81.288 Y66.785 E136.82344
G1 X80.738 Y66.785 E136.85015
G1 X64.309 Y83.215 E137.97783
G1 X63.759 Y83.215 E138.00454
G1 X80.188 Y66.785 E139.13222
G1 X79.637 Y66.785 E139.15893
G1 X63.208 Y83.215 E140.28661
G1 X62.658 Y83.215 E140.31332
G1 X79.087 Y66.785 E141.44100
G1 X78.537 Y66.785 E141.46771
G1 X62.108 Y83.215 E142.59539
G1 X61.557 Y83.215 E142.62210
G1 X77.986 Y66.785 E143.74978
G1 X77.436 Y66.785 E143.77649
G1 X61.007 Y83.215 E144.90417
G1 X60.457 Y83.215 E144.93088
G1 X76.886 Y66.785 E146.05856
G1 X76.336 Y66.785 E146.08527
G1 X59.906 Y83.215 E147.21295
G1 X59.356 Y83.215 E147.23966
G1 X75.785 Y66.785 E148.36734
G1 X75.235 Y66.785 E148.39405
G1 X58.806 Y83.215 E149.52173
G1 X58.285 Y83.215 E149.54698
G1 X58.285 Y83.185 E149.54844
G1 X74.685 Y66.785 E150.67406
G1 X74.134 Y66.785 E150.70077
G1 X58.285 Y82.634 E151.78861
G1 X58.285 Y82.084 E151.81532
G1 X73.584 Y66.785 E152.86540
G1 X73.034 Y66.785 E152.89210
G1 X58.285 Y81.534 E153.90440
G1 X58.285 Y80.983 E153.93111
G1 X72.483 Y66.785 E154.90564
G1 X71.933 Y66.785 E154.93235
G1 X58.285 Y80.433 E155.86910
G1 X58.285 Y79.883 E155.89581
G1 X71.383 Y66.785 E156.79479
G1 X70.832 Y66.785 E156.82150
G1 X58.285 Y79.332 E157.68271
G1 X58.285 Y78.782 E157.70942
G1 X70.282 Y66.785 E158.53285
G1 X69.732 Y66.785 E158.55956
G1 X58.285 Y78.232 E159.34522
G1 X58.285 Y77.681 E159.37193
G1 X69.181 Y66.785 E160.11982
G1 X68.631 Y66.785 E160.14653
G1 X58.285 Y77.131 E160.85664
G1 X58.285 Y76.581 E160.88335
G1 X68.081 Y66.785 E161.55569
G1 X67.530 Y66.785 E161.58240
G1 X58.285 Y76.030 E162.21696
G1 X58.285 Y75.480 E162.24367
G1 X66.980 Y66.785 E162.84047
G1 X66.430 Y66.785 E162.86717
G1 X58.285 Y74.930 E163.42619
G1 X58.285 Y74.379 E163.45290
G1 X65.879 Y66.785 E163.97415
G1 X65.329 Y66.785 E164.00086
G1 X58.285 Y73.829 E164.48433
G1 X58.285 Y73.279 E164.51104
G1 X64.779 Y66.785 E164.95674
G1 X64.228 Y66.785 E164.98345
G1 X58.285 Y72.728 E165.39137
G1 X58.285 Y72.178 E165.41808
G1 X63.678 Y66.785 E165.78824
G1 X63.128 Y66.785 E165.81495
G1 X58.285 Y71.628 E166.14733
G1 X58.285 Y71.078 E166.17403
G1 X62.578 Y66.785 E166.46864
G1 X62.027 Y66.785 E166.49535
G1 X58.285 Y70.527 E166.75218
G1 X58.285 Y69.977 E166.77889
G1 X61.477 Y66.785 E166.99795
G1 X60.927 Y66.785 E167.02466
G1 X58.285 Y69.427 E167.20594
G1 X58.285 Y68.876 E167.23265
G1 X60.376 Y66.785 E167.37617
G1 X59.826 Y66.785 E167.40288
G1 X58.285 Y68.326 E167.50861
G1 X58.285 Y67.776 E167.53532
G1 X59.276 Y66.785 E167.60329
G1 X58.725 Y66.785 E167.63000
G1 X58.112 Y67.399 E167.67210
G1 Z1.000 F7800.000
; PURGING FINISHED
G1 X92.004 Y83.504
G1 F3600
G1 X57.996 Y83.504 E169.30775
G1 X57.996 Y66.496 E170.12575
G1 X92.004 Y66.496 E171.76140
G1 X92.004 Y83.444 E172.57651
G1 X92.389 Y83.889 F7800.000
G1 F3600
G1 X57.611 Y83.889 E174.24925
G1 X57.611 Y66.111 E175.10435
G1 X92.389 Y66.111 E176.77709
G1 X92.389 Y83.829 E177.62930
G1 X92.775 Y84.275 F7800.000
G1 F1800
G1 X57.225 Y84.275 E179.33914
G1 X57.225 Y65.725 E180.23133
G1 X92.775 Y65.725 E181.94116
G1 X92.775 Y84.215 E182.83047
G1 X92.380 Y84.211 F7800.000
G1 X91.888 Y67.399
G1 F1200
G1 X91.275 Y66.785 E182.87258
G1 X90.724 Y66.785 E182.89929
G1 X91.715 Y67.776 E182.96726
G1 X91.715 Y68.326 E182.99397
G1 X90.174 Y66.785 E183.09971
G1 X89.624 Y66.785 E183.12642
G1 X91.715 Y68.876 E183.26994
G1 X91.715 Y69.427 E183.29665
G1 X89.073 Y66.785 E183.47794
G1 X88.523 Y66.785 E183.50464
G1 X91.715 Y69.977 E183.72371
G1 X91.715 Y70.527 E183.75042
G1 X87.973 Y66.785 E184.00725
G1 X87.422 Y66.785 E184.03396
G1 X91.715 Y71.078 E184.32857
G1 X91.715 Y71.628 E184.35528
G1 X86.872 Y66.785 E184.68767
G1 X86.322 Y66.785 E184.71438
G1 X91.715 Y72.178 E185.08453
G1 X91.715 Y72.729 E185.11124
G1 X85.771 Y66.785 E185.51917
G1 X85.221 Y66.785 E185.54588
G1 X91.715 Y73.279 E185.99159
G1 X91.715 Y73.829 E186.01830
G1 X84.671 Y66.785 E186.50177
G1 X84.120 Y66.785 E186.52848
G1 X91.715 Y74.380 E187.04973
G1 X91.715 Y74.930 E187.07644
G1 X83.570 Y66.785 E187.63547
G1 X83.020 Y66.785 E187.66218
G1 X91.715 Y75.480 E188.25898
G1 X91.715 Y76.030 E188.28568
G1 X82.470 Y66.785 E188.92026
G1 X81.919 Y66.785 E188.94697
G1 X91.715 Y76.581 E189.61931
G1 X91.715 Y77.131 E189.64602
G1 X81.369 Y66.785 E190.35614
G1 X80.819 Y66.785 E190.38285
G1 X91.715 Y77.681 E191.13074
G1 X91.715 Y78.232 E191.15745
G1 X80.268 Y66.785 E191.94311
G1 X79.718 Y66.785 E191.96982
G1 X91.715 Y78.782 E192.79326
G1 X91.715 Y79.332 E192.81997
G1 X79.168 Y66.785 E193.68118
G1 X78.617 Y66.785 E193.70789
G1 X91.715 Y79.883 E194.60687
G1 X91.715 Y80.433 E194.63358
G1 X78.067 Y66.785 E195.57034
G1 X77.517 Y66.785 E195.59705
G1 X91.715 Y80.983 E196.57158
G1 X91.715 Y81.534 E196.59829
G1 X76.966 Y66.785 E197.61059
G1 X76.416 Y66.785 E197.63730
G1 X91.715 Y82.084 E198.68738
G1 X91.715 Y82.634 E198.71409
G1 X75.866 Y66.785 E199.80194
G1 X75.315 Y66.785 E199.82865
G1 X91.715 Y83.185 E200.95427
G1 X91.715 Y83.215 E200.95572
G1 X91.194 Y83.215 E200.98098
G1 X74.765 Y66.785 E202.10866
G1 X74.215 Y66.785 E202.13537
G1 X90.644 Y83.215 E203.26305
G1 X90.094 Y83.215 E203.28976
G1 X73.664 Y66.785 E204.41744
G1 X73.114 Y66.785 E204.44415
G1 X89.543 Y83.215 E205.57182
G1 X88.993 Y83.215 E205.59853
G1 X72.564 Y66.785 E206.72621
G1 X72.013 Y66.785 E206.75292
G1 X88.443 Y83.215 E207.88060
G1 X87.892 Y83.215 E207.90731
G1 X71.463 Y66.785 E209.03499
G1 X70.913 Y66.785 E209.06170
G1 X87.342 Y83.215 E210.18938
G1 X86.792 Y83.215 E210.21609
G1 X70.362 Y66.785 E211.34377
G1 X69.812 Y66.785 E211.37048
G1 X86.241 Y83.215 E212.49816
G1 X85.691 Y83.215 E212.52487
G1 X69.262 Y66.785 E213.65254
G1 X68.712 Y66.785 E213.67925
G1 X85.141 Y83.215 E214.80693
G1 X84.590 Y83.215 E214.83364
G1 X68.161 Y66.785 E215.96132
G1 X67.611 Y66.785 E215.98803
G1 X84.040 Y83.215 E217.11571
G1 X83.490 Y83.215 E217.14242
G1 X67.061 Y66.785 E218.27010
G1 X66.510 Y66.785 E218.29681
G1 X82.939 Y83.215 E219.42449
G1 X82.389 Y83.215 E219.45120
G1 X65.960 Y66.785 E220.57888
G1 X65.410 Y66.785 E220.60559
G1 X81.839 Y83.215 E221.73326
G1 X81.288 Y83.215 E221.75997
G1 X64.859 Y66.785 E222.88765
G1 X64.309 Y66.785 E222.91436
G1 X80.738 Y83.215 E224.04204
G1 X80.188 Y83.215 E224.06875
G1 X63.759 Y66.785 E225.19643
G1 X63.208 Y66.785 E225.22314
G1 X79.637 Y83.215 E226.35082
G1 X79.087 Y83.215 E226.37753
G1 X62.658 Y66.785 E227.50521
G1 X62.108 Y66.785 E227.53192
G1 X78.537 Y83.215 E228.65960
G1 X77.987 Y83.215 E228.68631
G1 X61.557 Y66.785 E229.81399
G1 X61.007 Y66.785 E229.84070
G1 X77.436 Y83.215 E230.96837
G1 X76.886 Y83.215 E230.99508
G1 X60.457 Y66.785 E232.12276
G1 X59.906 Y66.785 E232.14947
G1 X76.336 Y83.215 E233.27715
G1 X75.785 Y83.215 E233.30386
G1 X59.356 Y66.785 E234.43154
G1 X58.806 Y66.785 E234.45825
G1 X75.235 Y83.215 E235.58593
G1 X74.685 Y83.215 E235.61264
G1 X58.285 Y66.815 E236.73826
G1 X58.285 Y67.366 E236.76497
G1 X74.134 Y83.215 E237.85282
G1 X73.584 Y83.215 E237.87953
G1 X58.285 Y67.916 E238.92960
G1 X58.285 Y68.466 E238.95631
G1 X73.034 Y83.215 E239.96862
G1 X72.483 Y83.215 E239.99533
G1 X58.285 Y69.017 E240.96985
G1 X58.285 Y69.567 E240.99656
G1 X71.933 Y83.215 E241.93332
G1 X71.383 Y83.215 E241.96003
G1 X58.285 Y70.117 E242.85901
G1 X58.285 Y70.668 E242.88572
G1 X70.832 Y83.215 E243.74693
G1 X70.282 Y83.215 E243.77364
G1 X58.285 Y71.218 E244.59707
G1 X58.285 Y71.768 E244.62378
G1 X69.732 Y83.215 E245.40944
G1 X69.181 Y83.215 E245.43615
G1 X58.285 Y72.319 E246.18404
G1 X58.285 Y72.869 E246.21075
G1 X68.631 Y83.215 E246.92087
G1 X68.081 Y83.215 E246.94758
G1 X58.285 Y73.419 E247.61992
G1 X58.285 Y73.970 E247.64663
G1 X67.530 Y83.215 E248.28119
G1 X66.980 Y83.215 E248.30790
G1 X58.285 Y74.520 E248.90470
G1 X58.285 Y75.070 E248.93141
G1 X66.430 Y83.215 E249.49043
G1 X65.879 Y83.215 E249.51714
