; generated by Slic3r Prusa Edition 1.41.0-beta+win64 on 2018-08-12 at 14:45:16

; 

; external perimeters extrusion width = 0.45mm
; perimeters extrusion width = 0.45mm
; infill extrusion width = 0.45mm
; solid infill extrusion width = 0.45mm
; top infill extrusion width = 0.40mm
; first layer extrusion width = 0.80mm

M107
M104 S200 ; set temperature
G28 ; home all axes
G1 Z5 F5000 ; lift nozzle
; Filament gcode
M109 S200 ; set temperature and wait for it to be reached
G21 ; set units to millimeters
G90 ; use absolute coordinates
M82 ; use absolute distances for extrusion
G92 E0
G1 Z0.400 F7800.000
G1 E-2.00000 F1800.00000
G92 E0
G1 X66.567 Y70.716 F7800.000
G1 E2.00000 F1800.00000
G1 X67.238 Y69.433 E2.17200
G1 X67.950 Y68.560 E2.30572
G1 X68.805 Y67.827 E2.43945
G1 X69.775 Y67.257 E2.57318
G1 X70.831 Y66.866 E2.70690
G1 X72.288 Y66.646 E2.88184
G1 X77.506 Y66.643 E3.50162
G1 X86.966 Y66.992 E4.62593
G1 X87.832 Y67.089 E4.72942
G1 X88.871 Y67.371 E4.85725
G1 X89.853 Y67.828 E4.98582
G1 X90.743 Y68.444 E5.11439
G1 X91.515 Y69.202 E5.24296
G1 X92.019 Y69.875 E5.34275
G1 X92.433 Y70.613 E5.44329
G1 X92.745 Y71.400 E5.54383
G1 X92.948 Y72.216 E5.64363
G1 X93.048 Y73.238 E5.76556
G1 X93.040 Y77.673 E6.29238
G1 X92.844 Y78.945 E6.44525
G1 X92.398 Y80.146 E6.59739
G1 X91.720 Y81.233 E6.74953
G1 X90.833 Y82.166 E6.90240
G1 X90.003 Y82.770 E7.02434
G1 X89.086 Y83.232 E7.14627
G1 X88.107 Y83.541 E7.26820
G1 X87.097 Y83.687 E7.38940
G1 X81.549 Y83.699 E8.04836
G1 X72.219 Y83.351 E9.15714
G1 X70.940 Y83.163 E9.31075
G1 X69.719 Y82.716 E9.46510
G1 X68.619 Y82.035 E9.61871
G1 X67.677 Y81.141 E9.77305
G1 X67.054 Y80.278 E9.89941
G1 X66.581 Y79.318 E10.02650
G1 X66.277 Y78.299 E10.15286
G1 X66.147 Y77.237 E10.27995
G1 X66.143 Y72.931 E10.79125
G1 X66.204 Y72.118 E10.88809
G1 X66.552 Y70.774 E11.05296
; PURGING FINISHED
G1 E9.05296
G92 E0
G1 X85.578 Y76.229 F7800.000
G1 E2.00000 F1800.00000
G1 X82.806 Y76.229 E2.32918
G1 X82.806 Y74.457 E2.53959
G1 X85.578 Y74.457 E2.86877
G1 X85.578 Y76.169 E3.07206
G1 X86.292 Y76.943 F7800.000
G1 F1800
G1 X82.092 Y76.943 E3.57087
G1 X82.092 Y73.743 E3.95092
G1 X86.292 Y73.743 E4.44974
G1 X86.292 Y76.883 E4.82266
G1 X85.901 Y76.857 F7800.000
G1 E2.82266 F1800.00000
G92 E0
G1 X76.386 Y75.886 F7800.000
G1 E2.00000 F1800.00000
G1 X73.614 Y75.886 E2.32918
G1 X73.614 Y74.114 E2.53959
G1 X76.386 Y74.114 E2.86877
G1 X76.386 Y75.826 E3.07206
G1 X77.100 Y76.600 F7800.000
G1 F1800
G1 X72.900 Y76.600 E3.57087
G1 X72.900 Y73.400 E3.95092
G1 X77.100 Y73.400 E4.44974
G1 X77.100 Y76.540 E4.82266
G1 X76.709 Y76.514 F7800.000
G1 Z0.700 F7800.000
; PURGING FINISHED
G1 E2.82266 F1800.00000
G92 E0
G1 X85.696 Y76.347 F7800.000
G1 E2.00000 F1800.00000
G1 F900
G1 X82.688 Y76.347 E2.14465
G1 X82.688 Y74.340 E2.24121
G1 X85.696 Y74.340 E2.38586
G1 X85.696 Y76.287 E2.47953
G1 X86.081 Y76.733 F7800.000
G1 F900
G1 X82.302 Y76.733 E2.66127
G1 X82.302 Y73.954 E2.79492
G1 X86.081 Y73.954 E2.97667
G1 X86.081 Y76.673 E3.10743
G1 X86.467 Y77.118 F7800.000
G1 F900
G1 X81.917 Y77.118 E3.32627
G1 X81.917 Y73.568 E3.49701
G1 X86.467 Y73.568 E3.71585
G1 X86.467 Y77.058 E3.88371
G1 X86.077 Y77.031 F7800.000
G1 X84.844 Y76.234
G1 F900
G1 X85.431 Y75.647 E3.92137
G1 X85.431 Y75.132 E3.94471
G1 X84.481 Y76.083 E4.00569
G1 X83.967 Y76.083 E4.02902
G1 X85.431 Y74.604 E4.12346
G1 X84.931 Y74.604 E4.14615
G1 X83.452 Y76.083 E4.24105
G1 X82.952 Y76.083 E4.26373
G1 X84.417 Y74.604 E4.35816
G1 X83.903 Y74.604 E4.38150
G1 X82.952 Y75.554 E4.44247
G1 X82.952 Y75.040 E4.46580
G1 X83.539 Y74.453 E4.50346
G1 E2.50346 F1800.00000
G92 E0
G1 X76.504 Y76.004 F7800.000
G1 E2.00000 F1800.00000
G1 F900
G1 X73.496 Y76.004 E2.14465
G1 X73.496 Y73.996 E2.24121
G1 X76.504 Y73.996 E2.38586
G1 X76.504 Y75.944 E2.47953
G1 X76.889 Y76.389 F7800.000
G1 F900
G1 X73.111 Y76.389 E2.66127
G1 X73.111 Y73.611 E2.79492
G1 X76.889 Y73.611 E2.97667
G1 X76.889 Y76.329 E3.10743
G1 X77.275 Y76.775 F7800.000
G1 F900
G1 X72.725 Y76.775 E3.32627
G1 X72.725 Y73.225 E3.49701
G1 X77.275 Y73.225 E3.71585
G1 X77.275 Y76.715 E3.88371
G1 X76.885 Y76.687 F7800.000
G1 X75.653 Y75.891
G1 F900
G1 X76.240 Y75.304 E3.92137
G1 X76.240 Y74.789 E3.94471
G1 X75.289 Y75.740 E4.00569
G1 X74.775 Y75.740 E4.02902
G1 X76.240 Y74.260 E4.12346
G1 X75.740 Y74.260 E4.14615
G1 X74.260 Y75.740 E4.24105
G1 X73.760 Y75.740 E4.26373
G1 X75.225 Y74.260 E4.35816
G1 X74.711 Y74.260 E4.38150
G1 X73.760 Y75.211 E4.44247
G1 X73.760 Y74.696 E4.46580
G1 X74.347 Y74.109 E4.50346
G1 Z1.000 F7800.000
; PURGING FINISHED
G1 E2.50346 F1800.00000
G92 E0
G1 X86.467 Y77.118 F7800.000
G1 E2.00000 F1800.00000
G1 F600
G1 X81.917 Y77.118 E2.21884
G1 X81.917 Y76.818 E2.23327
G1 X86.467 Y76.818 E2.45211
G1 X86.467 Y77.058 E2.46365
G1 X86.067 Y77.110 F7800.000
G1 E0.46365 F1800.00000
G92 E0
G1 X86.467 Y73.868 F7800.000
G1 E2.00000 F1800.00000
G1 F600
G1 X81.917 Y73.868 E2.21884
G1 X81.917 Y73.568 E2.23327
G1 X86.467 Y73.568 E2.45211
G1 X86.467 Y73.808 E2.46365
G1 X86.067 Y73.860 F7800.000
G1 E0.46365 F1800.00000
G92 E0
G1 X77.275 Y76.775 F7800.000
G1 E2.00000 F1800.00000
G1 F600
G1 X72.725 Y76.775 E2.21884
G1 X72.725 Y76.475 E2.23327
G1 X77.275 Y76.475 E2.45211
G1 X77.275 Y76.715 E2.46365
G1 X76.875 Y76.766 F7800.000
G1 E0.46365 F1800.00000
G92 E0
G1 X77.275 Y73.525 F7800.000
G1 E2.00000 F1800.00000
G1 F600
G1 X72.725 Y73.525 E2.21884
G1 X72.725 Y73.225 E2.23327
G1 X77.275 Y73.225 E2.45211
G1 X77.275 Y73.465 E2.46365
G1 X76.875 Y73.516 F7800.000
M106 S255
G1 Z1.300 F7800.000
; PURGING FINISHED
G1 E0.46365 F1800.00000
G92 E0
G1 X86.467 Y76.818 F7800.000
G1 E2.00000 F1800.00000
G1 F600
G1 X86.467 Y77.118 E2.01443
G1 X81.917 Y77.118 E2.23327
G1 X81.917 Y76.818 E2.24770
G1 X86.407 Y76.818 E2.46365
G1 X86.323 Y77.081 F7800.000
G1 E0.46365 F1800.00000
G92 E0
G1 X86.467 Y73.868 F7800.000
G1 E2.00000 F1800.00000
G1 F600
G1 X81.917 Y73.868 E2.21884
G1 X81.917 Y73.568 E2.23327
G1 X86.467 Y73.568 E2.45211
G1 X86.467 Y73.808 E2.46365
G1 X86.067 Y73.860 F7800.000
G1 E0.46365 F1800.00000
G92 E0
G1 X77.275 Y76.475 F7800.000
G1 E2.00000 F1800.00000
G1 F600
G1 X77.275 Y76.775 E2.01443
G1 X72.725 Y76.775 E2.23327
G1 X72.725 Y76.475 E2.24770
G1 X77.215 Y76.475 E2.46365
G1 X77.131 Y76.738 F7800.000
G1 E0.46365 F1800.00000
G92 E0
G1 X77.275 Y73.525 F7800.000
G1 E2.00000 F1800.00000
G1 F600
G1 X72.725 Y73.525 E2.21884
G1 X72.725 Y73.225 E2.23327
G1 X77.275 Y73.225 E2.45211
G1 X77.275 Y73.465 E2.46365
G1 X76.875 Y73.516 F7800.000
G1 Z1.600 F7800.000
; PURGING FINISHED
G1 E0.46365 F1800.00000
G92 E0
G1 X86.467 Y76.818 F7800.000
G1 E2.00000 F1800.00000
G1 F600
G1 X86.467 Y77.118 E2.01443
G1 X81.917 Y77.118 E2.23327
G1 X81.917 Y76.818 E2.24770
G1 X86.407 Y76.818 E2.46365
G1 X86.323 Y77.081 F7800.000
G1 E0.46365 F1800.00000
G92 E0
G1 X86.467 Y73.868 F7800.000
G1 E2.00000 F1800.00000
G1 F600
G1 X81.917 Y73.868 E2.21884
G1 X81.917 Y73.568 E2.23327
G1 X86.467 Y73.568 E2.45211
G1 X86.467 Y73.808 E2.46365
G1 X86.067 Y73.860 F7800.000
G1 E0.46365 F1800.00000
G92 E0
G1 X77.275 Y76.475 F7800.000
G1 E2.00000 F1800.00000
G1 F600
G1 X77.275 Y76.775 E2.01443
G1 X72.725 Y76.775 E2.23327
G1 X72.725 Y76.475 E2.24770
G1 X77.215 Y76.475 E2.46365
G1 X77.131 Y76.738 F7800.000
G1 E0.46365 F1800.00000
G92 E0
G1 X77.275 Y73.525 F7800.000
G1 E2.00000 F1800.00000
G1 F600
G1 X72.725 Y73.525 E2.21884
G1 X72.725 Y73.225 E2.23327
G1 X77.275 Y73.225 E2.45211
G1 X77.275 Y73.465 E2.46365
G1 X76.875 Y73.516 F7800.000
G1 Z1.900 F7800.000
; PURGING FINISHED
G1 E0.46365 F1800.00000
G92 E0
G1 X86.467 Y76.818 F7800.000
G1 E2.00000 F1800.00000
G1 F600
G1 X86.467 Y77.118 E2.01443
G1 X81.917 Y77.118 E2.23327
G1 X81.917 Y76.818 E2.24770
G1 X86.407 Y76.818 E2.46365
G1 X86.323 Y77.081 F7800.000
G1 E0.46365 F1800.00000
G92 E0
G1 X86.467 Y73.868 F7800.000
G1 E2.00000 F1800.00000
G1 F600
G1 X81.917 Y73.868 E2.21884
G1 X81.917 Y73.568 E2.23327
G1 X86.467 Y73.568 E2.45211
G1 X86.467 Y73.808 E2.46365
G1 X86.067 Y73.860 F7800.000
G1 E0.46365 F1800.00000
G92 E0
G1 X77.275 Y76.475 F7800.000
G1 E2.00000 F1800.00000
G1 F600
G1 X77.275 Y76.775 E2.01443
G1 X72.725 Y76.775 E2.23327
G1 X72.725 Y76.475 E2.24770
G1 X77.215 Y76.475 E2.46365
G1 X77.131 Y76.738 F7800.000
G1 E0.46365 F1800.00000
G92 E0
G1 X77.275 Y73.525 F7800.000
G1 E2.00000 F1800.00000
G1 F600
G1 X72.725 Y73.525 E2.21884
G1 X72.725 Y73.225 E2.23327
G1 X77.275 Y73.225 E2.45211
G1 X77.275 Y73.465 E2.46365
G1 X76.875 Y73.516 F7800.000
G1 Z2.200 F7800.000
; PURGING FINISHED
G1 E0.46365 F1800.00000
G92 E0
G1 X86.467 Y76.818 F7800.000
G1 E2.00000 F1800.00000
G1 F600
G1 X86.467 Y77.118 E2.01443
G1 X81.917 Y77.118 E2.23327
G1 X81.917 Y76.818 E2.24770
G1 X86.407 Y76.818 E2.46365
G1 X86.323 Y77.081 F7800.000
G1 E0.46365 F1800.00000
G92 E0
G1 X86.467 Y73.868 F7800.000
G1 E2.00000 F1800.00000
G1 F600
G1 X81.917 Y73.868 E2.21884
G1 X81.917 Y73.568 E2.23327
G1 X86.467 Y73.568 E2.45211
G1 X86.467 Y73.808 E2.46365
G1 X86.067 Y73.860 F7800.000
G1 E0.46365 F1800.00000
G92 E0
G1 X77.275 Y76.475 F7800.000
G1 E2.00000 F1800.00000
G1 F600
G1 X77.275 Y76.775 E2.01443
G1 X72.725 Y76.775 E2.23327
G1 X72.725 Y76.475 E2.24770
G1 X77.215 Y76.475 E2.46365
G1 X77.131 Y76.738 F7800.000
G1 E0.46365 F1800.00000
G92 E0
G1 X77.275 Y73.525 F7800.000
G1 E2.00000 F1800.00000
G1 F600
G1 X72.725 Y73.525 E2.21884
G1 X72.725 Y73.225 E2.23327
G1 X77.275 Y73.225 E2.45211
G1 X77.275 Y73.465 E2.46365
G1 X76.875 Y73.516 F7800.000
G1 Z2.500 F7800.000
; PURGING FINISHED
G1 E0.46365 F1800.00000
G92 E0
G1 X86.467 Y76.818 F7800.000
G1 E2.00000 F1800.00000
G1 F600
G1 X86.467 Y77.118 E2.01443
G1 X81.917 Y77.118 E2.23327
G1 X81.917 Y76.818 E2.24770
G1 X86.407 Y76.818 E2.46365
G1 X86.323 Y77.081 F7800.000
G1 E0.46365 F1800.00000
G92 E0
G1 X86.467 Y73.868 F7800.000
G1 E2.00000 F1800.00000
G1 F600
G1 X81.917 Y73.868 E2.21884
G1 X81.917 Y73.568 E2.23327
G1 X86.467 Y73.568 E2.45211
G1 X86.467 Y73.808 E2.46365
G1 X86.067 Y73.860 F7800.000
G1 E0.46365 F1800.00000
G92 E0
G1 X77.275 Y76.475 F7800.000
G1 E2.00000 F1800.00000
G1 F600
G1 X77.275 Y76.775 E2.01443
G1 X72.725 Y76.775 E2.23327
G1 X72.725 Y76.475 E2.24770
G1 X77.215 Y76.475 E2.46365
G1 X77.131 Y76.738 F7800.000
G1 E0.46365 F1800.00000
G92 E0
G1 X77.275 Y73.525 F7800.000
G1 E2.00000 F1800.00000
G1 F600
G1 X72.725 Y73.525 E2.21884
G1 X72.725 Y73.225 E2.23327
G1 X77.275 Y73.225 E2.45211
G1 X77.275 Y73.465 E2.46365
G1 X76.875 Y73.516 F7800.000
G1 Z2.800 F7800.000
; PURGING FINISHED
G1 E0.46365 F1800.00000
G92 E0
G1 X86.467 Y76.818 F7800.000
G1 E2.00000 F1800.00000
G1 F600
G1 X86.467 Y77.118 E2.01443
G1 X81.917 Y77.118 E2.23327
G1 X81.917 Y76.818 E2.24770
G1 X86.407 Y76.818 E2.46365
G1 X86.323 Y77.081 F7800.000
G1 E0.46365 F1800.00000
G92 E0
G1 X86.467 Y73.868 F7800.000
G1 E2.00000 F1800.00000
G1 F600
G1 X81.917 Y73.868 E2.21884
G1 X81.917 Y73.568 E2.23327
G1 X86.467 Y73.568 E2.45211
G1 X86.467 Y73.808 E2.46365
G1 X86.067 Y73.860 F7800.000
G1 E0.46365 F1800.00000
G92 E0
G1 X77.275 Y76.475 F7800.000
G1 E2.00000 F1800.00000
G1 F600
G1 X77.275 Y76.775 E2.01443
G1 X72.725 Y76.775 E2.23327
G1 X72.725 Y76.475 E2.24770
G1 X77.215 Y76.475 E2.46365
G1 X77.131 Y76.738 F7800.000
G1 E0.46365 F1800.00000
G92 E0
G1 X77.275 Y73.525 F7800.000
G1 E2.00000 F1800.00000
G1 F600
G1 X72.725 Y73.525 E2.21884
G1 X72.725 Y73.225 E2.23327
G1 X77.275 Y73.225 E2.45211
G1 X77.275 Y73.465 E2.46365
G1 X76.875 Y73.516 F7800.000
G1 Z3.100 F7800.000
; PURGING FINISHED
G1 E0.46365 F1800.00000
G92 E0
G1 X86.467 Y76.818 F7800.000
G1 E2.00000 F1800.00000
G1 F600
G1 X86.467 Y77.118 E2.01443
G1 X81.917 Y77.118 E2.23327
G1 X81.917 Y76.818 E2.24770
G1 X86.407 Y76.818 E2.46365
G1 X86.323 Y77.081 F7800.000
G1 E0.46365 F1800.00000
G92 E0
G1 X86.467 Y73.868 F7800.000
G1 E2.00000 F1800.00000
G1 F600
G1 X81.917 Y73.868 E2.21884
G1 X81.917 Y73.568 E2.23327
G1 X86.467 Y73.568 E2.45211
G1 X86.467 Y73.808 E2.46365
G1 X86.067 Y73.860 F7800.000
G1 E0.46365 F1800.00000
G92 E0
G1 X77.275 Y76.475 F7800.000
G1 E2.00000 F1800.00000
G1 F600
G1 X77.275 Y76.775 E2.01443
G1 X72.725 Y76.775 E2.23327
G1 X72.725 Y76.475 E2.24770
G1 X77.215 Y76.475 E2.46365
G1 X77.131 Y76.738 F7800.000
G1 E0.46365 F1800.00000
G92 E0
G1 X77.275 Y73.525 F7800.000
G1 E2.00000 F1800.00000
G1 F600
G1 X72.725 Y73.525 E2.21884
G1 X72.725 Y73.225 E2.23327
G1 X77.275 Y73.225 E2.45211
G1 X77.275 Y73.465 E2.46365
G1 X76.875 Y73.516 F7800.000
G1 Z3.400 F7800.000
; PURGING FINISHED
G1 E0.46365 F1800.00000
G92 E0
G1 X86.467 Y76.818 F7800.000
G1 E2.00000 F1800.00000
G1 F600
G1 X86.467 Y77.118 E2.01443
G1 X81.917 Y77.118 E2.23327
G1 X81.917 Y76.818 E2.24770
G1 X86.407 Y76.818 E2.46365
G1 X86.323 Y77.081 F7800.000
G1 E0.46365 F1800.00000
G92 E0
G1 X86.467 Y73.868 F7800.000
G1 E2.00000 F1800.00000
G1 F600
G1 X81.917 Y73.868 E2.21884
G1 X81.917 Y73.568 E2.23327
G1 X86.467 Y73.568 E2.45211
G1 X86.467 Y73.808 E2.46365
G1 X86.067 Y73.860 F7800.000
G1 E0.46365 F1800.00000
G92 E0
G1 X77.275 Y76.475 F7800.000
G1 E2.00000 F1800.00000
G1 F600
G1 X77.275 Y76.775 E2.01443
G1 X72.725 Y76.775 E2.23327
G1 X72.725 Y76.475 E2.24770
G1 X77.215 Y76.475 E2.46365
G1 X77.131 Y76.738 F7800.000
G1 E0.46365 F1800.00000
G92 E0
G1 X77.275 Y73.525 F7800.000
G1 E2.00000 F1800.00000
G1 F600
G1 X72.725 Y73.525 E2.21884
G1 X72.725 Y73.225 E2.23327
G1 X77.275 Y73.225 E2.45211
G1 X77.275 Y73.465 E2.46365
G1 X76.875 Y73.516 F7800.000
G1 Z3.700 F7800.000
; PURGING FINISHED
G1 E0.46365 F1800.00000
G92 E0
G1 X86.467 Y76.818 F7800.000
G1 E2.00000 F1800.00000
G1 F600
G1 X86.467 Y77.118 E2.01443
G1 X81.917 Y77.118 E2.23327
G1 X81.917 Y76.818 E2.24770
G1 X86.407 Y76.818 E2.46365
G1 X86.323 Y77.081 F7800.000
G1 E0.46365 F1800.00000
G92 E0
G1 X86.467 Y73.868 F7800.000
G1 E2.00000 F1800.00000
G1 F600
G1 X81.917 Y73.868 E2.21884
G1 X81.917 Y73.568 E2.23327
G1 X86.467 Y73.568 E2.45211
G1 X86.467 Y73.808 E2.46365
G1 X86.067 Y73.860 F7800.000
G1 E0.46365 F1800.00000
G92 E0
G1 X77.275 Y76.475 F7800.000
G1 E2.00000 F1800.00000
G1 F600
G1 X77.275 Y76.775 E2.01443
G1 X72.725 Y76.775 E2.23327
G1 X72.725 Y76.475 E2.24770
G1 X77.215 Y76.475 E2.46365
G1 X77.131 Y76.738 F7800.000
G1 E0.46365 F1800.00000
G92 E0
G1 X77.275 Y73.525 F7800.000
G1 E2.00000 F1800.00000
G1 F600
G1 X72.725 Y73.525 E2.21884
G1 X72.725 Y73.225 E2.23327
G1 X77.275 Y73.225 E2.45211
G1 X77.275 Y73.465 E2.46365
G1 X76.875 Y73.516 F7800.000
G1 Z4.000 F7800.000
; PURGING FINISHED
G1 E0.46365 F1800.00000
G92 E0
G1 X86.467 Y76.818 F7800.000
G1 E2.00000 F1800.00000
G1 F600
G1 X86.467 Y77.118 E2.01443
G1 X81.917 Y77.118 E2.23327
G1 X81.917 Y76.818 E2.24770
G1 X86.407 Y76.818 E2.46365
G1 X86.323 Y77.081 F7800.000
G1 E0.46365 F1800.00000
G92 E0
G1 X86.467 Y73.868 F7800.000
G1 E2.00000 F1800.00000
G1 F600
G1 X81.917 Y73.868 E2.21884
G1 X81.917 Y73.568 E2.23327
G1 X86.467 Y73.568 E2.45211
G1 X86.467 Y73.808 E2.46365
G1 X86.067 Y73.860 F7800.000
G1 E0.46365 F1800.00000
G92 E0
G1 X77.275 Y76.475 F7800.000
G1 E2.00000 F1800.00000
G1 F600
G1 X77.275 Y76.775 E2.01443
G1 X72.725 Y76.775 E2.23327
G1 X72.725 Y76.475 E2.24770
G1 X77.215 Y76.475 E2.46365
G1 X77.131 Y76.738 F7800.000
G1 E0.46365 F1800.00000
G92 E0
G1 X77.275 Y73.525 F7800.000
G1 E2.00000 F1800.00000
G1 F600
G1 X72.725 Y73.525 E2.21884
G1 X72.725 Y73.225 E2.23327
G1 X77.275 Y73.225 E2.45211
G1 X77.275 Y73.465 E2.46365
G1 X76.875 Y73.516 F7800.000
G1 E0.46365 F1800.00000
G92 E0
M107
; Filament-specific end gcode 
;END gcode for filament
M104 S0 ; turn off temperature
G28 X0  ; home X axis
M84     ; disable motors
; filament used = 40.1mm (0.1cm3)
; total filament cost = 0.0
; estimated printing time (normal mode) = 1m 11s

; avoid_crossing_perimeters = 0
; bed_shape = 0x0,150x0,150x150,0x150
; bed_temperature = 0
; before_layer_gcode = 
; between_objects_gcode = 
; bridge_acceleration = 0
; bridge_fan_speed = 100
; brim_width = 0
; complete_objects = 0
; cooling = 1
; cooling_tube_length = 5
; cooling_tube_retraction = 91.5
; default_acceleration = 0
; deretract_speed = 0
; disable_fan_first_layers = 3
; duplicate_distance = 6
; end_filament_gcode = "; Filament-specific end gcode \n;END gcode for filament\n"
