; generated by Slic3r Prusa Edition 1.41.0-beta+win64 on 2018-08-12 at 16:42:40

; 

; external perimeters extrusion width = 0.45mm
; perimeters extrusion width = 0.45mm
; infill extrusion width = 0.45mm
; solid infill extrusion width = 0.45mm
; top infill extrusion width = 0.40mm
; first layer extrusion width = 0.80mm

M107
M104 S200 ; set temperature
G28 ; home all axes
G1 Z5 F5000 ; lift nozzle
; Filament gcode
M109 S200 ; set temperature and wait for it to be reached
G21 ; set units to millimeters
G90 ; use absolute coordinates
M82 ; use absolute distances for extrusion
G92 E0
G1 Z0.400 F7800.000
G1 E-2.00000 F1800.00000
G92 E0
G1 X35.011 Y52.498 F7800.000
G1 E2.00000 F1800.00000
G1 X36.242 Y51.541 E2.18522
G1 X36.985 Y51.162 E2.28428
G1 X37.771 Y50.883 E2.38334
G1 X38.587 Y50.709 E2.48240
G1 X39.425 Y50.643 E2.58220
G1 X110.506 Y50.643 E11.02421
G1 X111.689 Y50.755 E11.16531
G1 X112.836 Y51.088 E11.30714
G1 X113.895 Y51.625 E11.44823
G1 X114.840 Y52.355 E11.59006
G1 X115.629 Y53.244 E11.73115
G1 X116.241 Y54.269 E11.87298
G1 X116.650 Y55.391 E12.01481
G1 X116.843 Y56.570 E12.15664
G1 X116.840 Y93.467 E16.53870
G1 X116.547 Y94.961 E16.71951
G1 X115.908 Y96.342 E16.90033
G1 X114.962 Y97.528 E17.08041
G1 X113.758 Y98.459 E17.26122
G1 X113.015 Y98.838 E17.36028
G1 X112.229 Y99.117 E17.45934
G1 X111.413 Y99.291 E17.55840
G1 X110.575 Y99.357 E17.65820
G1 X39.326 Y99.355 E26.12018
G1 X37.754 Y99.113 E26.30907
G1 X37.003 Y98.846 E26.40370
G1 X36.286 Y98.485 E26.49907
G1 X35.025 Y97.515 E26.68796
G1 X34.495 Y96.920 E26.78259
G1 X34.041 Y96.258 E26.87796
G1 X33.669 Y95.532 E26.97481
G1 X33.391 Y94.759 E27.07239
G1 X33.216 Y93.962 E27.16924
G1 X33.145 Y93.144 E27.26682
G1 X33.151 Y56.689 E31.59643
G1 X33.417 Y55.152 E31.78165
G1 X34.050 Y53.727 E31.96687
G1 X34.974 Y52.546 E32.14496
; PURGING FINISHED
G1 E30.14496
G92 E0
G1 X46.672 Y60.172 F7800.000
G1 E2.00000 F1800.00000
G1 X103.328 Y60.172 E8.72884
G1 X103.328 Y64.172 E9.20390
G1 X107.328 Y64.172 E9.67896
G1 X107.328 Y85.828 E12.25101
G1 X103.328 Y85.828 E12.72607
G1 X103.328 Y89.828 E13.20113
G1 X46.672 Y89.828 E19.92997
G1 X46.672 Y85.828 E20.40503
G1 X42.672 Y85.828 E20.88009
G1 X42.672 Y64.172 E23.45214
G1 X46.672 Y64.172 E23.92720
G1 X46.672 Y60.232 E24.39514
G1 X47.386 Y60.886 F7800.000
G1 F1800
G1 X102.614 Y60.886 E30.95434
G1 X102.614 Y64.886 E31.42940
G1 X106.614 Y64.886 E31.90446
G1 X106.614 Y85.114 E34.30688
G1 X102.614 Y85.114 E34.78194
G1 X102.614 Y89.114 E35.25700
G1 X47.386 Y89.114 E41.81620
G1 X47.386 Y85.114 E42.29126
G1 X43.386 Y85.114 E42.76632
G1 X43.386 Y64.886 E45.16874
G1 X47.386 Y64.886 E45.64380
G1 X47.386 Y60.946 E46.11174
G1 X48.100 Y61.600 F7800.000
G1 F1800
G1 X101.900 Y61.600 E52.50130
G1 X101.900 Y65.600 E52.97637
G1 X105.900 Y65.600 E53.45143
G1 X105.900 Y84.400 E55.68421
G1 X101.900 Y84.400 E56.15927
G1 X101.900 Y88.400 E56.63433
G1 X48.100 Y88.400 E63.02390
G1 X48.100 Y84.400 E63.49896
G1 X44.100 Y84.400 E63.97402
G1 X44.100 Y65.600 E66.20681
G1 X48.100 Y65.600 E66.68187
G1 X48.100 Y61.660 E67.14980
G1 X48.204 Y61.214 F7800.000
G1 E65.14980 F1800.00000
G92 E0
G1 X41.328 Y58.828 F7800.000
G1 E2.00000 F1800.00000
G1 X108.672 Y58.828 E9.99805
G1 X108.672 Y91.172 E13.83931
G1 X41.328 Y91.172 E21.83736
G1 X41.328 Y58.888 E25.67150
G1 X40.614 Y58.114 F7800.000
G1 F1800
G1 X109.386 Y58.114 E33.83918
G1 X109.386 Y91.886 E37.85008
G1 X40.614 Y91.886 E46.01776
G1 X40.614 Y58.174 E50.02153
G1 X39.900 Y57.400 F7800.000
G1 F1800
G1 X110.100 Y57.400 E58.35885
G1 X110.100 Y92.600 E62.53938
G1 X39.900 Y92.600 E70.87670
G1 X39.900 Y57.460 E75.05010
G1 X40.295 Y57.462 F7800.000
G1 E73.05010 F1800.00000
G92 E0
G1 X41.543 Y62.129 F7800.000
G1 E2.00000 F1800.00000
G1 X43.050 Y63.636 E2.25787
G1 X44.079 Y63.636 E2.38231
G1 X41.864 Y61.421 E2.76119
G1 X41.864 Y60.393 E2.88563
G1 X45.107 Y63.636 E3.44050
G1 X46.136 Y63.636 E3.56494
G1 X41.864 Y59.364 E4.29581
G1 X42.893 Y59.364 E4.42025
G1 X46.136 Y62.607 E4.97514
G1 X46.136 Y61.579 E5.09958
G1 X43.921 Y59.364 E5.47848
G1 X44.950 Y59.364 E5.60293
G1 X46.457 Y60.871 E5.86082
G1 X46.315 Y59.500 F7800.000
G1 F1800
G1 X103.685 Y59.500 E11.86394
G1 E9.86394
G92 E0
G1 X103.543 Y62.367 F7800.000
G1 E2.00000 F1800.00000
G1 X104.812 Y63.636 E2.23389
G1 X105.920 Y63.636 E2.37827
G1 X103.864 Y61.580 E2.75713
G1 X103.864 Y60.472 E2.90151
G1 X107.028 Y63.636 E3.48456
G1 X107.107 Y63.636 E3.49484
G1 X107.107 Y63.279 E3.54137
G1 X107.779 Y63.279 E3.62894
G1 X104.221 Y59.721 E4.28458
G1 X104.221 Y59.364 E4.33111
G1 X104.972 Y59.364 E4.42896
G1 X108.136 Y62.528 E5.01203
G1 X108.136 Y61.420 E5.15641
G1 X106.080 Y59.364 E5.53530
G1 X107.188 Y59.364 E5.67968
G1 X108.457 Y60.633 E5.91359
G1 E3.91359
G92 E0
G1 X108.000 Y63.815 F7800.000
G1 E2.00000 F1800.00000
G1 X108.000 Y86.185 E4.34082
G1 X108.457 Y87.871 F7800.000
G1 F1800
G1 X106.950 Y86.364 E4.59871
G1 X105.921 Y86.364 E4.72315
G1 X108.136 Y88.579 E5.10205
G1 X108.136 Y89.607 E5.22650
G1 X104.893 Y86.364 E5.78139
G1 X103.864 Y86.364 E5.90583
G1 X108.136 Y90.636 E6.63669
G1 X107.107 Y90.636 E6.76114
G1 X103.864 Y87.393 E7.31600
G1 X103.864 Y88.421 E7.44045
G1 X106.079 Y90.636 E7.81933
G1 X105.050 Y90.636 E7.94377
G1 X103.543 Y89.129 E8.20164
G1 X103.685 Y90.500 F7800.000
G1 F1800
G1 X46.315 Y90.500 E14.20476
G1 E12.20476
G92 E0
G1 X46.457 Y87.633 F7800.000
G1 E2.00000 F1800.00000
G1 X45.188 Y86.364 E2.23391
G1 X44.080 Y86.364 E2.37830
G1 X46.136 Y88.420 E2.75718
G1 X46.136 Y89.528 E2.90156
G1 X42.972 Y86.364 E3.48463
G1 X42.893 Y86.364 E3.49490
G1 X42.893 Y86.721 E3.54142
G1 X42.221 Y86.721 E3.62901
G1 X45.779 Y90.279 E4.28468
G1 X45.779 Y90.636 E4.33119
G1 X45.028 Y90.636 E4.42906
G1 X41.864 Y87.472 E5.01210
G1 X41.864 Y88.580 E5.15649
G1 X43.920 Y90.636 E5.53534
G1 X42.812 Y90.636 E5.67973
G1 X41.543 Y89.367 E5.91362
G1 E3.91362
G92 E0
G1 X42.000 Y86.185 F7800.000
G1 E2.00000 F1800.00000
G1 X42.000 Y63.815 E4.34082
G1 Z0.700 F7800.000
; PURGING FINISHED
G1 X47.504 Y61.004
G1 F3600
G1 X102.496 Y61.004 E6.98577
G1 X102.496 Y65.004 E7.17816
G1 X106.496 Y65.004 E7.37054
G1 X106.496 Y84.996 E8.33211
G1 X102.496 Y84.996 E8.52450
G1 X102.496 Y88.996 E8.71688
G1 X47.504 Y88.996 E11.36184
G1 X47.504 Y84.996 E11.55422
G1 X43.504 Y84.996 E11.74661
G1 X43.504 Y65.004 E12.70818
G1 X47.504 Y65.004 E12.90056
G1 X47.504 Y61.064 E13.09006
G1 X47.889 Y61.389 F7800.000
G1 F3600
G1 X102.111 Y61.389 E15.69792
G1 X102.111 Y65.389 E15.89031
G1 X106.111 Y65.389 E16.08269
G1 X106.111 Y84.611 E17.00717
G1 X102.111 Y84.611 E17.19956
G1 X102.111 Y88.611 E17.39194
G1 X47.889 Y88.611 E19.99980
G1 X47.889 Y84.611 E20.19218
G1 X43.889 Y84.611 E20.38457
G1 X43.889 Y65.389 E21.30905
G1 X47.889 Y65.389 E21.50143
G1 X47.889 Y61.449 E21.69093
G1 X48.275 Y61.775 F7800.000
G1 F1800
G1 X101.725 Y61.775 E24.26170
G1 X101.725 Y65.775 E24.45408
G1 X105.725 Y65.775 E24.64647
G1 X105.725 Y84.225 E25.53385
G1 X101.725 Y84.225 E25.72624
G1 X101.725 Y88.225 E25.91862
G1 X48.275 Y88.225 E28.48939
G1 X48.275 Y84.225 E28.68177
G1 X44.275 Y84.225 E28.87416
G1 X44.275 Y65.775 E29.76154
G1 X48.275 Y65.775 E29.95393
G1 X48.275 Y61.835 E30.14343
G1 X48.379 Y61.389 F7800.000
G1 X40.496 Y57.996
G1 F3600
G1 X109.504 Y57.996 E33.46245
G1 X109.504 Y92.004 E35.09810
G1 X40.496 Y92.004 E38.41713
G1 X40.496 Y58.056 E40.04989
G1 X40.111 Y57.611 F7800.000
G1 F3600
G1 X109.889 Y57.611 E43.40601
G1 X109.889 Y92.389 E45.07875
G1 X40.111 Y92.389 E48.43487
G1 X40.111 Y57.671 E50.10472
G1 X39.725 Y57.225 F7800.000
G1 F1800
G1 X110.275 Y57.225 E53.49793
G1 X110.275 Y92.775 E55.20777
G1 X39.725 Y92.775 E58.60098
G1 X39.725 Y57.285 E60.30793
G1 X40.120 Y57.287 F7800.000
G1 X40.612 Y58.892
G1 F1200
G1 X41.219 Y58.285 E60.34925
G1 X41.765 Y58.285 E60.37554
G1 X40.785 Y59.265 E60.44221
G1 X40.785 Y59.811 E60.46850
G1 X42.311 Y58.285 E60.57234
G1 X42.857 Y58.285 E60.59863
G1 X40.785 Y60.357 E60.73964
G1 X40.785 Y60.902 E60.76593
G1 X43.402 Y58.285 E60.94411
G1 X43.948 Y58.285 E60.97039
G1 X40.785 Y61.448 E61.18575
G1 X40.785 Y61.994 E61.21203
G1 X44.494 Y58.285 E61.46456
G1 X45.040 Y58.285 E61.49084
G1 X40.785 Y62.540 E61.78053
G1 X40.785 Y63.086 E61.80681
G1 X45.586 Y58.285 E62.13368
G1 X46.132 Y58.285 E62.15996
G1 X40.785 Y63.632 E62.52399
G1 X40.785 Y64.178 E62.55027
G1 X46.678 Y58.285 E62.95147
G1 X47.224 Y58.285 E62.97776
G1 X40.785 Y64.724 E63.41613
G1 X40.785 Y65.270 E63.44241
G1 X47.770 Y58.285 E63.91795
G1 X48.316 Y58.285 E63.94423
G1 X40.785 Y65.816 E64.45694
G1 X40.785 Y66.361 E64.48322
G1 X48.861 Y58.285 E65.03310
G1 X49.407 Y58.285 E65.05938
G1 X40.612 Y67.081 E65.65824
G1 X43.896 Y64.888 F7800.000
G1 F1200
G1 X47.215 Y61.570 E65.88417
G1 X47.215 Y62.116 E65.91045
G1 X44.616 Y64.715 E66.08739
G1 X45.162 Y64.715 E66.11367
G1 X47.215 Y62.662 E66.25344
G1 X47.215 Y63.208 E66.27972
G1 X45.708 Y64.715 E66.38233
G1 X46.254 Y64.715 E66.40861
G1 X47.215 Y63.754 E66.47404
G1 X47.215 Y64.299 E66.50032
G1 X46.626 Y64.888 E66.54040
G1 E64.54040 F1800.00000
G92 E0
G1 X99.327 Y91.888 F7800.000
G1 E2.00000 F1800.00000
G1 F1200
G1 X101.930 Y89.285 E2.17721
G1 X101.384 Y89.285 E2.20349
G1 X98.955 Y91.715 E2.36889
G1 X98.409 Y91.715 E2.39517
G1 X100.838 Y89.285 E2.56057
G1 X100.292 Y89.285 E2.58685
G1 X97.863 Y91.715 E2.75225
G1 X97.317 Y91.715 E2.77853
G1 X99.747 Y89.285 E2.94392
G1 X99.201 Y89.285 E2.97021
G1 X96.771 Y91.715 E3.13560
G1 X96.226 Y91.715 E3.16189
G1 X98.655 Y89.285 E3.32728
G1 X98.109 Y89.285 E3.35356
G1 X95.680 Y91.715 E3.51896
G1 X95.134 Y91.715 E3.54524
G1 X97.563 Y89.285 E3.71064
G1 X97.017 Y89.285 E3.73692
G1 X94.588 Y91.715 E3.90232
G1 X94.042 Y91.715 E3.92860
G1 X96.471 Y89.285 E4.09400
G1 X95.925 Y89.285 E4.12028
G1 X93.496 Y91.715 E4.28567
G1 X92.950 Y91.715 E4.31196
G1 X95.379 Y89.285 E4.47735
G1 X94.833 Y89.285 E4.50363
G1 X92.404 Y91.715 E4.66903
G1 X91.858 Y91.715 E4.69531
G1 X94.288 Y89.285 E4.86071
G1 X93.742 Y89.285 E4.88699
G1 X91.312 Y91.715 E5.05239
G1 X90.767 Y91.715 E5.07867
G1 X93.196 Y89.285 E5.24407
G1 X92.650 Y89.285 E5.27035
G1 X90.221 Y91.715 E5.43574
G1 X89.675 Y91.715 E5.46203
G1 X92.104 Y89.285 E5.62742
G1 X91.558 Y89.285 E5.65371
G1 X89.129 Y91.715 E5.81910
G1 X88.583 Y91.715 E5.84538
G1 X91.012 Y89.285 E6.01078
G1 X90.466 Y89.285 E6.03706
G1 X88.037 Y91.715 E6.20246
G1 X87.491 Y91.715 E6.22874
G1 X89.920 Y89.285 E6.39414
G1 X89.374 Y89.285 E6.42042
G1 X86.945 Y91.715 E6.58582
G1 X86.399 Y91.715 E6.61210
G1 X88.829 Y89.285 E6.77749
G1 X88.283 Y89.285 E6.80378
G1 X85.853 Y91.715 E6.96917
G1 X85.308 Y91.715 E6.99545
G1 X87.737 Y89.285 E7.16085
G1 X87.191 Y89.285 E7.18713
G1 X84.762 Y91.715 E7.35253
G1 X84.216 Y91.715 E7.37881
G1 X86.645 Y89.285 E7.54421
G1 X86.099 Y89.285 E7.57049
G1 X83.670 Y91.715 E7.73589
G1 X83.124 Y91.715 E7.76217
G1 X85.553 Y89.285 E7.92756
G1 X85.007 Y89.285 E7.95385
G1 X82.578 Y91.715 E8.11924
G1 X82.032 Y91.715 E8.14553
G1 X84.461 Y89.285 E8.31092
G1 X83.915 Y89.285 E8.33720
G1 X81.486 Y91.715 E8.50260
G1 X80.940 Y91.715 E8.52888
G1 X83.369 Y89.285 E8.69428
G1 X82.824 Y89.285 E8.72056
G1 X80.394 Y91.715 E8.88596
G1 X79.849 Y91.715 E8.91224
G1 X82.278 Y89.285 E9.07763
G1 X81.732 Y89.285 E9.10392
G1 X79.303 Y91.715 E9.26931
G1 X78.757 Y91.715 E9.29560
G1 X81.186 Y89.285 E9.46099
G1 X80.640 Y89.285 E9.48727
G1 X78.211 Y91.715 E9.65267
G1 X77.665 Y91.715 E9.67895
G1 X80.094 Y89.285 E9.84435
G1 X79.548 Y89.285 E9.87063
G1 X77.119 Y91.715 E10.03603
G1 X76.573 Y91.715 E10.06231
G1 X79.002 Y89.285 E10.22771
G1 X78.456 Y89.285 E10.25399
G1 X76.027 Y91.715 E10.41938
G1 X75.481 Y91.715 E10.44567
G1 X77.910 Y89.285 E10.61106
G1 X77.365 Y89.285 E10.63734
G1 X74.935 Y91.715 E10.80274
G1 X74.390 Y91.715 E10.82902
G1 X76.819 Y89.285 E10.99442
G1 X76.273 Y89.285 E11.02070
G1 X73.844 Y91.715 E11.18610
G1 X73.298 Y91.715 E11.21238
G1 X75.727 Y89.285 E11.37778
G1 X75.181 Y89.285 E11.40406
G1 X72.752 Y91.715 E11.56945
G1 X72.206 Y91.715 E11.59574
G1 X74.635 Y89.285 E11.76113
G1 X74.089 Y89.285 E11.78742
G1 X71.660 Y91.715 E11.95281
G1 X71.114 Y91.715 E11.97909
G1 X73.543 Y89.285 E12.14449
G1 X72.997 Y89.285 E12.17077
G1 X70.568 Y91.715 E12.33617
G1 X70.022 Y91.715 E12.36245
G1 X72.451 Y89.285 E12.52785
G1 X71.906 Y89.285 E12.55413
G1 X69.476 Y91.715 E12.71952
G1 X68.931 Y91.715 E12.74581
G1 X71.360 Y89.285 E12.91120
G1 X70.814 Y89.285 E12.93749
G1 X68.385 Y91.715 E13.10288
G1 X67.839 Y91.715 E13.12916
G1 X70.268 Y89.285 E13.29456
G1 X69.722 Y89.285 E13.32084
G1 X67.293 Y91.715 E13.48624
G1 X66.747 Y91.715 E13.51252
G1 X69.176 Y89.285 E13.67792
G1 X68.630 Y89.285 E13.70420
G1 X66.201 Y91.715 E13.86960
G1 X65.655 Y91.715 E13.89588
G1 X68.084 Y89.285 E14.06127
G1 X67.538 Y89.285 E14.08756
G1 X65.109 Y91.715 E14.25295
G1 X64.563 Y91.715 E14.27923
G1 X66.992 Y89.285 E14.44463
G1 X66.447 Y89.285 E14.47091
G1 X64.017 Y91.715 E14.63631
G1 X63.472 Y91.715 E14.66259
G1 X65.901 Y89.285 E14.82799
G1 X65.355 Y89.285 E14.85427
G1 X62.926 Y91.715 E15.01967
G1 X62.380 Y91.715 E15.04595
G1 X64.809 Y89.285 E15.21134
G1 X64.263 Y89.285 E15.23763
G1 X61.834 Y91.715 E15.40302
G1 X61.288 Y91.715 E15.42931
G1 X63.717 Y89.285 E15.59470
G1 X63.171 Y89.285 E15.62098
G1 X60.742 Y91.715 E15.78638
G1 X60.196 Y91.715 E15.81266
G1 X62.625 Y89.285 E15.97806
G1 X62.079 Y89.285 E16.00434
G1 X59.650 Y91.715 E16.16974
G1 X59.104 Y91.715 E16.19602
G1 X61.533 Y89.285 E16.36142
G1 X60.988 Y89.285 E16.38770
G1 X58.558 Y91.715 E16.55309
G1 X58.013 Y91.715 E16.57938
G1 X60.442 Y89.285 E16.74477
G1 X59.896 Y89.285 E16.77105
G1 X57.467 Y91.715 E16.93645
G1 X56.921 Y91.715 E16.96273
G1 X59.350 Y89.285 E17.12813
G1 X58.804 Y89.285 E17.15441
G1 X56.375 Y91.715 E17.31981
G1 X55.829 Y91.715 E17.34609
G1 X58.258 Y89.285 E17.51149
G1 X57.712 Y89.285 E17.53777
G1 X55.283 Y91.715 E17.70316
G1 X54.737 Y91.715 E17.72945
G1 X57.166 Y89.285 E17.89484
G1 X56.620 Y89.285 E17.92113
G1 X54.191 Y91.715 E18.08652
G1 X53.645 Y91.715 E18.11280
G1 X56.074 Y89.285 E18.27820
G1 X55.529 Y89.285 E18.30448
G1 X53.099 Y91.715 E18.46988
G1 X52.554 Y91.715 E18.49616
G1 X54.983 Y89.285 E18.66156
G1 X54.437 Y89.285 E18.68784
G1 X52.008 Y91.715 E18.85323
G1 X51.462 Y91.715 E18.87952
G1 X53.891 Y89.285 E19.04491
G1 X53.345 Y89.285 E19.07120
G1 X50.916 Y91.715 E19.23659
G1 X50.370 Y91.715 E19.26287
G1 X52.799 Y89.285 E19.42827
G1 X52.253 Y89.285 E19.45455
G1 X49.824 Y91.715 E19.61995
G1 X49.278 Y91.715 E19.64623
G1 X51.707 Y89.285 E19.81163
G1 X51.161 Y89.285 E19.83791
G1 X48.732 Y91.715 E20.00331
G1 X48.186 Y91.715 E20.02959
G1 X50.615 Y89.285 E20.19498
G1 X50.070 Y89.285 E20.22127
G1 X47.640 Y91.715 E20.38666
G1 X47.094 Y91.715 E20.41294
G1 X49.524 Y89.285 E20.57834
G1 X48.978 Y89.285 E20.60462
G1 X46.549 Y91.715 E20.77002
G1 X46.003 Y91.715 E20.79630
G1 X48.432 Y89.285 E20.96170
G1 X47.886 Y89.285 E20.98798
G1 X45.457 Y91.715 E21.15338
G1 X44.911 Y91.715 E21.17966
G1 X47.340 Y89.285 E21.34505
G1 X47.215 Y89.285 E21.35110
G1 X47.215 Y88.865 E21.37134
G1 X44.365 Y91.715 E21.56536
G1 X43.819 Y91.715 E21.59164
G1 X47.215 Y88.319 E21.82283
G1 X47.215 Y87.773 E21.84911
G1 X43.273 Y91.715 E22.11747
G1 X42.727 Y91.715 E22.14376
G1 X47.215 Y87.227 E22.44929
G1 X47.215 Y86.681 E22.47557
G1 X42.181 Y91.715 E22.81827
G1 X41.635 Y91.715 E22.84455
G1 X47.215 Y86.135 E23.22442
G1 X47.215 Y85.590 E23.25070
G1 X41.090 Y91.715 E23.66774
G1 X40.785 Y91.715 E23.68238
G1 X40.785 Y91.473 E23.69402
G1 X46.973 Y85.285 E24.11531
G1 X46.427 Y85.285 E24.14159
G1 X40.785 Y90.927 E24.52571
G1 X40.785 Y90.381 E24.55199
G1 X45.881 Y85.285 E24.89894
G1 X45.335 Y85.285 E24.92522
G1 X40.785 Y89.835 E25.23500
G1 X40.785 Y89.289 E25.26129
G1 X44.789 Y85.285 E25.53390
G1 X44.243 Y85.285 E25.56018
G1 X40.785 Y88.743 E25.79562
G1 X40.785 Y88.197 E25.82190
G1 X43.697 Y85.285 E26.02018
G1 X43.215 Y85.285 E26.04343
G1 X43.215 Y85.222 E26.04646
G1 X40.785 Y87.652 E26.21186
G1 X40.785 Y87.106 E26.23814
G1 X43.215 Y84.676 E26.40353
G1 X43.215 Y84.131 E26.42982
G1 X40.785 Y86.560 E26.59521
G1 X40.785 Y86.014 E26.62150
G1 X43.215 Y83.585 E26.78689
G1 X43.215 Y83.039 E26.81317
G1 X40.785 Y85.468 E26.97857
G1 X40.785 Y84.922 E27.00485
G1 X43.215 Y82.493 E27.17025
G1 X43.215 Y81.947 E27.19653
