; generated by Slic3r Prusa Edition 1.39.1-alpha-prusa3d-win64 on 2018-02-22 at 12:38:01

; 

; external perimeters extrusion width = 0.45mm
; perimeters extrusion width = 0.45mm
; infill extrusion width = 0.45mm
; solid infill extrusion width = 0.45mm
; top infill extrusion width = 0.40mm
; first layer extrusion width = 0.80mm

M107
M104 S200 ; set temperature
G28 ; home all axes
G1 Z5 F5000 ; lift nozzle
; Filament gcode
M109 S200 ; set temperature and wait for it to be reached
G21 ; set units to millimeters
G90 ; use absolute coordinates
M82 ; use absolute distances for extrusion
G92 E0
G1 Z0.400 F7800.000
G1 E-2.00000 F1800.00000
G92 E0
G1 X65.762 Y57.549 F7800.000
G1 E2.00000 F1800.00000
G1 F1800
G1 X66.698 Y56.595 E2.15864
G1 X67.809 Y55.843 E2.31803
G1 X69.047 Y55.326 E2.47742
G1 X70.358 Y55.067 E2.63606
G1 X92.006 Y55.036 E5.20718
G1 X93.172 Y55.139 E5.34614
G1 X94.308 Y55.445 E5.48585
G1 X95.367 Y55.941 E5.62480
G1 X96.329 Y56.618 E5.76452
G1 X97.155 Y57.448 E5.90347
G1 X97.826 Y58.413 E6.04319
G1 X98.317 Y59.475 E6.18214
G1 X98.617 Y60.613 E6.32185
G1 X98.714 Y61.721 E6.45399
G1 X98.704 Y81.621 E8.81741
G1 X98.566 Y82.654 E8.94121
G1 X98.269 Y83.654 E9.06501
G1 X97.822 Y84.595 E9.18881
G1 X97.238 Y85.451 E9.31186
G1 X96.218 Y86.474 E9.48335
G1 X95.010 Y87.252 E9.65408
G1 X93.657 Y87.757 E9.82557
G1 X92.227 Y87.960 E9.99707
G1 X70.610 Y87.953 E12.56447
G1 X69.583 Y87.813 E12.68751
G1 X68.590 Y87.517 E12.81056
G1 X67.655 Y87.072 E12.93360
G1 X66.799 Y86.488 E13.05664
G1 X65.780 Y85.473 E13.22738
G1 X65.001 Y84.265 E13.39812
G1 X64.497 Y82.919 E13.56885
G1 X64.290 Y81.490 E13.74034
G1 X64.298 Y61.341 E16.13340
G1 X64.440 Y60.321 E16.25568
G1 X64.735 Y59.334 E16.37797
G1 X65.178 Y58.405 E16.50025
G1 X65.729 Y57.599 E16.61617
G1 E14.61617 F1800.00000
G92 E0
G1 X90.900 Y80.150 F7800.000
G1 E2.00000 F1800.00000
G1 F1800
G1 X72.100 Y80.150 E4.23279
G1 X72.100 Y62.850 E6.28742
G1 X90.900 Y62.850 E8.52021
G1 X90.900 Y80.090 E10.56772
G1 X91.009 Y80.535 F7800.000
G1 X91.600 Y80.850 F7800.000
G1 F1800
G1 X71.400 Y80.850 E12.96678
G1 X71.400 Y62.150 E15.18768
G1 X91.600 Y62.150 E17.58674
G1 X91.600 Y80.790 E19.80052
G1 X91.212 Y80.751 F7800.000
G1 Z0.700 F7800.000
G1 X91.111 Y80.361 F7800.000
G1 F3600
G1 X71.889 Y80.361 E20.72500
G1 X71.889 Y62.639 E21.57733
G1 X91.111 Y62.639 E22.50181
G1 X91.111 Y80.301 E23.35125
G1 X90.725 Y79.975 F7800.000
G1 F1800
G1 X72.275 Y79.975 E24.23863
G1 X72.275 Y63.025 E25.05387
G1 X90.725 Y63.025 E25.94125
G1 X90.725 Y79.915 E26.75360
G1 X90.834 Y80.360 F7800.000
G1 X91.389 Y80.639 F7800.000
G1 F3600
G1 X71.611 Y80.639 E27.70490
G1 X71.611 Y62.361 E28.58404
G1 X91.389 Y62.361 E29.53533
G1 X91.389 Y80.579 E30.41159
G1 X91.775 Y81.025 F7800.000
G1 F1800
G1 X71.225 Y81.025 E31.39998
G1 X71.225 Y61.975 E32.31622
G1 X91.775 Y61.975 E33.30460
G1 X91.775 Y80.965 E34.21796
G1 X91.387 Y80.926 F7800.000
G1 Z1.000 F7800.000
G1 X91.111 Y80.361 F7800.000
G1 F3600
G1 X71.889 Y80.361 E35.14243
G1 X71.889 Y62.639 E35.99476
G1 X91.111 Y62.639 E36.91924
G1 X91.111 Y80.301 E37.76868
G1 X90.725 Y79.975 F7800.000
G1 F1800
G1 X72.275 Y79.975 E38.65607
G1 X72.275 Y63.025 E39.47130
G1 X90.725 Y63.025 E40.35869
G1 X90.725 Y79.915 E41.17104
G1 X90.834 Y80.360 F7800.000
G1 X91.389 Y80.639 F7800.000
G1 F3600
G1 X71.611 Y80.639 E42.12233
G1 X71.611 Y62.361 E43.00147
G1 X91.389 Y62.361 E43.95276
G1 X91.389 Y80.579 E44.82902
G1 X91.775 Y81.025 F7800.000
G1 F1800
G1 X71.225 Y81.025 E45.81741
G1 X71.225 Y61.975 E46.73365
G1 X91.775 Y61.975 E47.72203
G1 X91.775 Y80.965 E48.63539
G1 X91.387 Y80.926 F7800.000
M106 S247.35
G1 Z1.300 F7800.000
G1 X91.111 Y80.361 F7800.000
G1 F3600
G1 X71.889 Y80.361 E49.55986
G1 X71.889 Y62.639 E50.41220
G1 X91.111 Y62.639 E51.33667
G1 X91.111 Y80.301 E52.18612
G1 X90.725 Y79.975 F7800.000
G1 F1800
G1 X72.275 Y79.975 E53.07350
G1 X72.275 Y63.025 E53.88874
G1 X90.725 Y63.025 E54.77612
G1 X90.725 Y79.915 E55.58847
G1 X90.834 Y80.360 F7800.000
G1 X91.389 Y80.639 F7800.000
G1 F3600
G1 X71.611 Y80.639 E56.53976
G1 X71.611 Y62.361 E57.41891
G1 X91.389 Y62.361 E58.37020
G1 X91.389 Y80.579 E59.24646
G1 X91.775 Y81.025 F7800.000
G1 F1800
G1 X71.225 Y81.025 E60.23484
G1 X71.225 Y61.975 E61.15108
G1 X91.775 Y61.975 E62.13947
G1 X91.775 Y80.965 E63.05282
G1 X91.387 Y80.926 F7800.000
G1 Z1.600 F7800.000
G1 X91.111 Y80.361 F7800.000
G1 F3600
G1 X71.889 Y80.361 E63.97730
G1 X71.889 Y62.639 E64.82963
G1 X91.111 Y62.639 E65.75410
G1 X91.111 Y80.301 E66.60355
G1 X90.725 Y79.975 F7800.000
G1 F1800
G1 X72.275 Y79.975 E67.49093
G1 X72.275 Y63.025 E68.30617
G1 X90.725 Y63.025 E69.19355
G1 X90.725 Y79.915 E70.00590
G1 X90.834 Y80.360 F7800.000
G1 X91.389 Y80.639 F7800.000
G1 F3600
G1 X71.611 Y80.639 E70.95719
G1 X71.611 Y62.361 E71.83634
G1 X91.389 Y62.361 E72.78763
G1 X91.389 Y80.579 E73.66389
G1 X91.775 Y81.025 F7800.000
G1 F1800
G1 X71.225 Y81.025 E74.65227
G1 X71.225 Y61.975 E75.56851
G1 X91.775 Y61.975 E76.55690
G1 X91.775 Y80.965 E77.47025
G1 X91.387 Y80.926 F7800.000
G1 Z1.900 F7800.000
G1 X91.111 Y80.361 F7800.000
G1 F3600
G1 X71.889 Y80.361 E78.39473
G1 X71.889 Y62.639 E79.24706
G1 X91.111 Y62.639 E80.17154
G1 X91.111 Y80.301 E81.02098
G1 X90.725 Y79.975 F7800.000
G1 F1800
G1 X72.275 Y79.975 E81.90836
G1 X72.275 Y63.025 E82.72360
G1 X90.725 Y63.025 E83.61098
G1 X90.725 Y79.915 E84.42333
G1 X90.834 Y80.360 F7800.000
G1 X91.389 Y80.639 F7800.000
G1 F3600
G1 X71.611 Y80.639 E85.37462
G1 X71.611 Y62.361 E86.25377
G1 X91.389 Y62.361 E87.20506
G1 X91.389 Y80.579 E88.08132
G1 X91.775 Y81.025 F7800.000
G1 F1800
G1 X71.225 Y81.025 E89.06971
G1 X71.225 Y61.975 E89.98595
G1 X91.775 Y61.975 E90.97433
G1 X91.775 Y80.965 E91.88769
G1 X91.387 Y80.926 F7800.000
G1 Z2.200 F7800.000
G1 X91.111 Y80.361 F7800.000
G1 F3600
G1 X71.889 Y80.361 E92.81216
G1 X71.889 Y62.639 E93.66449
G1 X91.111 Y62.639 E94.58897
G1 X91.111 Y80.301 E95.43841
G1 X90.725 Y79.975 F7800.000
G1 F1800
G1 X72.275 Y79.975 E96.32580
G1 X72.275 Y63.025 E97.14103
G1 X90.725 Y63.025 E98.02841
G1 X90.725 Y79.915 E98.84077
G1 X90.834 Y80.360 F7800.000
G1 X91.389 Y80.639 F7800.000
G1 F3600
G1 X71.611 Y80.639 E99.79206
G1 X71.611 Y62.361 E100.67120
G1 X91.389 Y62.361 E101.62249
G1 X91.389 Y80.579 E102.49875
G1 X91.775 Y81.025 F7800.000
G1 F1800
G1 X71.225 Y81.025 E103.48714
G1 X71.225 Y61.975 E104.40338
G1 X91.775 Y61.975 E105.39176
G1 X91.775 Y80.965 E106.30512
G1 X91.387 Y80.926 F7800.000
G1 Z2.500 F7800.000
G1 X91.111 Y80.361 F7800.000
G1 F3600
G1 X71.889 Y80.361 E107.22959
G1 X71.889 Y62.639 E108.08192
G1 X91.111 Y62.639 E109.00640
G1 X91.111 Y80.301 E109.85585
G1 X90.725 Y79.975 F7800.000
G1 F1800
G1 X72.275 Y79.975 E110.74323
G1 X72.275 Y63.025 E111.55846
G1 X90.725 Y63.025 E112.44585
G1 X90.725 Y79.915 E113.25820
G1 X90.834 Y80.360 F7800.000
G1 X91.389 Y80.639 F7800.000
G1 F3600
G1 X71.611 Y80.639 E114.20949
G1 X71.611 Y62.361 E115.08864
G1 X91.389 Y62.361 E116.03993
G1 X91.389 Y80.579 E116.91619
G1 X91.775 Y81.025 F7800.000
G1 F1800
G1 X71.225 Y81.025 E117.90457
G1 X71.225 Y61.975 E118.82081
G1 X91.775 Y61.975 E119.80920
G1 X91.775 Y80.965 E120.72255
G1 X91.387 Y80.926 F7800.000
G1 Z2.800 F7800.000
G1 X91.111 Y80.361 F7800.000
G1 F3600
G1 X71.889 Y80.361 E121.64703
G1 X71.889 Y62.639 E122.49936
G1 X91.111 Y62.639 E123.42383
G1 X91.111 Y80.301 E124.27328
G1 X90.725 Y79.975 F7800.000
G1 F1800
G1 X72.275 Y79.975 E125.16066
G1 X72.275 Y63.025 E125.97590
G1 X90.725 Y63.025 E126.86328
G1 X90.725 Y79.915 E127.67563
G1 X90.834 Y80.360 F7800.000
G1 X91.389 Y80.639 F7800.000
G1 F3600
G1 X71.611 Y80.639 E128.62692
G1 X71.611 Y62.361 E129.50607
G1 X91.389 Y62.361 E130.45736
G1 X91.389 Y80.579 E131.33362
G1 X91.775 Y81.025 F7800.000
G1 F1800
G1 X71.225 Y81.025 E132.32200
G1 X71.225 Y61.975 E133.23824
G1 X91.775 Y61.975 E134.22663
G1 X91.775 Y80.965 E135.13998
G1 X91.387 Y80.926 F7800.000
G1 Z3.100 F7800.000
G1 X91.111 Y80.361 F7800.000
G1 F3600
G1 X71.889 Y80.361 E136.06446
G1 X71.889 Y62.639 E136.91679
G1 X91.111 Y62.639 E137.84127
G1 X91.111 Y80.301 E138.69071
G1 X90.725 Y79.975 F7800.000
G1 F1800
G1 X72.275 Y79.975 E139.57809
G1 X72.275 Y63.025 E140.39333
G1 X90.725 Y63.025 E141.28071
G1 X90.725 Y79.915 E142.09306
G1 X90.834 Y80.360 F7800.000
G1 X91.389 Y80.639 F7800.000
G1 F3600
G1 X71.611 Y80.639 E143.04435
G1 X71.611 Y62.361 E143.92350
G1 X91.389 Y62.361 E144.87479
G1 X91.389 Y80.579 E145.75105
G1 X91.775 Y81.025 F7800.000
G1 F1800
G1 X71.225 Y81.025 E146.73944
G1 X71.225 Y61.975 E147.65568
G1 X91.775 Y61.975 E148.64406
G1 X91.775 Y80.965 E149.55741
G1 X91.387 Y80.926 F7800.000
G1 Z3.400 F7800.000
G1 X91.111 Y80.361 F7800.000
G1 F3600
G1 X71.889 Y80.361 E150.48189
G1 X71.889 Y62.639 E151.33422
G1 X91.111 Y62.639 E152.25870
G1 X91.111 Y80.301 E153.10814
G1 X90.725 Y79.975 F7800.000
G1 F1800
G1 X72.275 Y79.975 E153.99552
G1 X72.275 Y63.025 E154.81076
G1 X90.725 Y63.025 E155.69814
G1 X90.725 Y79.915 E156.51049
G1 X90.834 Y80.360 F7800.000
G1 X91.389 Y80.639 F7800.000
G1 F3600
G1 X71.611 Y80.639 E157.46179
G1 X71.611 Y62.361 E158.34093
G1 X91.389 Y62.361 E159.29222
G1 X91.389 Y80.579 E160.16848
G1 X91.775 Y81.025 F7800.000
G1 F1800
G1 X71.225 Y81.025 E161.15687
G1 X71.225 Y61.975 E162.07311
G1 X91.775 Y61.975 E163.06149
G1 X91.775 Y80.965 E163.97485
G1 X91.387 Y80.926 F7800.000
G1 Z3.700 F7800.000
G1 X91.111 Y80.361 F7800.000
G1 F3600
G1 X71.889 Y80.361 E164.89932
G1 X71.889 Y62.639 E165.75165
G1 X91.111 Y62.639 E166.67613
G1 X91.111 Y80.301 E167.52557
G1 X90.725 Y79.975 F7800.000
G1 F1800
G1 X72.275 Y79.975 E168.41296
G1 X72.275 Y63.025 E169.22819
G1 X90.725 Y63.025 E170.11558
G1 X90.725 Y79.915 E170.92793
G1 X90.834 Y80.360 F7800.000
G1 X91.389 Y80.639 F7800.000
G1 F3600
G1 X71.611 Y80.639 E171.87922
G1 X71.611 Y62.361 E172.75836
G1 X91.389 Y62.361 E173.70966
G1 X91.389 Y80.579 E174.58592
G1 X91.775 Y81.025 F7800.000
G1 F1800
G1 X71.225 Y81.025 E175.57430
G1 X71.225 Y61.975 E176.49054
G1 X91.775 Y61.975 E177.47892
G1 X91.775 Y80.965 E178.39228
G1 X91.387 Y80.926 F7800.000
G1 Z4.000 F7800.000
G1 X91.111 Y80.361 F7800.000
G1 F3600
G1 X71.889 Y80.361 E179.31675
G1 X71.889 Y62.639 E180.16909
G1 X91.111 Y62.639 E181.09356
G1 X91.111 Y80.301 E181.94301
G1 X90.725 Y79.975 F7800.000
G1 F1800
G1 X72.275 Y79.975 E182.83039
G1 X72.275 Y63.025 E183.64563
G1 X90.725 Y63.025 E184.53301
G1 X90.725 Y79.915 E185.34536
G1 X90.834 Y80.360 F7800.000
G1 X91.389 Y80.639 F7800.000
G1 F3600
G1 X71.611 Y80.639 E186.29665
G1 X71.611 Y62.361 E187.17580
G1 X91.389 Y62.361 E188.12709
G1 X91.389 Y80.579 E189.00335
G1 X91.775 Y81.025 F7800.000
G1 F1800
G1 X71.225 Y81.025 E189.99173
G1 X71.225 Y61.975 E190.90797
G1 X91.775 Y61.975 E191.89636
G1 X91.775 Y80.965 E192.80971
G1 X91.387 Y80.926 F7800.000
G1 Z4.300 F7800.000
G1 X91.111 Y80.361 F7800.000
G1 F3600
G1 X71.889 Y80.361 E193.73419
G1 X71.889 Y62.639 E194.58652
G1 X91.111 Y62.639 E195.51099
G1 X91.111 Y80.301 E196.36044
G1 X90.725 Y79.975 F7800.000
G1 F1800
G1 X72.275 Y79.975 E197.24782
G1 X72.275 Y63.025 E198.06306
G1 X90.725 Y63.025 E198.95044
G1 X90.725 Y79.915 E199.76279
G1 X90.834 Y80.360 F7800.000
G1 X91.389 Y80.639 F7800.000
G1 F3600
G1 X71.611 Y80.639 E200.71408
G1 X71.611 Y62.361 E201.59323
G1 X91.389 Y62.361 E202.54452
G1 X91.389 Y80.579 E203.42078
G1 X91.775 Y81.025 F7800.000
G1 F1800
G1 X71.225 Y81.025 E204.40916
G1 X71.225 Y61.975 E205.32540
G1 X91.775 Y61.975 E206.31379
G1 X91.775 Y80.965 E207.22714
G1 X91.387 Y80.926 F7800.000
G1 Z4.600 F7800.000
G1 X91.111 Y80.361 F7800.000
G1 F3600
G1 X71.889 Y80.361 E208.15162
G1 X71.889 Y62.639 E209.00395
G1 X91.111 Y62.639 E209.92843
G1 X91.111 Y80.301 E210.77787
G1 X90.725 Y79.975 F7800.000
G1 F1800
G1 X72.275 Y79.975 E211.66525
G1 X72.275 Y63.025 E212.48049
G1 X90.725 Y63.025 E213.36787
G1 X90.725 Y79.915 E214.18022
G1 X90.834 Y80.360 F7800.000
G1 X91.389 Y80.639 F7800.000
G1 F3600
G1 X71.611 Y80.639 E215.13152
G1 X71.611 Y62.361 E216.01066
G1 X91.389 Y62.361 E216.96195
G1 X91.389 Y80.579 E217.83821
G1 X91.775 Y81.025 F7800.000
G1 F1800
G1 X71.225 Y81.025 E218.82660
G1 X71.225 Y61.975 E219.74284
G1 X91.775 Y61.975 E220.73122
G1 X91.775 Y80.965 E221.64458
G1 X91.387 Y80.926 F7800.000
G1 Z4.900 F7800.000
G1 X91.111 Y80.361 F7800.000
G1 F3600
G1 X71.889 Y80.361 E222.56905
G1 X71.889 Y62.639 E223.42138
G1 X91.111 Y62.639 E224.34586
G1 X91.111 Y80.301 E225.19530
G1 X90.725 Y79.975 F7800.000
G1 F1800
G1 X72.275 Y79.975 E226.08269
G1 X72.275 Y63.025 E226.89792
G1 X90.725 Y63.025 E227.78531
G1 X90.725 Y79.915 E228.59766
G1 X90.834 Y80.360 F7800.000
G1 X91.389 Y80.639 F7800.000
G1 F3600
G1 X71.611 Y80.639 E229.54895
G1 X71.611 Y62.361 E230.42809
G1 X91.389 Y62.361 E231.37938
G1 X91.389 Y80.579 E232.25564
G1 X91.775 Y81.025 F7800.000
G1 F1800
G1 X71.225 Y81.025 E233.24403
G1 X71.225 Y61.975 E234.16027
G1 X91.775 Y61.975 E235.14865
G1 X91.775 Y80.965 E236.06201
G1 X91.387 Y80.926 F7800.000
G1 Z5.200 F7800.000
G1 X91.111 Y80.361 F7800.000
G1 F3600
G1 X71.889 Y80.361 E236.98648
G1 X71.889 Y62.639 E237.83882
G1 X91.111 Y62.639 E238.76329
G1 X91.111 Y80.301 E239.61274
G1 X90.725 Y79.975 F7800.000
G1 F1800
G1 X72.275 Y79.975 E240.50012
G1 X72.275 Y63.025 E241.31536
G1 X90.725 Y63.025 E242.20274
G1 X90.725 Y79.915 E243.01509
G1 X90.834 Y80.360 F7800.000
G1 X91.389 Y80.639 F7800.000
G1 F3600
G1 X71.611 Y80.639 E243.96638
G1 X71.611 Y62.361 E244.84553
G1 X91.389 Y62.361 E245.79682
G1 X91.389 Y80.579 E246.67308
G1 X91.775 Y81.025 F7800.000
G1 F1800
G1 X71.225 Y81.025 E247.66146
G1 X71.225 Y61.975 E248.57770
G1 X91.775 Y61.975 E249.56609
G1 X91.775 Y80.965 E250.47944
G1 X91.387 Y80.926 F7800.000
G1 Z5.500 F7800.000
G1 X91.111 Y80.361 F7800.000
G1 F3600
G1 X71.889 Y80.361 E251.40392
G1 X71.889 Y62.639 E252.25625
G1 X91.111 Y62.639 E253.18072
G1 X91.111 Y80.301 E254.03017
G1 X90.725 Y79.975 F7800.000
G1 F1800
G1 X72.275 Y79.975 E254.91755
G1 X72.275 Y63.025 E255.73279
G1 X90.725 Y63.025 E256.62017
G1 X90.725 Y79.915 E257.43252
G1 X90.834 Y80.360 F7800.000
G1 X91.389 Y80.639 F7800.000
G1 F3600
G1 X71.611 Y80.639 E258.38381
G1 X71.611 Y62.361 E259.26296
G1 X91.389 Y62.361 E260.21425
G1 X91.389 Y80.579 E261.09051
G1 X91.775 Y81.025 F7800.000
G1 F1800
G1 X71.225 Y81.025 E262.07889
G1 X71.225 Y61.975 E262.99513
G1 X91.775 Y61.975 E263.98352
G1 X91.775 Y80.965 E264.89687
G1 X91.387 Y80.926 F7800.000
G1 Z5.800 F7800.000
G1 X91.111 Y80.361 F7800.000
G1 F3600
G1 X71.889 Y80.361 E265.82135
G1 X71.889 Y62.639 E266.67368
G1 X91.111 Y62.639 E267.59816
G1 X91.111 Y80.301 E268.44760
G1 X90.725 Y79.975 F7800.000
G1 F1800
G1 X72.275 Y79.975 E269.33498
G1 X72.275 Y63.025 E270.15022
G1 X90.725 Y63.025 E271.03760
G1 X90.725 Y79.915 E271.84995
G1 X90.834 Y80.360 F7800.000
G1 X91.389 Y80.639 F7800.000
G1 F3600
G1 X71.611 Y80.639 E272.80124
G1 X71.611 Y62.361 E273.68039
G1 X91.389 Y62.361 E274.63168
G1 X91.389 Y80.579 E275.50794
G1 X91.775 Y81.025 F7800.000
G1 F1800
G1 X71.225 Y81.025 E276.49633
G1 X71.225 Y61.975 E277.41257
G1 X91.775 Y61.975 E278.40095
G1 X91.775 Y80.965 E279.31431
G1 X91.387 Y80.926 F7800.000
G1 Z6.100 F7800.000
G1 X91.111 Y80.361 F7800.000
G1 F3600
G1 X71.889 Y80.361 E280.23878
G1 X71.889 Y62.639 E281.09111
G1 X91.111 Y62.639 E282.01559
G1 X91.111 Y80.301 E282.86503
G1 X90.725 Y79.975 F7800.000
G1 F1800
G1 X72.275 Y79.975 E283.75242
G1 X72.275 Y63.025 E284.56765
G1 X90.725 Y63.025 E285.45503
G1 X90.725 Y79.915 E286.26739
G1 X90.834 Y80.360 F7800.000
G1 X91.389 Y80.639 F7800.000
G1 F3600
G1 X71.611 Y80.639 E287.21868
G1 X71.611 Y62.361 E288.09782
G1 X91.389 Y62.361 E289.04911
G1 X91.389 Y80.579 E289.92537
G1 X91.775 Y81.025 F7800.000
G1 F1800
G1 X71.225 Y81.025 E290.91376
G1 X71.225 Y61.975 E291.83000
G1 X91.775 Y61.975 E292.81838
G1 X91.775 Y80.965 E293.73174
G1 X91.387 Y80.926 F7800.000
G1 Z6.400 F7800.000
G1 X91.111 Y80.361 F7800.000
G1 F3600
G1 X71.889 Y80.361 E294.65621
G1 X71.889 Y62.639 E295.50854
G1 X91.111 Y62.639 E296.43302
G1 X91.111 Y80.301 E297.28247
G1 X90.725 Y79.975 F7800.000
G1 F1800
G1 X72.275 Y79.975 E298.16985
G1 X72.275 Y63.025 E298.98508
G1 X90.725 Y63.025 E299.87247
G1 X90.725 Y79.915 E300.68482
G1 X90.834 Y80.360 F7800.000
G1 X91.389 Y80.639 F7800.000
G1 F3600
