; generated by Slic3r Prusa Edition 1.39.1-alpha-prusa3d-win64 on 2018-03-31 at 10:53:57

; 

; external perimeters extrusion width = 0.45mm
; perimeters extrusion width = 0.45mm
; infill extrusion width = 0.45mm
; solid infill extrusion width = 0.45mm
; top infill extrusion width = 0.40mm
; first layer extrusion width = 0.80mm

M107
M104 S200 ; set temperature
G28 ; home all axes
G1 Z5 F5000 ; lift nozzle
; Filament gcode
M109 S200 ; set temperature and wait for it to be reached
G21 ; set units to millimeters
G90 ; use absolute coordinates
M82 ; use absolute distances for extrusion
G92 E0
G1 Z0.400 F7800.000
G1 E-2.00000 F1800.00000
G92 E0
G1 X38.651 Y48.070 F7800.000
G1 E2.00000 F1800.00000
G1 F1800
G1 X41.407 Y46.052 E2.40565
G1 X44.840 Y44.065 E2.87685
G1 X47.744 Y42.753 E3.25521
G1 X50.875 Y41.684 E3.64817
G1 X54.473 Y40.854 E4.08668
G1 X57.398 Y40.461 E4.43726
G1 X60.505 Y40.321 E4.80664
G1 X63.634 Y40.463 E5.17861
G1 X66.875 Y40.913 E5.56715
G1 X119.885 Y51.930 E11.99751
G1 X120.717 Y52.162 E12.10007
G1 X121.512 Y52.499 E12.20264
G1 X122.257 Y52.936 E12.30521
G1 X122.941 Y53.464 E12.40778
G1 X123.888 Y54.494 E12.57397
G1 X124.599 Y55.692 E12.73942
G1 X125.048 Y57.017 E12.90562
G1 X125.214 Y58.407 E13.07182
G1 X125.207 Y91.801 E17.03786
G1 X125.062 Y92.923 E17.17227
G1 X124.727 Y94.011 E17.30744
G1 X124.213 Y95.027 E17.44261
G1 X123.536 Y95.941 E17.57778
G1 X122.783 Y96.671 E17.70234
G1 X121.925 Y97.275 E17.82690
G1 X120.984 Y97.738 E17.95145
G1 X119.982 Y98.048 E18.07601
G1 X66.930 Y109.076 E24.51152
G1 X63.468 Y109.550 E24.92650
G1 X60.482 Y109.678 E25.28144
G1 X57.328 Y109.533 E25.65644
G1 X54.157 Y109.093 E26.03664
G1 X50.806 Y108.294 E26.44577
G1 X47.708 Y107.233 E26.83467
G1 X44.513 Y105.773 E27.25185
G1 X41.488 Y104.003 E27.66814
G1 X38.432 Y101.745 E28.11942
G1 X35.980 Y99.523 E28.51246
G1 X33.790 Y97.107 E28.89963
G1 X31.471 Y93.971 E29.36293
G1 X29.709 Y90.953 E29.77801
G1 X28.385 Y88.069 E30.15484
G1 X27.119 Y84.391 E30.61684
G1 X26.401 Y81.312 E30.99235
G1 X25.966 Y78.159 E31.37029
G1 X25.822 Y75.027 E31.74271
G1 X25.942 Y72.166 E32.08276
G1 X26.459 Y68.406 E32.53349
G1 X27.163 Y65.447 E32.89476
G1 X28.181 Y62.436 E33.27227
G1 X29.854 Y58.784 E33.74935
G1 X31.487 Y56.004 E34.13220
G1 X33.565 Y53.157 E34.55087
G1 X36.219 Y50.250 E35.01828
G1 X38.606 Y48.110 E35.39908
G1 E33.39908 F1800.00000
G92 E0
G1 X71.934 Y95.097 F7800.000
G1 E2.00000 F1800.00000
G1 F1800
G1 X72.006 Y95.445 E2.04227
G1 X71.778 Y96.641 E2.18683
G1 X71.094 Y97.648 E2.33139
G1 X70.140 Y98.274 E2.46687
G1 X69.023 Y98.505 E2.60235
G1 X67.828 Y98.277 E2.74691
G1 X66.821 Y97.593 E2.89147
G1 X66.637 Y97.312 E2.93134
G1 X64.689 Y97.770 E3.16897
G1 X63.383 Y97.890 E3.32474
G1 X63.306 Y98.292 E3.37336
G1 X62.638 Y99.309 E3.51792
G1 X61.621 Y99.978 E3.66247
G1 X60.500 Y100.191 E3.79795
G1 X59.379 Y99.978 E3.93344
G1 X58.362 Y99.309 E4.07799
G1 X57.694 Y98.292 E4.22256
G1 X57.617 Y97.890 E4.27117
G1 X56.311 Y97.770 E4.42694
G1 X54.363 Y97.312 E4.66457
G1 X54.179 Y97.593 E4.70445
G1 X53.172 Y98.277 E4.84901
G1 X51.977 Y98.505 E4.99356
G1 X50.860 Y98.274 E5.12905
G1 X49.906 Y97.648 E5.26452
G1 X49.222 Y96.641 E5.40908
G1 X48.994 Y95.445 E5.55364
G1 X49.066 Y95.097 E5.59591
G1 X47.831 Y94.378 E5.76561
G1 X46.300 Y93.260 E5.99077
G1 X46.014 Y93.454 E6.03182
G1 X44.822 Y93.701 E6.17638
G1 X43.630 Y93.454 E6.32094
G1 X42.687 Y92.813 E6.45642
G1 X42.046 Y91.870 E6.59190
G1 X41.799 Y90.678 E6.73646
G1 X42.046 Y89.486 E6.88102
G1 X42.240 Y89.200 E6.92208
G1 X41.122 Y87.669 E7.14723
G1 X40.403 Y86.434 E7.31693
G1 X40.055 Y86.506 E7.35920
G1 X38.859 Y86.278 E7.50376
G1 X37.852 Y85.594 E7.64832
G1 X37.226 Y84.640 E7.78380
G1 X36.995 Y83.523 E7.91928
G1 X37.223 Y82.328 E8.06384
G1 X37.907 Y81.321 E8.20840
G1 X38.188 Y81.137 E8.24827
G1 X37.730 Y79.189 E8.48590
G1 X37.610 Y77.883 E8.64167
G1 X37.208 Y77.806 E8.69029
G1 X36.191 Y77.138 E8.83485
G1 X35.522 Y76.121 E8.97941
G1 X35.309 Y75.000 E9.11489
G1 X35.522 Y73.879 E9.25037
G1 X36.191 Y72.862 E9.39493
G1 X37.208 Y72.194 E9.53948
G1 X37.610 Y72.117 E9.58810
G1 X37.730 Y70.811 E9.74387
G1 X38.188 Y68.863 E9.98150
G1 X37.907 Y68.679 E10.02138
G1 X37.223 Y67.672 E10.16593
G1 X36.995 Y66.477 E10.31049
G1 X37.226 Y65.360 E10.44597
G1 X37.852 Y64.406 E10.58145
G1 X38.859 Y63.722 E10.72601
G1 X40.055 Y63.494 E10.87057
G1 X40.403 Y63.566 E10.91284
G1 X41.122 Y62.331 E11.08254
G1 X42.240 Y60.800 E11.30770
G1 X42.046 Y60.514 E11.34875
G1 X41.799 Y59.322 E11.49331
G1 X42.046 Y58.130 E11.63787
G1 X42.687 Y57.187 E11.77335
G1 X43.630 Y56.546 E11.90883
G1 X44.822 Y56.299 E12.05339
G1 X46.014 Y56.546 E12.19795
G1 X46.300 Y56.740 E12.23901
G1 X47.831 Y55.622 E12.46416
G1 X49.066 Y54.903 E12.63386
G1 X48.994 Y54.555 E12.67613
G1 X49.222 Y53.359 E12.82069
G1 X49.906 Y52.352 E12.96525
G1 X50.860 Y51.726 E13.10073
G1 X51.977 Y51.495 E13.23621
G1 X53.172 Y51.723 E13.38077
G1 X54.179 Y52.407 E13.52533
G1 X54.363 Y52.688 E13.56520
G1 X56.311 Y52.230 E13.80283
G1 X57.617 Y52.110 E13.95860
G1 X57.694 Y51.708 E14.00722
G1 X58.362 Y50.691 E14.15178
G1 X59.379 Y50.022 E14.29634
G1 X60.500 Y49.809 E14.43182
G1 X61.621 Y50.022 E14.56730
G1 X62.638 Y50.691 E14.71185
G1 X63.306 Y51.708 E14.85641
G1 X63.383 Y52.110 E14.90503
G1 X64.689 Y52.230 E15.06080
G1 X66.637 Y52.688 E15.29843
G1 X66.821 Y52.407 E15.33830
G1 X67.828 Y51.723 E15.48286
G1 X69.023 Y51.495 E15.62742
G1 X70.140 Y51.726 E15.76290
G1 X71.094 Y52.352 E15.89838
G1 X71.778 Y53.359 E16.04294
G1 X72.006 Y54.555 E16.18750
G1 X71.934 Y54.903 E16.22977
G1 X73.169 Y55.622 E16.39947
G1 X74.702 Y56.742 E16.62497
G1 X74.972 Y56.549 E16.66433
G1 X76.178 Y56.299 E16.81061
G1 X77.370 Y56.546 E16.95517
G1 X78.313 Y57.187 E17.09065
G1 X78.954 Y58.130 E17.22613
G1 X79.201 Y59.322 E17.37069
G1 X78.954 Y60.514 E17.51525
G1 X78.760 Y60.800 E17.55631
G1 X79.878 Y62.331 E17.78146
G1 X80.455 Y63.323 E17.91769
G1 X80.545 Y63.264 E17.93043
G1 X80.807 Y63.521 E17.97401
G1 X80.936 Y63.492 E17.98977
G1 X82.141 Y63.722 E18.13540
G1 X83.148 Y64.406 E18.27996
G1 X83.774 Y65.360 E18.41544
G1 X84.005 Y66.477 E18.55092
G1 X83.777 Y67.672 E18.69548
G1 X83.093 Y68.679 E18.84004
G1 X82.812 Y68.863 E18.87991
G1 X83.270 Y70.811 E19.11754
G1 X83.390 Y72.117 E19.27331
G1 X83.792 Y72.194 E19.32193
G1 X84.809 Y72.862 E19.46649
G1 X85.478 Y73.879 E19.61105
G1 X85.691 Y75.000 E19.74653
G1 X85.478 Y76.121 E19.88201
G1 X84.809 Y77.138 E20.02657
G1 X83.792 Y77.806 E20.17113
G1 X83.390 Y77.883 E20.21974
G1 X83.270 Y79.189 E20.37551
G1 X82.812 Y81.137 E20.61314
G1 X83.093 Y81.321 E20.65302
G1 X83.777 Y82.328 E20.79758
G1 X84.005 Y83.523 E20.94214
G1 X83.774 Y84.640 E21.07762
G1 X83.148 Y85.594 E21.21310
G1 X82.141 Y86.278 E21.35765
G1 X80.945 Y86.506 E21.50221
G1 X80.597 Y86.434 E21.54448
G1 X79.878 Y87.669 E21.71418
G1 X78.760 Y89.200 E21.93934
G1 X78.954 Y89.486 E21.98039
G1 X79.201 Y90.678 E22.12495
G1 X78.954 Y91.870 E22.26951
G1 X78.313 Y92.813 E22.40499
G1 X77.370 Y93.454 E22.54047
G1 X76.178 Y93.701 E22.68503
G1 X74.986 Y93.454 E22.82959
G1 X74.700 Y93.260 E22.87065
G1 X73.169 Y94.378 E23.09580
G1 X71.986 Y95.067 E23.25838
G1 X71.130 Y94.738 F7800.000
G1 F1800
G1 X71.278 Y95.451 E23.34481
G1 X71.104 Y96.362 E23.45493
G1 X70.583 Y97.129 E23.56505
G1 X69.862 Y97.602 E23.66748
G1 X69.018 Y97.777 E23.76992
G1 X68.107 Y97.603 E23.88004
G1 X67.340 Y97.082 E23.99016
G1 X66.936 Y96.467 E24.07753
G1 X66.347 Y96.647 E24.15069
G1 X64.574 Y97.064 E24.36697
G1 X62.782 Y97.228 E24.58068
G1 X62.631 Y98.019 E24.67629
G1 X62.122 Y98.794 E24.78642
G1 X61.347 Y99.303 E24.89654
G1 X60.500 Y99.464 E24.99897
G1 X59.653 Y99.303 E25.10140
G1 X58.878 Y98.794 E25.21152
G1 X58.369 Y98.019 E25.32165
G1 X58.218 Y97.228 E25.41726
G1 X56.426 Y97.064 E25.63098
G1 X54.653 Y96.647 E25.84726
G1 X54.064 Y96.467 E25.92041
G1 X53.660 Y97.082 E26.00778
G1 X52.893 Y97.603 E26.11791
G1 X51.982 Y97.777 E26.22803
G1 X51.138 Y97.602 E26.33046
G1 X50.417 Y97.129 E26.43289
G1 X49.896 Y96.362 E26.54301
G1 X49.722 Y95.451 E26.65313
G1 X49.870 Y94.738 E26.73957
G1 X48.223 Y93.779 E26.96593
G1 X46.315 Y92.386 E27.24646
G1 X45.730 Y92.784 E27.33039
G1 X44.822 Y92.972 E27.44052
G1 X43.914 Y92.784 E27.55064
G1 X43.201 Y92.299 E27.65307
G1 X42.716 Y91.586 E27.75550
G1 X42.528 Y90.678 E27.86562
G1 X42.716 Y89.770 E27.97574
G1 X43.114 Y89.185 E28.05968
G1 X41.721 Y87.277 E28.34021
G1 X40.762 Y85.630 E28.56657
G1 X40.049 Y85.778 E28.65301
G1 X39.138 Y85.604 E28.76313
G1 X38.371 Y85.083 E28.87325
G1 X37.898 Y84.362 E28.97568
G1 X37.723 Y83.518 E29.07811
G1 X37.897 Y82.607 E29.18823
G1 X38.418 Y81.840 E29.29836
G1 X39.033 Y81.436 E29.38572
G1 X38.853 Y80.847 E29.45888
G1 X38.436 Y79.074 E29.67516
G1 X38.272 Y77.282 E29.88888
G1 X37.481 Y77.131 E29.98449
G1 X36.706 Y76.622 E30.09461
G1 X36.197 Y75.847 E30.20473
G1 X36.036 Y75.000 E30.30716
G1 X36.197 Y74.153 E30.40959
G1 X36.706 Y73.378 E30.51972
G1 X37.481 Y72.869 E30.62984
G1 X38.272 Y72.718 E30.72545
G1 X38.436 Y70.926 E30.93917
G1 X38.853 Y69.153 E31.15545
G1 X39.033 Y68.564 E31.22861
G1 X38.418 Y68.160 E31.31597
G1 X37.897 Y67.393 E31.42610
G1 X37.723 Y66.482 E31.53622
G1 X37.898 Y65.638 E31.63865
G1 X38.371 Y64.917 E31.74108
G1 X39.138 Y64.396 E31.85120
G1 X40.049 Y64.222 E31.96132
G1 X40.762 Y64.370 E32.04776
G1 X41.721 Y62.723 E32.27412
G1 X43.114 Y60.815 E32.55465
G1 X42.716 Y60.230 E32.63859
G1 X42.528 Y59.322 E32.74871
G1 X42.716 Y58.414 E32.85883
G1 X43.201 Y57.701 E32.96126
G1 X43.914 Y57.216 E33.06369
G1 X44.822 Y57.028 E33.17381
G1 X45.730 Y57.216 E33.28393
G1 X46.315 Y57.614 E33.36787
G1 X48.223 Y56.221 E33.64840
G1 X49.870 Y55.262 E33.87476
G1 X49.722 Y54.549 E33.96120
G1 X49.896 Y53.638 E34.07132
G1 X50.417 Y52.871 E34.18144
G1 X51.138 Y52.398 E34.28387
G1 X51.982 Y52.223 E34.38630
G1 X52.893 Y52.397 E34.49642
G1 X53.660 Y52.918 E34.60655
G1 X54.064 Y53.533 E34.69391
G1 X54.653 Y53.353 E34.76707
G1 X56.426 Y52.936 E34.98335
G1 X58.218 Y52.772 E35.19707
G1 X58.369 Y51.981 E35.29268
G1 X58.878 Y51.206 E35.40280
G1 X59.653 Y50.697 E35.51293
G1 X60.500 Y50.536 E35.61536
G1 X61.347 Y50.697 E35.71779
G1 X62.122 Y51.206 E35.82791
G1 X62.631 Y51.981 E35.93803
G1 X62.782 Y52.772 E36.03364
G1 X64.574 Y52.936 E36.24736
G1 X66.347 Y53.353 E36.46364
G1 X66.936 Y53.533 E36.53680
G1 X67.340 Y52.918 E36.62417
G1 X68.107 Y52.397 E36.73429
G1 X69.018 Y52.223 E36.84441
G1 X69.862 Y52.398 E36.94684
G1 X70.583 Y52.871 E37.04927
G1 X71.104 Y53.638 E37.15939
G1 X71.278 Y54.549 E37.26951
G1 X71.130 Y55.262 E37.35595
G1 X72.777 Y56.221 E37.58231
G1 X74.698 Y57.623 E37.86479
G1 X75.265 Y57.217 E37.94752
G1 X76.178 Y57.028 E38.05826
G1 X77.086 Y57.216 E38.16839
G1 X77.799 Y57.701 E38.27082
G1 X78.284 Y58.414 E38.37325
G1 X78.472 Y59.322 E38.48337
G1 X78.284 Y60.230 E38.59349
G1 X77.886 Y60.815 E38.67742
G1 X79.279 Y62.723 E38.95795
G1 X80.215 Y64.329 E39.17874
G1 X80.453 Y64.175 E39.21249
G1 X80.584 Y64.303 E39.23422
G1 X80.948 Y64.221 E39.27852
G1 X81.862 Y64.396 E39.38902
G1 X82.629 Y64.917 E39.49915
G1 X83.102 Y65.638 E39.60158
G1 X83.277 Y66.482 E39.70401
G1 X83.103 Y67.393 E39.81413
G1 X82.582 Y68.160 E39.92425
G1 X81.967 Y68.564 E40.01162
G1 X82.147 Y69.153 E40.08478
G1 X82.564 Y70.926 E40.30106
G1 X82.728 Y72.718 E40.51477
G1 X83.519 Y72.869 E40.61039
G1 X84.294 Y73.378 E40.72051
G1 X84.803 Y74.153 E40.83063
G1 X84.964 Y75.000 E40.93306
G1 X84.803 Y75.847 E41.03549
G1 X84.294 Y76.622 E41.14561
G1 X83.519 Y77.131 E41.25573
G1 X82.728 Y77.282 E41.35135
G1 X82.564 Y79.074 E41.56506
G1 X82.147 Y80.847 E41.78134
G1 X81.967 Y81.436 E41.85450
G1 X82.582 Y81.840 E41.94187
G1 X83.103 Y82.607 E42.05199
G1 X83.277 Y83.518 E42.16211
G1 X83.102 Y84.362 E42.26454
G1 X82.629 Y85.083 E42.36697
G1 X81.862 Y85.604 E42.47710
G1 X80.951 Y85.778 E42.58722
G1 X80.238 Y85.630 E42.67365
G1 X79.279 Y87.277 E42.90002
G1 X77.886 Y89.185 E43.18055
G1 X78.284 Y89.770 E43.26448
G1 X78.472 Y90.678 E43.37460
G1 X78.284 Y91.586 E43.48473
G1 X77.799 Y92.299 E43.58716
G1 X77.086 Y92.784 E43.68959
G1 X76.178 Y92.972 E43.79971
G1 X75.270 Y92.784 E43.90983
G1 X74.685 Y92.386 E43.99376
G1 X72.777 Y93.779 E44.27429
G1 X71.182 Y94.708 E44.49353
G1 X71.432 Y95.001 F7800.000
G1 E42.49353 F1800.00000
G92 E0
G1 X57.010 Y51.449 F7800.000
G1 E2.00000 F1800.00000
G1 F1800
G1 X56.196 Y51.523 E2.09703
G1 X54.675 Y51.881 E2.28260
G1 X53.451 Y51.049 E2.45832
G1 X51.783 Y50.731 E2.65999
G1 X51.760 Y50.402 E2.69919
G1 X53.310 Y49.875 E2.89358
G1 X55.746 Y49.302 E3.19074
G1 X58.153 Y48.971 E3.47933
G1 X59.175 Y48.925 E3.60078
G1 X59.275 Y49.236 E3.63958
G1 X57.846 Y50.175 E3.84262
G1 X57.043 Y51.398 E4.01648
G1 E2.01648 F1800.00000
G92 E0
G1 X61.725 Y49.236 F7800.000
G1 E2.00000 F1800.00000
G1 F1800
G1 X61.825 Y48.925 E2.03880
G1 X62.847 Y48.971 E2.16025
G1 X65.254 Y49.302 E2.44884
G1 X67.690 Y49.875 E2.74600
G1 X69.240 Y50.402 E2.94039
G1 X69.217 Y50.731 E2.97959
G1 X67.549 Y51.049 E3.18125
G1 X66.325 Y51.881 E3.35698
G1 X64.804 Y51.523 E3.54255
G1 X63.990 Y51.449 E3.63958
G1 X63.154 Y50.175 E3.82057
G1 X61.775 Y49.269 E4.01648
G1 E2.01648 F1800.00000
G92 E0
G1 X71.494 Y51.670 F7800.000
G1 E2.00000 F1800.00000
G1 F1800
G1 X71.703 Y51.422 E2.03858
G1 X72.502 Y51.786 E2.14291
G1 X74.800 Y53.126 E2.45884
G1 X76.972 Y54.711 E2.77814
G1 X77.980 Y55.620 E2.93933
G1 X77.832 Y55.912 E2.97826
G1 X76.178 Y55.570 E3.17887
G1 X74.721 Y55.871 E3.35555
G1 X73.560 Y55.024 E3.52627
G1 X72.730 Y54.541 E3.64027
G1 X72.452 Y53.080 E3.81688
G1 X71.527 Y51.720 E4.01223
G1 E2.01223 F1800.00000
G92 E0
G1 X79.588 Y57.668 F7800.000
G1 E2.00000 F1800.00000
G1 F1800
G1 X79.880 Y57.520 E2.03893
G1 X80.789 Y58.528 E2.20012
G1 X82.103 Y60.328 E2.46479
G1 X116.672 Y60.328 E6.57037
G1 X116.672 Y89.672 E10.05533
G1 X82.103 Y89.672 E14.16091
G1 X80.789 Y91.472 E14.42558
G1 X79.880 Y92.480 E14.58677
G1 X79.588 Y92.332 E14.62570
G1 X79.930 Y90.678 E14.82631
G1 X79.629 Y89.221 E15.00299
G1 X80.476 Y88.060 E15.17371
G1 X80.959 Y87.230 E15.28771
G1 X82.420 Y86.952 E15.46432
G1 X83.666 Y86.105 E15.64332
G1 X84.446 Y84.919 E15.81184
G1 X84.733 Y83.529 E15.98037
G1 X84.451 Y82.049 E16.15937
G1 X83.619 Y80.825 E16.33510
G1 X83.977 Y79.304 E16.52067
G1 X84.051 Y78.490 E16.61770
G1 X85.325 Y77.654 E16.79869
G1 X86.153 Y76.394 E16.97768
G1 X86.418 Y75.000 E17.14621
G1 X86.153 Y73.606 E17.31474
G1 X85.325 Y72.346 E17.49374
G1 X84.051 Y71.510 E17.67473
G1 X83.977 Y70.696 E17.77176
G1 X83.619 Y69.175 E17.95733
G1 X84.451 Y67.951 E18.13305
G1 X84.733 Y66.471 E18.31205
G1 X84.446 Y65.081 E18.48058
G1 X83.666 Y63.895 E18.64911
G1 X82.420 Y63.048 E18.82811
G1 X81.085 Y62.794 E18.98952
G1 X80.824 Y62.538 E19.03288
G1 X80.476 Y61.940 E19.11504
G1 X79.629 Y60.779 E19.28576
G1 X79.930 Y59.322 E19.46244
G1 X79.600 Y57.727 E19.65592
G1 E17.65592 F1800.00000
G92 E0
G1 X49.507 Y51.670 F7800.000
G1 E2.00000 F1800.00000
G1 F1800
G1 X48.548 Y53.080 E2.20247
G1 X48.270 Y54.541 E2.37908
G1 X47.440 Y55.024 E2.49308
G1 X46.279 Y55.871 E2.66380
G1 X44.822 Y55.570 E2.84048
G1 X43.168 Y55.912 E3.04109
G1 X43.020 Y55.620 E3.08002
G1 X44.028 Y54.711 E3.24121
G1 X46.200 Y53.126 E3.56051
G1 X48.498 Y51.786 E3.87644
G1 X49.297 Y51.422 E3.98077
G1 X49.468 Y51.624 E4.01223
G1 E2.01223 F1800.00000
G92 E0
G1 X41.412 Y57.668 F7800.000
G1 E2.00000 F1800.00000
G1 F1800
G1 X41.070 Y59.322 E2.20061
G1 X41.371 Y60.779 E2.37729
G1 X40.524 Y61.940 E2.54801
G1 X40.041 Y62.770 E2.66201
G1 X38.580 Y63.048 E2.83862
G1 X37.170 Y64.006 E3.04109
G1 X36.922 Y63.797 E3.07967
G1 X37.286 Y62.998 E3.18400
G1 X38.626 Y60.700 E3.49993
G1 X40.211 Y58.528 E3.81923
G1 X41.120 Y57.520 E3.98042
G1 X41.359 Y57.641 E4.01223
G1 E2.01223 F1800.00000
G92 E0
G1 X36.231 Y66.283 F7800.000
G1 E2.00000 F1800.00000
G1 F1800
G1 X36.549 Y67.951 E2.20166
G1 X37.381 Y69.175 E2.37739
G1 X37.023 Y70.696 E2.56296
G1 X36.949 Y71.510 E2.65999
G1 X35.675 Y72.346 E2.84098
G1 X34.736 Y73.775 E3.04402
G1 X34.425 Y73.675 E3.08282
G1 X34.471 Y72.653 E3.20427
G1 X34.802 Y70.246 E3.49285
G1 X35.375 Y67.810 E3.79001
G1 X35.902 Y66.260 E3.98441
G1 X36.171 Y66.279 E4.01648
G1 E2.01648 F1800.00000
G92 E0
G1 X34.736 Y76.225 F7800.000
G1 E2.00000 F1800.00000
G1 F1800
