; generated by Slic3r Prusa Edition 1.39.1-alpha-prusa3d-win64 on 2018-03-08 at 12:48:56

; 

; external perimeters extrusion width = 0.45mm
; perimeters extrusion width = 0.45mm
; infill extrusion width = 0.45mm
; solid infill extrusion width = 0.45mm
; top infill extrusion width = 0.40mm
; first layer extrusion width = 0.80mm

M107
M104 S200 ; set temperature
G28 ; home all axes
G1 Z5 F5000 ; lift nozzle
; Filament gcode
M109 S200 ; set temperature and wait for it to be reached
G21 ; set units to millimeters
G90 ; use absolute coordinates
M82 ; use absolute distances for extrusion
G92 E0
G1 Z0.400 F7800.000
G1 E-2.00000 F1800.00000
G92 E0
G1 X31.360 Y31.363 F7800.000
G1 E2.00000 F1800.00000
G1 F1800
G1 X36.100 Y27.089 E2.75798
G1 X41.214 Y23.356 E3.50986
G1 X46.647 Y20.184 E4.25707
G1 X52.185 Y17.659 E4.97996
G1 X58.003 Y15.672 E5.71014
G1 X63.725 Y14.325 E6.40824
G1 X69.443 Y13.537 E7.09382
G1 X75.005 Y13.286 E7.75506
G1 X80.557 Y13.537 E8.41506
G1 X86.269 Y14.324 E9.09985
G1 X91.998 Y15.673 E9.79894
G1 X97.815 Y17.659 E10.52884
G1 X103.353 Y20.185 E11.25181
G1 X108.785 Y23.355 E11.99872
G1 X113.899 Y27.088 E12.75072
G1 X118.637 Y31.360 E13.50846
G1 X122.911 Y36.100 E14.26644
G1 X126.644 Y41.214 E15.01834
G1 X129.813 Y46.641 E15.76479
G1 X132.341 Y52.185 E16.48847
G1 X134.328 Y58.004 E17.21863
G1 X135.675 Y63.725 E17.91671
G1 X136.464 Y69.444 E18.60238
G1 X136.714 Y74.999 E19.26277
G1 X136.463 Y80.557 E19.92353
G1 X135.676 Y86.269 E20.60833
G1 X134.327 Y91.998 E21.30739
G1 X132.341 Y97.815 E22.03731
G1 X129.815 Y103.353 E22.76028
G1 X126.645 Y108.785 E23.50718
G1 X122.912 Y113.899 E24.25918
G1 X118.640 Y118.637 E25.01693
G1 X113.900 Y122.911 E25.77491
G1 X108.786 Y126.644 E26.52680
G1 X103.359 Y129.813 E27.27324
G1 X97.815 Y132.341 E27.99694
G1 X91.996 Y134.328 E28.72708
G1 X86.275 Y135.675 E29.42518
G1 X80.557 Y136.463 E30.11076
G1 X75.001 Y136.714 E30.77123
G1 X69.443 Y136.463 E31.43199
G1 X63.731 Y135.676 E32.11683
G1 X58.002 Y134.327 E32.81586
G1 X52.200 Y132.346 E33.54396
G1 X46.647 Y129.815 E34.26875
G1 X41.215 Y126.645 E35.01564
G1 X36.127 Y122.930 E35.76393
G1 X31.363 Y118.640 E36.52539
G1 X27.089 Y113.899 E37.28337
G1 X23.356 Y108.786 E38.03524
G1 X20.187 Y103.359 E38.78168
G1 X17.659 Y97.815 E39.50533
G1 X15.672 Y91.997 E40.23551
G1 X14.325 Y86.275 E40.93362
G1 X13.537 Y80.557 E41.61920
G1 X13.286 Y75.001 E42.27967
G1 X13.537 Y69.443 E42.94043
G1 X14.324 Y63.731 E43.62523
G1 X15.673 Y58.002 E44.32431
G1 X17.659 Y52.185 E45.05421
G1 X20.185 Y46.647 E45.77718
G1 X23.355 Y41.215 E46.52408
G1 X27.088 Y36.102 E47.27608
G1 X31.320 Y31.407 E48.02671
G1 E46.02671 F1800.00000
G92 E0
G1 X49.950 Y50.092 F7800.000
G1 E2.00000 F1800.00000
G1 F1800
G1 X52.731 Y47.571 E2.44571
G1 X55.666 Y45.429 E2.87731
G1 X58.772 Y43.617 E3.30436
G1 X61.994 Y42.150 E3.72478
G1 X65.277 Y41.034 E4.13667
G1 X68.571 Y40.260 E4.53845
G1 X71.855 Y39.811 E4.93212
G1 X75.000 Y39.670 E5.30602
G1 X78.176 Y39.813 E5.68359
G1 X81.430 Y40.260 E6.07369
G1 X84.723 Y41.034 E6.47538
G1 X88.006 Y42.150 E6.88727
G1 X91.228 Y43.617 E7.30769
G1 X94.334 Y45.429 E7.73474
G1 X97.269 Y47.571 E8.16634
G1 X99.983 Y50.017 E8.60025
G1 X102.429 Y52.731 E9.03415
G1 X104.571 Y55.666 E9.46575
G1 X106.383 Y58.772 E9.89280
G1 X107.850 Y61.994 E10.31322
G1 X108.966 Y65.277 E10.72511
G1 X109.740 Y68.570 E11.12680
G1 X110.187 Y71.824 E11.51690
G1 X110.330 Y75.000 E11.89447
G1 X110.187 Y78.176 E12.27205
G1 X109.740 Y81.430 E12.66215
G1 X108.966 Y84.723 E13.06384
G1 X107.850 Y88.006 E13.47572
G1 X106.383 Y91.228 E13.89614
G1 X104.571 Y94.334 E14.32320
G1 X102.429 Y97.269 E14.75480
G1 X99.983 Y99.983 E15.18870
G1 X97.269 Y102.429 E15.62261
G1 X94.334 Y104.571 E16.05420
G1 X91.228 Y106.383 E16.48126
G1 X88.006 Y107.850 E16.90168
G1 X84.723 Y108.966 E17.31356
G1 X81.430 Y109.740 E17.71525
G1 X78.176 Y110.187 E18.10535
G1 X75.000 Y110.330 E18.48293
G1 X71.824 Y110.187 E18.86050
G1 X68.570 Y109.740 E19.25061
G1 X65.277 Y108.966 E19.65230
G1 X61.994 Y107.850 E20.06418
G1 X58.772 Y106.383 E20.48460
G1 X55.666 Y104.571 E20.91165
G1 X52.731 Y102.429 E21.34325
G1 X50.017 Y99.983 E21.77716
G1 X47.571 Y97.269 E22.21106
G1 X45.429 Y94.334 E22.64266
G1 X43.617 Y91.228 E23.06972
G1 X42.150 Y88.006 E23.49014
G1 X41.034 Y84.723 E23.90202
G1 X40.260 Y81.430 E24.30371
G1 X39.813 Y78.176 E24.69381
G1 X39.670 Y75.000 E25.07139
G1 X39.813 Y71.824 E25.44896
G1 X40.260 Y68.570 E25.83906
G1 X41.034 Y65.277 E26.24075
G1 X42.150 Y61.994 E26.65264
G1 X43.617 Y58.772 E27.07305
G1 X45.429 Y55.666 E27.50011
G1 X47.571 Y52.731 E27.93171
G1 X49.910 Y50.136 E28.34662
G1 X50.481 Y50.570 F7800.000
G1 F1800
G1 X53.182 Y48.126 E28.77919
G1 X56.058 Y46.027 E29.20206
G1 X59.101 Y44.252 E29.62049
G1 X62.258 Y42.815 E30.03241
G1 X65.475 Y41.721 E30.43596
G1 X68.701 Y40.963 E30.82959
G1 X71.919 Y40.523 E31.21536
G1 X75.000 Y40.385 E31.58160
G1 X78.111 Y40.525 E31.95148
G1 X81.299 Y40.963 E32.33369
G1 X84.525 Y41.721 E32.72726
G1 X87.742 Y42.815 E33.13081
G1 X90.899 Y44.252 E33.54273
G1 X93.942 Y46.027 E33.96115
G1 X96.818 Y48.126 E34.38403
G1 X99.477 Y50.523 E34.80916
G1 X101.874 Y53.182 E35.23429
G1 X103.973 Y56.058 E35.65717
G1 X105.748 Y59.101 E36.07559
G1 X107.185 Y62.258 E36.48751
G1 X108.279 Y65.475 E36.89106
G1 X109.037 Y68.701 E37.28463
G1 X109.475 Y71.889 E37.66684
G1 X109.615 Y75.000 E38.03672
G1 X109.475 Y78.111 E38.40659
G1 X109.037 Y81.299 E38.78881
G1 X108.279 Y84.525 E39.18237
G1 X107.185 Y87.742 E39.58593
G1 X105.748 Y90.899 E39.99785
G1 X103.973 Y93.942 E40.41627
G1 X101.874 Y96.818 E40.83914
G1 X99.477 Y99.477 E41.26428
G1 X96.818 Y101.874 E41.68941
G1 X93.942 Y103.973 E42.11228
G1 X90.899 Y105.748 E42.53071
G1 X87.742 Y107.185 E42.94263
G1 X84.525 Y108.279 E43.34618
G1 X81.299 Y109.037 E43.73975
G1 X78.111 Y109.475 E44.12196
G1 X75.000 Y109.615 E44.49184
G1 X71.889 Y109.475 E44.86171
G1 X68.701 Y109.037 E45.24392
G1 X65.475 Y108.279 E45.63749
G1 X62.258 Y107.185 E46.04105
G1 X59.101 Y105.748 E46.45297
G1 X56.058 Y103.973 E46.87139
G1 X53.182 Y101.874 E47.29426
G1 X50.523 Y99.477 E47.71940
G1 X48.126 Y96.818 E48.14453
G1 X46.027 Y93.942 E48.56740
G1 X44.252 Y90.899 E48.98583
G1 X42.815 Y87.742 E49.39774
G1 X41.721 Y84.525 E49.80130
G1 X40.963 Y81.299 E50.19487
G1 X40.525 Y78.111 E50.57708
G1 X40.385 Y75.000 E50.94695
G1 X40.525 Y71.889 E51.31683
G1 X40.963 Y68.701 E51.69904
G1 X41.721 Y65.475 E52.09261
G1 X42.815 Y62.258 E52.49616
G1 X44.252 Y59.101 E52.90808
G1 X46.027 Y56.058 E53.32651
G1 X48.126 Y53.182 E53.74938
G1 X50.441 Y50.614 E54.15991
G1 X51.011 Y51.048 F7800.000
G1 F1800
G1 X53.633 Y48.681 E54.57934
G1 X56.449 Y46.625 E54.99349
G1 X59.430 Y44.887 E55.40328
G1 X62.521 Y43.480 E55.80670
G1 X65.672 Y42.408 E56.20193
G1 X68.831 Y41.666 E56.58739
G1 X71.984 Y41.235 E56.96528
G1 X75.000 Y41.100 E57.32385
G1 X78.046 Y41.237 E57.68603
G1 X81.169 Y41.666 E58.06035
G1 X84.328 Y42.408 E58.44580
G1 X87.479 Y43.480 E58.84103
G1 X90.570 Y44.887 E59.24444
G1 X93.551 Y46.625 E59.65423
G1 X96.367 Y48.681 E60.06838
G1 X98.971 Y51.029 E60.48474
G1 X101.319 Y53.633 E60.90111
G1 X103.375 Y56.449 E61.31526
G1 X105.113 Y59.430 E61.72504
G1 X106.520 Y62.521 E62.12846
G1 X107.592 Y65.672 E62.52369
G1 X108.334 Y68.831 E62.90914
G1 X108.763 Y71.954 E63.28346
G1 X108.900 Y75.000 E63.64563
G1 X108.763 Y78.046 E64.00781
G1 X108.334 Y81.169 E64.38213
G1 X107.592 Y84.328 E64.76758
G1 X106.520 Y87.479 E65.16280
G1 X105.113 Y90.570 E65.56622
G1 X103.375 Y93.551 E65.97601
G1 X101.319 Y96.367 E66.39016
G1 X98.971 Y98.971 E66.80652
G1 X96.367 Y101.319 E67.22289
G1 X93.551 Y103.375 E67.63703
G1 X90.570 Y105.113 E68.04682
G1 X87.479 Y106.520 E68.45024
G1 X84.328 Y107.592 E68.84547
G1 X81.169 Y108.334 E69.23092
G1 X78.046 Y108.763 E69.60524
G1 X75.000 Y108.900 E69.96741
G1 X71.954 Y108.763 E70.32959
G1 X68.831 Y108.334 E70.70391
G1 X65.672 Y107.592 E71.08936
G1 X62.521 Y106.520 E71.48458
G1 X59.430 Y105.113 E71.88800
G1 X56.449 Y103.375 E72.29779
G1 X53.633 Y101.319 E72.71194
G1 X51.029 Y98.971 E73.12830
G1 X48.681 Y96.367 E73.54467
G1 X46.625 Y93.551 E73.95881
G1 X44.887 Y90.570 E74.36860
G1 X43.480 Y87.479 E74.77202
G1 X42.408 Y84.328 E75.16725
G1 X41.666 Y81.169 E75.55269
G1 X41.237 Y78.046 E75.92702
G1 X41.100 Y75.000 E76.28919
G1 X41.237 Y71.954 E76.65137
G1 X41.666 Y68.831 E77.02569
G1 X42.408 Y65.672 E77.41114
G1 X43.480 Y62.521 E77.80636
G1 X44.887 Y59.430 E78.20978
G1 X46.625 Y56.449 E78.61957
G1 X48.681 Y53.633 E79.03372
G1 X50.971 Y51.093 E79.43987
G1 X50.908 Y50.662 F7800.000
G1 E77.43987 F1800.00000
G92 E0
G1 X37.404 Y37.404 F7800.000
G1 E2.00000 F1800.00000
G1 F1800
G1 X41.488 Y33.722 E2.65306
G1 X45.906 Y30.497 E3.30264
G1 X50.580 Y27.770 E3.94539
G1 X55.429 Y25.563 E4.57814
G1 X60.371 Y23.883 E5.19805
G1 X65.326 Y22.718 E5.80261
G1 X70.224 Y22.045 E6.38972
G1 X75.000 Y21.830 E6.95753
G1 X79.728 Y22.043 E7.51957
G1 X84.674 Y22.718 E8.11253
G1 X89.629 Y23.883 E8.71700
G1 X94.571 Y25.563 E9.33690
G1 X99.420 Y27.770 E9.96965
G1 X104.094 Y30.497 E10.61240
G1 X108.512 Y33.722 E11.26198
G1 X112.596 Y37.404 E11.91504
G1 X116.278 Y41.488 E12.56810
G1 X119.503 Y45.906 E13.21769
G1 X122.230 Y50.580 E13.86043
G1 X124.437 Y55.429 E14.49319
G1 X126.117 Y60.371 E15.11309
G1 X127.282 Y65.326 E15.71765
G1 X127.955 Y70.224 E16.30476
G1 X128.170 Y75.000 E16.87258
G1 X127.955 Y79.776 E17.44039
G1 X127.282 Y84.673 E18.02748
G1 X126.117 Y89.629 E18.63206
G1 X124.437 Y94.571 E19.25197
G1 X122.230 Y99.420 E19.88472
G1 X119.503 Y104.094 E20.52747
G1 X116.278 Y108.512 E21.17705
G1 X112.596 Y112.596 E21.83011
G1 X108.512 Y116.278 E22.48317
G1 X104.094 Y119.503 E23.13276
G1 X99.420 Y122.230 E23.77550
G1 X94.571 Y124.437 E24.40826
G1 X89.629 Y126.117 E25.02816
G1 X84.674 Y127.282 E25.63272
G1 X79.776 Y127.955 E26.21983
G1 X75.000 Y128.170 E26.78765
G1 X70.224 Y127.955 E27.35546
G1 X65.326 Y127.282 E27.94257
G1 X60.371 Y126.117 E28.54713
G1 X55.429 Y124.437 E29.16703
G1 X50.580 Y122.230 E29.79979
G1 X45.906 Y119.503 E30.44254
G1 X41.488 Y116.278 E31.09212
G1 X37.404 Y112.596 E31.74518
G1 X33.722 Y108.512 E32.39824
G1 X30.497 Y104.094 E33.04782
G1 X27.770 Y99.420 E33.69057
G1 X25.563 Y94.571 E34.32332
G1 X23.883 Y89.629 E34.94323
G1 X22.718 Y84.674 E35.54778
G1 X22.045 Y79.776 E36.13490
G1 X21.830 Y75.000 E36.70271
G1 X22.045 Y70.224 E37.27053
G1 X22.718 Y65.326 E37.85764
G1 X23.883 Y60.371 E38.46220
G1 X25.563 Y55.429 E39.08210
G1 X27.770 Y50.580 E39.71486
G1 X30.497 Y45.906 E40.35760
G1 X33.722 Y41.488 E41.00719
G1 X37.363 Y37.448 E41.65312
G1 X36.873 Y36.925 F7800.000
G1 F1800
G1 X41.037 Y33.167 E42.31932
G1 X45.514 Y29.899 E42.97763
G1 X50.252 Y27.135 E43.62901
G1 X55.166 Y24.899 E44.27026
G1 X60.174 Y23.195 E44.89850
G1 X65.196 Y22.015 E45.51117
G1 X70.159 Y21.333 E46.10618
G1 X75.000 Y21.115 E46.68169
G1 X79.792 Y21.331 E47.25139
G1 X84.805 Y22.015 E47.85224
G1 X89.826 Y23.195 E48.46487
G1 X94.834 Y24.899 E49.09310
G1 X99.748 Y27.135 E49.73435
G1 X104.486 Y29.899 E50.38573
G1 X108.963 Y33.167 E51.04404
G1 X113.102 Y36.898 E51.70587
G1 X116.833 Y41.037 E52.36770
G1 X120.101 Y45.514 E53.02601
G1 X122.865 Y50.252 E53.67739
G1 X125.101 Y55.166 E54.31865
G1 X126.805 Y60.174 E54.94688
G1 X127.985 Y65.196 E55.55956
G1 X128.667 Y70.159 E56.15456
G1 X128.885 Y75.000 E56.73007
G1 X128.667 Y79.841 E57.30559
G1 X127.985 Y84.804 E57.90056
G1 X126.805 Y89.826 E58.51327
G1 X125.101 Y94.834 E59.14150
G1 X122.865 Y99.748 E59.78276
G1 X120.101 Y104.486 E60.43414
G1 X116.833 Y108.963 E61.09245
G1 X113.102 Y113.102 E61.75428
G1 X108.963 Y116.833 E62.41611
G1 X104.486 Y120.101 E63.07442
G1 X99.748 Y122.865 E63.72580
G1 X94.834 Y125.101 E64.36705
G1 X89.826 Y126.805 E64.99528
G1 X84.804 Y127.985 E65.60796
G1 X79.841 Y128.667 E66.20296
G1 X75.000 Y128.885 E66.77848
G1 X70.159 Y128.667 E67.35400
G1 X65.196 Y127.985 E67.94900
G1 X60.174 Y126.805 E68.56168
G1 X55.166 Y125.101 E69.18991
G1 X50.252 Y122.865 E69.83116
G1 X45.514 Y120.101 E70.48254
G1 X41.037 Y116.833 E71.14085
G1 X36.898 Y113.102 E71.80268
G1 X33.167 Y108.963 E72.46451
G1 X29.899 Y104.486 E73.12282
G1 X27.135 Y99.748 E73.77420
G1 X24.899 Y94.834 E74.41546
G1 X23.195 Y89.826 E75.04369
G1 X22.015 Y84.804 E75.65637
G1 X21.333 Y79.841 E76.25137
G1 X21.115 Y75.000 E76.82689
G1 X21.333 Y70.159 E77.40240
G1 X22.015 Y65.196 E77.99740
G1 X23.195 Y60.174 E78.61008
G1 X24.899 Y55.166 E79.23832
G1 X27.135 Y50.252 E79.87957
G1 X29.899 Y45.514 E80.53095
G1 X33.167 Y41.037 E81.18926
G1 X36.833 Y36.970 E81.83957
G1 X36.343 Y36.447 F7800.000
G1 F1800
G1 X40.586 Y32.611 E82.51891
G1 X45.123 Y29.300 E83.18595
G1 X49.923 Y26.500 E83.84596
G1 X54.902 Y24.234 E84.49571
G1 X59.977 Y22.508 E85.13227
G1 X65.065 Y21.312 E85.75307
G1 X70.094 Y20.621 E86.35596
G1 X75.000 Y20.400 E86.93918
G1 X79.856 Y20.619 E87.51654
G1 X84.935 Y21.312 E88.12529
G1 X90.023 Y22.508 E88.74607
G1 X95.098 Y24.234 E89.38263
G1 X100.077 Y26.500 E90.03238
G1 X104.877 Y29.300 E90.69239
G1 X109.414 Y32.611 E91.35943
G1 X113.608 Y36.392 E92.03003
G1 X117.389 Y40.586 E92.70063
G1 X120.700 Y45.123 E93.36767
G1 X123.500 Y49.923 E94.02768
G1 X125.766 Y54.902 E94.67743
G1 X127.492 Y59.977 E95.31399
G1 X128.688 Y65.065 E95.93479
G1 X129.379 Y70.094 E96.53768
G1 X129.600 Y75.000 E97.12090
G1 X129.379 Y79.906 E97.70412
G1 X128.688 Y84.935 E98.30698
G1 X127.492 Y90.023 E98.92781
G1 X125.766 Y95.098 E99.56437
G1 X123.500 Y100.077 E100.21412
G1 X120.700 Y104.877 E100.87414
G1 X117.389 Y109.414 E101.54117
G1 X113.608 Y113.608 E102.21177
G1 X109.414 Y117.389 E102.88238
G1 X104.877 Y120.700 E103.54941
G1 X100.077 Y123.500 E104.20942
G1 X95.098 Y125.766 E104.85918
G1 X90.023 Y127.492 E105.49574
G1 X84.935 Y128.688 E106.11654
G1 X79.906 Y129.379 E106.71943
G1 X75.000 Y129.600 E107.30265
G1 X70.094 Y129.379 E107.88586
G1 X65.065 Y128.688 E108.48875
G1 X59.977 Y127.492 E109.10956
G1 X54.902 Y125.766 E109.74611
G1 X49.923 Y123.500 E110.39587
G1 X45.123 Y120.700 E111.05588
G1 X40.586 Y117.389 E111.72292
G1 X36.392 Y113.608 E112.39352
G1 X32.611 Y109.414 E113.06412
G1 X29.300 Y104.877 E113.73115
G1 X26.500 Y100.077 E114.39117
G1 X24.234 Y95.098 E115.04092
G1 X22.508 Y90.023 E115.67748
G1 X21.312 Y84.935 E116.29828
G1 X20.621 Y79.906 E116.90117
G1 X20.400 Y75.000 E117.48439
G1 X20.621 Y70.094 E118.06761
G1 X21.312 Y65.065 E118.67050
G1 X22.508 Y59.977 E119.29130
G1 X24.234 Y54.902 E119.92786
G1 X26.500 Y49.923 E120.57761
G1 X29.300 Y45.123 E121.23763
G1 X32.611 Y40.586 E121.90466
G1 X36.303 Y36.492 E122.55935
G1 X36.729 Y36.550 F7800.000
G1 E120.55935 F1800.00000
G92 E0
G1 X43.710 Y91.814 F7800.000
G1 E2.00000 F1800.00000
G1 F1800
G1 X22.561 Y70.665 E5.56176
G1 X22.579 Y70.272 E5.60853
G1 X22.652 Y69.742 E5.67223
G1 X42.102 Y89.193 E8.94787
G1 X41.652 Y88.204 E9.07728
G1 X41.408 Y87.486 E9.16759
G1 X22.774 Y68.852 E12.30570
G1 X22.896 Y67.962 E12.41273
G1 X40.886 Y85.951 E15.44234
G1 X40.518 Y84.870 E15.57825
G1 X40.426 Y84.479 E15.62618
G1 X23.019 Y67.071 E18.55780
G1 X23.141 Y66.181 E18.66483
G1 X40.115 Y83.155 E21.52344
G1 X39.804 Y81.831 E21.68539
G1 X23.274 Y65.301 E24.46921
G1 X23.467 Y64.481 E24.56952
G1 X39.608 Y80.623 E27.28796
G1 X39.447 Y79.449 E27.42907
G1 X23.659 Y63.661 E30.08789
G1 X23.852 Y62.841 E30.18820
G1 X39.286 Y78.275 E32.78741
G1 X39.233 Y77.209 E32.91443
G1 X24.045 Y62.021 E35.47232
G1 X24.238 Y61.201 E35.57263
G1 X39.185 Y76.149 E38.09003
G1 X39.138 Y75.089 E38.21644
G1 X24.441 Y60.392 E40.69152
G1 X24.698 Y59.636 E40.78657
G1 X39.174 Y74.112 E43.22443
G1 X39.217 Y73.143 E43.33995
G1 X24.955 Y58.881 E45.74187
G1 X25.212 Y58.125 E45.83692
G1 X39.261 Y72.174 E48.20290
G1 X39.279 Y71.775 E48.25037
G1 X39.351 Y71.251 E48.31342
G1 X25.469 Y57.369 E50.65126
G1 X25.726 Y56.614 E50.74631
G1 X39.473 Y70.361 E53.06146
G1 X39.595 Y69.470 E53.16849
G1 X25.983 Y55.858 E55.46094
G1 X26.062 Y55.627 E55.48998
G1 X26.282 Y55.144 E55.55322
G1 X39.718 Y68.580 E57.81600
G1 X39.902 Y67.751 E57.91707
G1 X26.599 Y54.448 E60.15753
G1 X26.915 Y53.752 E60.24859
G1 X40.095 Y66.931 E62.46817
G1 X40.287 Y66.111 E62.56848
G1 X27.232 Y53.056 E64.76718
G1 X27.549 Y52.360 E64.85824
G1 X40.480 Y65.291 E67.03606
G1 X40.518 Y65.130 E67.05584
