; generated by Slic3r Prusa Edition 1.39.1-alpha-prusa3d-win64 on 2018-02-10 at 17:05:29

; 

; external perimeters extrusion width = 0.45mm
; perimeters extrusion width = 0.45mm
; infill extrusion width = 0.45mm
; solid infill extrusion width = 0.45mm
; top infill extrusion width = 0.40mm
; first layer extrusion width = 0.80mm

M107
M104 S205 ; set temperature
G28 ; home all axes
G1 Z5 F5000 ; lift nozzle
; Filament gcode
M109 S205 ; set temperature and wait for it to be reached
G21 ; set units to millimeters
G90 ; use absolute coordinates
M82 ; use absolute distances for extrusion
G92 E0
G1 Z0.400 F7800.000
G1 E-2.00000 F2400.00000
G92 E0
G1 X48.166 Y58.132 F7800.000
G1 E2.00000 F2400.00000
G1 F1800
G1 X48.967 Y57.173 E2.14842
G1 X57.154 Y48.985 E3.52362
G1 X58.429 Y47.963 E3.71767
G1 X60.118 Y46.996 E3.94882
G1 X62.891 Y45.689 E4.31295
G1 X65.761 Y44.662 E4.67497
G1 X67.826 Y44.119 E4.92854
G1 X69.185 Y43.986 E5.09062
G1 X80.744 Y43.986 E6.46353
G1 X82.519 Y44.191 E6.67571
G1 X85.728 Y45.156 E7.07360
G1 X88.636 Y46.367 E7.44775
G1 X90.061 Y47.090 E7.63755
G1 X91.689 Y48.041 E7.86152
G1 X92.813 Y48.953 E8.03344
G1 X100.997 Y57.136 E9.40788
G1 X102.016 Y58.397 E9.60042
G1 X103.001 Y60.112 E9.83536
G1 X104.316 Y62.903 E10.20178
G1 X105.346 Y65.786 E10.56531
G1 X105.902 Y67.953 E10.83099
G1 X106.014 Y69.195 E10.97912
G1 X106.014 Y80.776 E12.35461
G1 X105.840 Y82.382 E12.54638
G1 X105.326 Y84.277 E12.77966
G1 X104.281 Y87.182 E13.14623
G1 X102.973 Y89.942 E13.50901
G1 X101.827 Y91.878 E13.77622
G1 X101.033 Y92.827 E13.92312
G1 X92.837 Y101.024 E15.29983
G1 X91.441 Y102.119 E15.51051
G1 X88.743 Y103.580 E15.87495
G1 X87.073 Y104.326 E16.09211
G1 X84.208 Y105.348 E16.45337
G1 X82.028 Y105.905 E16.72057
G1 X80.803 Y106.014 E16.86671
G1 X69.224 Y106.014 E18.24191
G1 X67.618 Y105.840 E18.43367
G1 X65.721 Y105.325 E18.66712
G1 X62.818 Y104.281 E19.03353
G1 X60.058 Y102.973 E19.39630
G1 X58.122 Y101.827 E19.66351
G1 X57.173 Y101.033 E19.81041
G1 X48.976 Y92.837 E21.18712
G1 X47.881 Y91.441 E21.39780
G1 X46.420 Y88.743 E21.76225
G1 X45.674 Y87.073 E21.97941
G1 X44.652 Y84.208 E22.34066
G1 X44.095 Y82.028 E22.60786
G1 X43.986 Y80.803 E22.75401
G1 X43.986 Y69.224 E24.12921
G1 X44.161 Y67.618 E24.32098
G1 X44.674 Y65.723 E24.55426
G1 X45.719 Y62.818 E24.92082
G1 X47.027 Y60.058 E25.28360
G1 X48.135 Y58.184 E25.54216
G1 E23.54216 F2400.00000
G92 E0
G1 X76.423 Y92.263 F7800.000
G1 E2.00000 F2400.00000
G1 F1800
G1 X76.081 Y92.566 E2.05427
G1 X75.676 Y92.779 E2.10859
G1 X75.224 Y92.889 E2.16386
G1 X74.767 Y92.888 E2.21811
G1 X74.324 Y92.779 E2.27237
G1 X73.919 Y92.566 E2.32661
G1 X73.577 Y92.263 E2.38089
G1 X73.313 Y91.881 E2.43610
G1 X73.152 Y91.453 E2.49036
G1 X73.100 Y91.024 E2.54169
G1 X73.100 Y58.976 E6.34790
G1 X73.152 Y58.547 E6.39922
G1 X73.313 Y58.119 E6.45349
G1 X73.577 Y57.737 E6.50870
G1 X73.919 Y57.434 E6.56297
G1 X74.324 Y57.221 E6.61729
G1 X74.776 Y57.111 E6.67256
G1 X75.233 Y57.112 E6.72681
G1 X75.676 Y57.221 E6.78106
G1 X76.081 Y57.434 E6.83531
G1 X76.423 Y57.737 E6.88958
G1 X76.687 Y58.119 E6.94479
G1 X76.848 Y58.547 E6.99906
G1 X76.900 Y58.976 E7.05038
G1 X76.900 Y91.024 E10.85659
G1 X76.848 Y91.453 E10.90791
G1 X76.687 Y91.881 E10.96218
G1 X76.457 Y92.214 E11.01027
G1 X76.550 Y92.643 F7800.000
G1 E9.01027 F2400.00000
G92 E0
G1 X63.657 Y71.712 F7800.000
G1 E2.00000 F2400.00000
G1 F1800
G1 X63.239 Y71.900 E2.05441
G1 X62.786 Y71.983 E2.10908
G1 X62.312 Y71.950 E2.16552
G1 X61.891 Y71.817 E2.21789
G1 X61.500 Y71.580 E2.27230
G1 X61.175 Y71.255 E2.32678
G1 X60.938 Y70.861 E2.38145
G1 X60.800 Y70.406 E2.43790
G1 X60.775 Y69.966 E2.49026
G1 X60.858 Y69.515 E2.54467
G1 X61.047 Y69.097 E2.59915
G1 X61.315 Y68.755 E2.65081
G1 X68.855 Y61.271 E3.91245
G1 X69.209 Y61.000 E3.96542
G1 X69.611 Y60.821 E4.01775
G1 X70.062 Y60.738 E4.07216
G1 X70.521 Y60.767 E4.12682
G1 X70.974 Y60.912 E4.18327
G1 X71.350 Y61.141 E4.23564
G1 X71.674 Y61.466 E4.29005
G1 X71.911 Y61.858 E4.34453
G1 X72.048 Y62.298 E4.39919
G1 X72.072 Y62.773 E4.45564
G1 X71.991 Y63.206 E4.50801
G1 X71.803 Y63.624 E4.56242
G1 X71.534 Y63.966 E4.61407
G1 X63.986 Y71.456 E5.87697
G1 X63.704 Y71.675 E5.91943
G1 X63.663 Y72.112 F7800.000
G1 E3.91943 F2400.00000
G92 E0
G1 X59.691 Y71.672 F7800.000
G1 E2.00000 F2400.00000
G1 F1800
G1 X58.890 Y71.672 E2.09509
G1 X58.204 Y71.755 E2.17714
G1 X57.452 Y72.038 E2.27257
G1 X56.779 Y72.502 E2.36969
G1 X56.471 Y72.854 E2.42515
G1 X56.330 Y72.430 E2.47818
G1 X55.953 Y71.648 E2.58133
G1 X55.479 Y70.920 E2.68447
G1 X54.900 Y70.239 E2.79067
G1 X54.256 Y69.656 E2.89377
G1 X53.546 Y69.161 E2.99660
G1 X52.703 Y68.720 E3.10958
G1 X52.812 Y68.323 E3.15848
G1 X53.175 Y67.218 E3.29660
G1 X53.593 Y66.133 E3.43472
G1 X54.065 Y65.070 E3.57283
G1 X54.589 Y64.032 E3.71095
G1 X54.793 Y63.674 E3.75985
G1 X55.701 Y63.959 E3.87283
G1 X56.553 Y64.111 E3.97566
G1 X57.419 Y64.154 E4.07858
G1 X58.297 Y64.085 E4.18323
G1 X59.161 Y63.902 E4.28803
G1 X59.981 Y63.616 E4.39126
G1 X60.770 Y63.221 E4.49599
G1 X61.492 Y62.734 E4.59943
G1 X62.163 Y62.143 E4.70562
G1 X62.736 Y61.490 E4.80878
G1 X63.221 Y60.770 E4.91196
G1 X63.616 Y59.981 E5.01669
G1 X63.902 Y59.161 E5.11984
G1 X64.082 Y58.312 E5.22298
G1 X64.154 Y57.420 E5.32918
G1 X64.111 Y56.553 E5.43228
G1 X63.959 Y55.701 E5.53511
G1 X63.674 Y54.793 E5.64809
G1 X64.032 Y54.589 E5.69699
G1 X65.070 Y54.065 E5.83511
G1 X66.133 Y53.593 E5.97323
G1 X67.218 Y53.175 E6.11135
G1 X68.323 Y52.812 E6.24947
G1 X68.720 Y52.703 E6.29836
G1 X69.162 Y53.548 E6.41157
G1 X69.666 Y54.268 E6.51604
G1 X70.248 Y54.909 E6.61882
G1 X70.897 Y55.462 E6.72013
G1 X71.645 Y55.952 E6.82628
G1 X72.430 Y56.330 E6.92975
G1 X72.852 Y56.471 E6.98262
G1 X72.500 Y56.783 E7.03851
G1 X72.038 Y57.452 E7.13510
G1 X71.755 Y58.204 E7.23053
G1 X71.672 Y58.890 E7.31258
G1 X71.672 Y59.636 E7.40118
G1 X70.787 Y59.352 E7.51148
G1 X69.976 Y59.302 E7.60800
G1 X69.186 Y59.446 E7.70336
G1 X68.473 Y59.764 E7.79605
G1 X67.913 Y60.193 E7.87988
G1 X60.246 Y67.803 E9.16286
G1 X59.816 Y68.352 E9.24561
G1 X59.485 Y69.086 E9.34129
G1 X59.339 Y69.876 E9.43665
G1 X59.384 Y70.657 E9.52954
G1 X59.673 Y71.614 E9.64837
G1 X61.295 Y72.386 F7800.000
G1 F1800
G1 X58.933 Y72.386 E9.92893
G1 X58.375 Y72.453 E9.99561
G1 X57.786 Y72.676 E10.07046
G1 X57.257 Y73.040 E10.14668
G1 X56.837 Y73.520 E10.22251
G1 X56.549 Y74.068 E10.29602
G1 X56.446 Y74.482 E10.34663
G1 X56.081 Y74.449 E10.39022
G1 X56.065 Y74.211 E10.41852
G1 X55.916 Y73.449 E10.51084
G1 X55.667 Y72.699 E10.60468
G1 X55.329 Y71.999 E10.69697
G1 X54.906 Y71.348 E10.78924
G1 X54.386 Y70.737 E10.88448
G1 X53.811 Y70.216 E10.97668
G1 X53.175 Y69.773 E11.06871
G1 X52.484 Y69.411 E11.16131
G1 X51.841 Y69.163 E11.24314
G1 X52.128 Y68.117 E11.37189
G1 X52.502 Y66.978 E11.51427
G1 X52.933 Y65.859 E11.65665
G1 X53.419 Y64.764 E11.79902
G1 X53.960 Y63.694 E11.94140
G1 X54.497 Y62.752 E12.07015
G1 X55.127 Y63.031 E12.15199
G1 X55.871 Y63.264 E12.24457
G1 X56.634 Y63.400 E12.33660
G1 X57.408 Y63.438 E12.42869
G1 X58.195 Y63.376 E12.52242
G1 X58.968 Y63.213 E12.61628
G1 X59.702 Y62.957 E12.70862
G1 X60.409 Y62.603 E12.80245
G1 X61.055 Y62.168 E12.89493
G1 X61.656 Y61.638 E12.99016
G1 X62.169 Y61.054 E13.08246
G1 X62.603 Y60.409 E13.17478
G1 X62.957 Y59.702 E13.26861
G1 X63.213 Y58.969 E13.36090
G1 X63.374 Y58.209 E13.45317
G1 X63.438 Y57.409 E13.54842
G1 X63.400 Y56.634 E13.64062
G1 X63.264 Y55.871 E13.73265
G1 X63.031 Y55.127 E13.82524
G1 X62.752 Y54.497 E13.90708
G1 X63.694 Y53.960 E14.03584
G1 X64.764 Y53.419 E14.17821
G1 X65.859 Y52.933 E14.32059
G1 X66.978 Y52.502 E14.46297
G1 X68.117 Y52.128 E14.60534
G1 X69.163 Y51.841 E14.73409
G1 X69.411 Y52.484 E14.81593
G1 X69.773 Y53.176 E14.90866
G1 X70.225 Y53.822 E15.00226
G1 X70.746 Y54.395 E15.09425
G1 X71.326 Y54.889 E15.18479
G1 X71.997 Y55.329 E15.28005
G1 X72.699 Y55.667 E15.37254
G1 X73.449 Y55.916 E15.46638
G1 X74.213 Y56.066 E15.55885
G1 X74.450 Y56.080 E15.58711
G1 X74.483 Y56.447 E15.63082
G1 X74.070 Y56.548 E15.68134
G1 X73.511 Y56.842 E15.75630
G1 X73.038 Y57.260 E15.83120
G1 X72.676 Y57.786 E15.90710
G1 X72.453 Y58.375 E15.98195
G1 X72.386 Y58.933 E16.04863
G1 X72.386 Y61.168 E16.31407
G1 X71.795 Y60.576 E16.41336
G1 X71.273 Y60.258 E16.48600
G1 X70.654 Y60.059 E16.56317
G1 X70.019 Y60.020 E16.63876
G1 X69.399 Y60.133 E16.71364
G1 X68.841 Y60.382 E16.78615
G1 X68.384 Y60.732 E16.85456
G1 X60.781 Y68.279 E18.12686
G1 X60.431 Y68.724 E18.19407
G1 X60.172 Y69.301 E18.26915
G1 X60.057 Y69.921 E18.34403
G1 X60.092 Y70.531 E18.41666
G1 X60.280 Y71.153 E18.49383
G1 X60.609 Y71.698 E18.56943
G1 X61.253 Y72.343 E18.67769
G1 E16.67769 F2400.00000
G92 E0
G1 X78.328 Y59.630 F7800.000
G1 E2.00000 F2400.00000
G1 F1800
G1 X78.328 Y58.890 E2.08792
G1 X78.245 Y58.204 E2.16997
G1 X77.962 Y57.452 E2.26540
G1 X77.500 Y56.783 E2.36199
G1 X77.148 Y56.471 E2.41788
G1 X77.570 Y56.330 E2.47075
G1 X78.352 Y55.953 E2.57390
G1 X79.080 Y55.479 E2.67704
G1 X79.761 Y54.900 E2.78323
G1 X80.344 Y54.256 E2.88634
G1 X80.839 Y53.546 E2.98917
G1 X81.280 Y52.703 E3.10215
G1 X81.677 Y52.812 E3.15105
G1 X82.782 Y53.175 E3.28917
G1 X83.867 Y53.593 E3.42728
G1 X84.930 Y54.065 E3.56540
G1 X85.968 Y54.589 E3.70352
G1 X86.326 Y54.793 E3.75242
G1 X86.041 Y55.701 E3.86540
G1 X85.889 Y56.553 E3.96823
G1 X85.846 Y57.419 E4.07115
G1 X85.915 Y58.297 E4.17579
G1 X86.098 Y59.161 E4.28059
G1 X86.384 Y59.981 E4.38382
G1 X86.779 Y60.770 E4.48856
G1 X87.266 Y61.492 E4.59200
G1 X87.857 Y62.163 E4.69819
G1 X88.510 Y62.736 E4.80134
G1 X89.230 Y63.221 E4.90453
G1 X90.019 Y63.616 E5.00926
G1 X90.839 Y63.902 E5.11241
G1 X91.688 Y64.082 E5.21555
G1 X92.580 Y64.154 E5.32175
G1 X93.447 Y64.111 E5.42485
G1 X94.299 Y63.959 E5.52768
G1 X95.207 Y63.674 E5.64066
G1 X95.411 Y64.032 E5.68956
G1 X95.935 Y65.070 E5.82768
G1 X96.407 Y66.133 E5.96580
G1 X96.825 Y67.218 E6.10392
G1 X97.173 Y68.277 E6.23628
G1 X97.296 Y68.721 E6.29096
G1 X96.454 Y69.161 E6.40376
G1 X95.744 Y69.656 E6.50659
G1 X95.101 Y70.238 E6.60950
G1 X94.529 Y70.908 E6.71415
G1 X94.047 Y71.647 E6.81895
G1 X93.670 Y72.430 E6.92218
G1 X93.529 Y72.852 E6.97505
G1 X93.219 Y72.502 E7.03067
G1 X92.559 Y72.044 E7.12608
G1 X91.798 Y71.755 E7.22268
G1 X91.110 Y71.672 E7.30501
G1 X90.309 Y71.672 E7.40011
G1 X90.616 Y70.657 E7.52606
G1 X90.661 Y69.876 E7.61895
G1 X90.515 Y69.086 E7.71431
G1 X90.184 Y68.352 E7.80999
G1 X89.754 Y67.803 E7.89274
G1 X82.092 Y60.198 E9.17487
G1 X81.550 Y59.776 E9.25649
G1 X80.810 Y59.444 E9.35282
G1 X79.998 Y59.302 E9.45071
G1 X79.217 Y59.352 E9.54361
G1 X78.386 Y59.612 E9.64709
G1 X77.614 Y61.168 F7800.000
G1 F1800
G1 X77.614 Y58.933 E9.91253
G1 X77.547 Y58.375 E9.97921
G1 X77.324 Y57.786 E10.05406
G1 X76.962 Y57.260 E10.12996
G1 X76.489 Y56.842 E10.20486
G1 X75.932 Y56.549 E10.27962
G1 X75.518 Y56.446 E10.33025
G1 X75.551 Y56.081 E10.37384
G1 X75.789 Y56.065 E10.40214
G1 X76.552 Y55.916 E10.49446
G1 X77.301 Y55.667 E10.58830
G1 X78.001 Y55.329 E10.68059
G1 X78.652 Y54.906 E10.77286
G1 X79.263 Y54.386 E10.86810
G1 X79.784 Y53.811 E10.96031
G1 X80.227 Y53.175 E11.05233
G1 X80.589 Y52.484 E11.14493
G1 X80.837 Y51.841 E11.22676
G1 X81.883 Y52.128 E11.35552
G1 X83.022 Y52.502 E11.49789
G1 X84.141 Y52.933 E11.64027
G1 X85.236 Y53.419 E11.78265
G1 X86.306 Y53.960 E11.92502
G1 X87.248 Y54.497 E12.05377
G1 X86.969 Y55.127 E12.13561
G1 X86.736 Y55.871 E12.22820
G1 X86.600 Y56.634 E12.32022
G1 X86.562 Y57.408 E12.41231
G1 X86.624 Y58.195 E12.50604
G1 X86.787 Y58.968 E12.59990
G1 X87.043 Y59.702 E12.69224
G1 X87.397 Y60.409 E12.78607
G1 X87.832 Y61.055 E12.87855
G1 X88.362 Y61.656 E12.97378
G1 X88.946 Y62.169 E13.06608
G1 X89.591 Y62.603 E13.15840
G1 X90.298 Y62.957 E13.25224
G1 X91.031 Y63.213 E13.34453
G1 X91.791 Y63.374 E13.43680
G1 X92.591 Y63.438 E13.53205
G1 X93.366 Y63.400 E13.62425
G1 X94.129 Y63.264 E13.71628
G1 X94.873 Y63.031 E13.80887
G1 X95.503 Y62.752 E13.89070
G1 X96.040 Y63.694 E14.01946
G1 X96.581 Y64.764 E14.16184
G1 X97.067 Y65.859 E14.30421
G1 X97.498 Y66.978 E14.44659
G1 X97.857 Y68.070 E14.58313
G1 X98.158 Y69.163 E14.71772
G1 X97.516 Y69.411 E14.79952
G1 X96.825 Y69.773 E14.89211
G1 X96.189 Y70.216 E14.98414
G1 X95.615 Y70.736 E15.07623
G1 X95.102 Y71.336 E15.16995
G1 X94.671 Y71.998 E15.26381
G1 X94.333 Y72.699 E15.35615
G1 X94.084 Y73.449 E15.44999
G1 X93.935 Y74.213 E15.54247
G1 X93.920 Y74.449 E15.57056
G1 X93.554 Y74.482 E15.61421
G1 X93.451 Y74.068 E15.66484
G1 X93.158 Y73.511 E15.73961
G1 X92.741 Y73.039 E15.81434
G1 X92.223 Y72.681 E15.88917
G1 X91.626 Y72.453 E15.96507
G1 X91.067 Y72.386 E16.03193
G1 X88.705 Y72.386 E16.31249
G1 X89.391 Y71.698 E16.42788
G1 X89.720 Y71.153 E16.50348
G1 X89.908 Y70.531 E16.58065
G1 X89.943 Y69.921 E16.65328
G1 X89.829 Y69.301 E16.72817
G1 X89.569 Y68.724 E16.80324
G1 X89.219 Y68.279 E16.87045
G1 X81.619 Y60.735 E18.14224
G1 X81.179 Y60.392 E18.20856
G1 X80.599 Y60.132 E18.28403
G1 X79.959 Y60.020 E18.36120
G1 X79.348 Y60.060 E18.43383
G1 X78.747 Y60.248 E18.50872
G1 X78.206 Y60.575 E18.58379
G1 X77.657 Y61.125 E18.67615
G1 X77.953 Y62.298 F7800.000
G1 F1800
G1 X78.089 Y61.858 E18.73081
G1 X78.326 Y61.466 E18.78529
G1 X78.650 Y61.141 E18.83977
G1 X79.042 Y60.903 E18.89425
G1 X79.480 Y60.767 E18.94866
G1 X79.920 Y60.738 E19.00103
G1 X80.388 Y60.820 E19.05748
G1 X80.808 Y61.008 E19.11210
G1 X81.146 Y61.272 E19.16311
G1 X88.685 Y68.755 E20.42456
G1 X88.953 Y69.097 E20.47622
G1 X89.142 Y69.515 E20.53070
G1 X89.225 Y69.966 E20.58511
G1 X89.200 Y70.406 E20.63747
G1 X89.062 Y70.861 E20.69392
G1 X88.825 Y71.255 E20.74859
G1 X88.501 Y71.580 E20.80307
G1 X88.109 Y71.817 E20.85748
G1 X87.688 Y71.950 E20.90985
G1 X87.214 Y71.983 E20.96629
G1 X86.761 Y71.900 E21.02096
G1 X86.343 Y71.712 E21.07537
G1 X86.014 Y71.456 E21.12496
G1 X78.466 Y63.966 E22.38785
G1 X78.197 Y63.624 E22.43951
G1 X78.009 Y63.206 E22.49392
G1 X77.928 Y62.773 E22.54628
G1 X77.949 Y62.358 E22.59561
G1 X77.648 Y62.039 F7800.000
G1 E20.59561 F2400.00000
G92 E0
G1 X81.053 Y73.151 F7800.000
G1 E2.00000 F2400.00000
G1 F1800
G1 X81.476 Y73.100 E2.05059
G1 X91.024 Y73.100 E3.18457
G1 X91.454 Y73.152 E3.23595
G1 X91.888 Y73.317 E3.29117
G1 X92.264 Y73.577 E3.34543
G1 X92.566 Y73.919 E3.39964
G1 X92.779 Y74.324 E3.45389
G1 X92.889 Y74.767 E3.50819
G1 X92.889 Y75.233 E3.56343
G1 X92.779 Y75.676 E3.61773
G1 X92.571 Y76.073 E3.67093
G1 X92.264 Y76.422 E3.72612
G1 X91.881 Y76.687 E3.78145
G1 X91.453 Y76.848 E3.83570
G1 X91.031 Y76.899 E3.88617
G1 X81.476 Y76.900 E5.02101
G1 X81.052 Y76.849 E5.07172
G1 X80.608 Y76.681 E5.12808
G1 X80.232 Y76.418 E5.18255
G1 X79.939 Y76.087 E5.23516
G1 X79.718 Y75.667 E5.29149
G1 X79.611 Y75.221 E5.34596
G1 X79.611 Y74.778 E5.39858
G1 X79.724 Y74.318 E5.45490
G1 X79.939 Y73.912 E5.50937
G1 X80.233 Y73.581 E5.56199
G1 X80.623 Y73.311 E5.61832
G1 X80.997 Y73.172 E5.66569
G1 X81.165 Y72.767 F7800.000
G1 E3.66569 F2400.00000
G92 E0
G1 X78.654 Y76.713 F7800.000
G1 E2.00000 F2400.00000
G1 F1800
G1 X78.754 Y76.904 E2.02558
G1 X79.276 Y77.493 E2.11896
G1 X79.936 Y77.954 E2.21463
G1 X80.709 Y78.246 E2.31271
G1 X81.391 Y78.328 E2.39429
G1 X84.202 Y78.328 E2.72819
G1 X78.328 Y84.158 E3.71109
G1 X78.328 Y76.794 E4.58573
G1 X78.596 Y76.728 E4.61848
G1 E2.61848 F2400.00000
G92 E0
G1 X78.653 Y73.288 F7800.000
G1 E2.00000 F2400.00000
G1 F1800
G1 X78.328 Y73.208 E2.03977
G1 X78.328 Y65.842 E2.91459
G1 X84.203 Y71.672 E3.89758
G1 X81.391 Y71.672 E4.23163
G1 X80.713 Y71.753 E4.31266
G1 X79.958 Y72.035 E4.40846
G1 X79.279 Y72.504 E4.50641
G1 X78.757 Y73.092 E4.59979
G1 X78.681 Y73.236 E4.61903
G1 E2.61903 F2400.00000
G92 E0
G1 X85.574 Y72.386 F7800.000
G1 E2.00000 F2400.00000
G1 F1800
G1 X81.433 Y72.386 E2.49182
G1 X80.883 Y72.452 E2.55763
G1 X80.290 Y72.673 E2.63279
G1 X79.756 Y73.042 E2.70992
G1 X79.348 Y73.502 E2.78292
G1 X79.052 Y74.061 E2.85799
G1 X78.896 Y74.691 E2.93513
G1 X78.896 Y75.306 E3.00813
G1 X79.045 Y75.920 E3.08320
G1 X79.346 Y76.495 E3.16033
G1 X79.754 Y76.956 E3.23333
G1 X80.272 Y77.317 E3.30840
G1 X80.880 Y77.548 E3.38562
G1 X81.433 Y77.614 E3.45177
G1 X85.576 Y77.614 E3.94371
G1 X85.674 Y77.905 E3.98018
G1 X85.535 Y78.012 E4.00107
G1 X77.614 Y85.873 E5.32645
G1 X77.614 Y64.127 E7.90920
