; generated by Slic3r Prusa Edition 1.39.1-alpha-prusa3d-win64 on 2018-02-18 at 20:23:53

; 

; external perimeters extrusion width = 0.45mm
; perimeters extrusion width = 0.45mm
; infill extrusion width = 0.45mm
; solid infill extrusion width = 0.45mm
; top infill extrusion width = 0.40mm
; first layer extrusion width = 0.80mm

M107
M104 S205 ; set temperature
G28 ; home all axes
G1 Z5 F5000 ; lift nozzle
; Filament gcode
M109 S205 ; set temperature and wait for it to be reached
G21 ; set units to millimeters
G90 ; use absolute coordinates
M82 ; use absolute distances for extrusion
G92 E0
G1 Z0.400 F7800.000
G1 E-2.00000 F1800.00000
G92 E0
G1 X60.321 Y59.704 F7800.000
G1 E2.00000 F1800.00000
G1 F1800
G1 X61.447 Y58.905 E2.16393
G1 X62.706 Y58.355 E2.32711
G1 X64.057 Y58.072 E2.49104
G1 X85.256 Y58.036 E5.00883
G1 X86.422 Y58.139 E5.14779
G1 X87.558 Y58.445 E5.28750
G1 X88.617 Y58.941 E5.42645
G1 X89.579 Y59.618 E5.56617
G1 X90.405 Y60.448 E5.70512
G1 X91.076 Y61.413 E5.84483
G1 X91.567 Y62.475 E5.98379
G1 X91.867 Y63.613 E6.12350
G1 X91.964 Y64.721 E6.25564
G1 X91.956 Y85.576 E8.73251
G1 X91.833 Y86.573 E8.85176
G1 X91.564 Y87.534 E8.97025
G1 X91.156 Y88.444 E9.08875
G1 X90.613 Y89.289 E9.20800
G1 X89.601 Y90.363 E9.38327
G1 X88.379 Y91.190 E9.55854
G1 X87.006 Y91.731 E9.73381
G1 X85.548 Y91.958 E9.90908
G1 X64.385 Y91.954 E12.42243
G1 X63.402 Y91.827 E12.54016
G1 X62.448 Y91.557 E12.65790
G1 X61.545 Y91.150 E12.77564
G1 X60.711 Y90.613 E12.89337
G1 X59.637 Y89.601 E13.06864
G1 X58.810 Y88.379 E13.24391
G1 X58.269 Y87.006 E13.41919
G1 X58.042 Y85.548 E13.59446
G1 X58.046 Y64.385 E16.10780
G1 X58.173 Y63.402 E16.22554
G1 X58.443 Y62.448 E16.34327
G1 X58.850 Y61.545 E16.46101
G1 X59.387 Y60.711 E16.57875
G1 X60.280 Y59.748 E16.73479
G1 E14.73479 F1800.00000
G92 E0
G1 X83.422 Y83.422 F7800.000
G1 E2.00000 F1800.00000
G1 F1800
G1 X66.578 Y83.422 E4.00041
G1 X66.578 Y66.578 E6.00081
G1 X83.422 Y66.578 E8.00122
G1 X83.422 Y83.362 E9.99449
G1 X84.136 Y84.136 F7800.000
G1 F1800
G1 X65.864 Y84.136 E12.16453
G1 X65.864 Y65.864 E14.33457
G1 X84.136 Y65.864 E16.50461
G1 X84.136 Y84.076 E18.66753
G1 X84.850 Y84.850 F7800.000
G1 F1800
G1 X65.150 Y84.850 E21.00720
G1 X65.150 Y65.150 E23.34687
G1 X84.850 Y65.150 E25.68655
G1 X84.850 Y84.790 E28.01910
G1 X84.464 Y84.746 F7800.000
G1 E26.01910 F1800.00000
G92 E0
G1 X83.207 Y68.267 F7800.000
G1 E2.00000 F1800.00000
G1 F1800
G1 X82.055 Y67.114 E2.19755
G1 X81.024 Y67.114 E2.32240
G1 X82.886 Y68.976 E2.64145
G1 X82.886 Y70.006 E2.76630
G1 X79.994 Y67.114 E3.26191
G1 X78.963 Y67.114 E3.38676
G1 X82.886 Y71.037 E4.05893
G1 X82.886 Y72.067 E4.18378
G1 X77.933 Y67.114 E5.03252
G1 X76.903 Y67.114 E5.15737
G1 X82.886 Y73.097 E6.18267
G1 X82.886 Y74.128 E6.30752
G1 X75.872 Y67.114 E7.50938
G1 X74.842 Y67.114 E7.63423
G1 X82.886 Y75.158 E9.01266
G1 X82.886 Y76.189 E9.13751
G1 X73.811 Y67.114 E10.69250
G1 X72.781 Y67.114 E10.81735
G1 X82.886 Y77.219 E12.54890
G1 X82.886 Y78.249 E12.67375
G1 X71.751 Y67.114 E14.58187
G1 X70.720 Y67.114 E14.70672
G1 X82.886 Y79.280 E16.79140
G1 X82.886 Y80.310 E16.91625
G1 X69.690 Y67.114 E19.17750
G1 X68.659 Y67.114 E19.30235
G1 X82.886 Y81.341 E21.74016
G1 X82.886 Y82.371 E21.86501
G1 X67.629 Y67.114 E24.47938
G1 X67.114 Y67.114 E24.54180
G1 X67.114 Y67.629 E24.60423
G1 X82.371 Y82.886 E27.21858
G1 X81.340 Y82.886 E27.34343
G1 X67.114 Y68.660 E29.78122
G1 X67.114 Y69.690 E29.90607
G1 X80.310 Y82.886 E32.16730
G1 X79.280 Y82.886 E32.29215
G1 X67.114 Y70.720 E34.37681
G1 X67.114 Y71.751 E34.50166
G1 X78.249 Y82.886 E36.40976
G1 X77.219 Y82.886 E36.53461
G1 X67.114 Y72.781 E38.26614
G1 X67.114 Y73.812 E38.39099
G1 X76.188 Y82.886 E39.94596
G1 X75.158 Y82.886 E40.07081
G1 X67.114 Y74.842 E41.44922
G1 X67.114 Y75.872 E41.57407
G1 X74.128 Y82.886 E42.77591
G1 X73.097 Y82.886 E42.90076
G1 X67.114 Y76.903 E43.92604
G1 X67.114 Y77.933 E44.05089
G1 X72.067 Y82.886 E44.89961
G1 X71.036 Y82.886 E45.02446
G1 X67.114 Y78.964 E45.69661
G1 X67.114 Y79.994 E45.82146
G1 X70.006 Y82.886 E46.31705
G1 X68.976 Y82.886 E46.44190
G1 X67.114 Y81.024 E46.76093
G1 X67.114 Y82.055 E46.88578
G1 X68.267 Y83.207 E47.08331
G1 Z0.700 F7800.000
M104 S200 ; set temperature
G1 X84.254 Y84.254 F7800.000
G1 F3600
G1 X65.746 Y84.254 E47.97346
G1 X65.746 Y65.746 E48.86361
G1 X84.254 Y65.746 E49.75375
G1 X84.254 Y84.194 E50.64102
G1 X84.639 Y84.639 F7800.000
G1 F3600
G1 X65.361 Y84.639 E51.56826
G1 X65.361 Y65.361 E52.49550
G1 X84.639 Y65.361 E53.42274
G1 X84.639 Y84.579 E54.34710
G1 X85.025 Y85.025 F7800.000
G1 F1800
G1 X64.975 Y85.025 E55.31144
G1 X64.975 Y64.975 E56.27577
G1 X85.025 Y64.975 E57.24011
G1 X85.025 Y84.965 E58.20156
G1 X84.639 Y84.921 F7800.000
G1 X83.357 Y84.138 F7800.000
G1 F1200
G1 X83.965 Y83.530 E58.24302
G1 X83.965 Y82.983 E58.26938
G1 X82.983 Y83.965 E58.33629
G1 X82.437 Y83.965 E58.36265
G1 X83.965 Y82.437 E58.46684
G1 X83.965 Y81.890 E58.49320
G1 X81.890 Y83.965 E58.63467
G1 X81.343 Y83.965 E58.66103
G1 X83.965 Y81.343 E58.83977
G1 X83.965 Y80.797 E58.86613
G1 X80.797 Y83.965 E59.08216
G1 X80.250 Y83.965 E59.10852
G1 X83.965 Y80.250 E59.36182
G1 X83.965 Y79.703 E59.38818
G1 X79.703 Y83.965 E59.67877
G1 X79.156 Y83.965 E59.70513
G1 X83.965 Y79.156 E60.03299
G1 X83.965 Y78.610 E60.05935
G1 X78.610 Y83.965 E60.42449
G1 X78.063 Y83.965 E60.45085
G1 X83.965 Y78.063 E60.85327
G1 X83.965 Y77.516 E60.87963
G1 X77.516 Y83.965 E61.31933
G1 X76.970 Y83.965 E61.34569
G1 X83.965 Y76.970 E61.82267
G1 X83.965 Y76.423 E61.84903
G1 X76.423 Y83.965 E62.36329
G1 X75.876 Y83.965 E62.38965
G1 X83.965 Y75.876 E62.94119
G1 X83.965 Y75.329 E62.96755
G1 X75.329 Y83.965 E63.55636
G1 X74.783 Y83.965 E63.58272
G1 X83.965 Y74.783 E64.20882
G1 X83.965 Y74.236 E64.23518
G1 X74.236 Y83.965 E64.89856
G1 X73.689 Y83.965 E64.92492
G1 X83.965 Y73.689 E65.62557
G1 X83.965 Y73.143 E65.65193
G1 X73.143 Y83.965 E66.38986
G1 X72.596 Y83.965 E66.41622
G1 X83.965 Y72.596 E67.19144
G1 X83.965 Y72.049 E67.21780
G1 X72.049 Y83.965 E68.03029
G1 X71.502 Y83.965 E68.05665
G1 X83.965 Y71.502 E68.90642
G1 X83.965 Y70.956 E68.93278
G1 X70.956 Y83.965 E69.81983
G1 X70.409 Y83.965 E69.84619
G1 X83.965 Y70.409 E70.77052
G1 X83.965 Y69.862 E70.79688
G1 X69.862 Y83.965 E71.75849
G1 X69.316 Y83.965 E71.78485
G1 X83.965 Y69.316 E72.78374
G1 X83.965 Y68.769 E72.81010
G1 X68.769 Y83.965 E73.84626
G1 X68.222 Y83.965 E73.87262
G1 X83.965 Y68.222 E74.94607
G1 X83.965 Y67.676 E74.97243
G1 X67.676 Y83.965 E76.08316
G1 X67.129 Y83.965 E76.10952
G1 X83.965 Y67.129 E77.25752
G1 X83.965 Y66.582 E77.28388
G1 X66.582 Y83.965 E78.46916
G1 X66.035 Y83.965 E78.49552
G1 X83.965 Y66.035 E79.71808
G1 X83.418 Y66.035 E79.74444
G1 X66.035 Y83.418 E80.92972
G1 X66.035 Y82.871 E80.95608
G1 X82.871 Y66.035 E82.10408
G1 X82.324 Y66.035 E82.13044
G1 X66.035 Y82.324 E83.24116
G1 X66.035 Y81.778 E83.26752
G1 X81.778 Y66.035 E84.34096
G1 X81.231 Y66.035 E84.36732
G1 X66.035 Y81.231 E85.40348
G1 X66.035 Y80.684 E85.42984
G1 X80.684 Y66.035 E86.42873
G1 X80.138 Y66.035 E86.45509
G1 X66.035 Y80.138 E87.41669
G1 X66.035 Y79.591 E87.44305
G1 X79.591 Y66.035 E88.36737
G1 X79.044 Y66.035 E88.39373
G1 X66.035 Y79.044 E89.28078
G1 X66.035 Y78.497 E89.30714
G1 X78.497 Y66.035 E90.15691
G1 X77.951 Y66.035 E90.18327
G1 X66.035 Y77.951 E90.99575
G1 X66.035 Y77.404 E91.02211
G1 X77.404 Y66.035 E91.79732
G1 X76.857 Y66.035 E91.82368
G1 X66.035 Y76.857 E92.56161
G1 X66.035 Y76.311 E92.58797
G1 X76.311 Y66.035 E93.28862
G1 X75.764 Y66.035 E93.31498
G1 X66.035 Y75.764 E93.97835
G1 X66.035 Y75.217 E94.00471
G1 X75.217 Y66.035 E94.63080
G1 X74.670 Y66.035 E94.65716
G1 X66.035 Y74.670 E95.24597
G1 X66.035 Y74.124 E95.27233
G1 X74.124 Y66.035 E95.82386
G1 X73.577 Y66.035 E95.85022
G1 X66.035 Y73.577 E96.36448
G1 X66.035 Y73.030 E96.39084
G1 X73.030 Y66.035 E96.86781
G1 X72.484 Y66.035 E96.89417
G1 X66.035 Y72.484 E97.33387
G1 X66.035 Y71.937 E97.36023
G1 X71.937 Y66.035 E97.76264
G1 X71.390 Y66.035 E97.78900
G1 X66.035 Y71.390 E98.15414
G1 X66.035 Y70.844 E98.18050
G1 X70.844 Y66.035 E98.50836
G1 X70.297 Y66.035 E98.53472
G1 X66.035 Y70.297 E98.82530
G1 X66.035 Y69.750 E98.85166
G1 X69.750 Y66.035 E99.10496
G1 X69.203 Y66.035 E99.13132
G1 X66.035 Y69.203 E99.34734
G1 X66.035 Y68.657 E99.37370
G1 X68.657 Y66.035 E99.55244
G1 X68.110 Y66.035 E99.57880
G1 X66.035 Y68.110 E99.72026
G1 X66.035 Y67.563 E99.74662
G1 X67.563 Y66.035 E99.85080
G1 X67.017 Y66.035 E99.87716
G1 X66.035 Y67.017 E99.94407
G1 X66.035 Y66.470 E99.97043
G1 X66.643 Y65.862 E100.01188
G1 Z1.000 F7800.000
G1 X84.254 Y84.254 F7800.000
G1 F3600
G1 X65.746 Y84.254 E100.90203
G1 X65.746 Y65.746 E101.79218
G1 X84.254 Y65.746 E102.68233
G1 X84.254 Y84.194 E103.56959
G1 X84.639 Y84.639 F7800.000
G1 F3600
G1 X65.361 Y84.639 E104.49683
G1 X65.361 Y65.361 E105.42408
G1 X84.639 Y65.361 E106.35132
G1 X84.639 Y84.579 E107.27568
G1 X85.025 Y85.025 F7800.000
G1 F1800
G1 X64.975 Y85.025 E108.24001
G1 X64.975 Y64.975 E109.20435
G1 X85.025 Y64.975 E110.16869
G1 X85.025 Y84.965 E111.13014
G1 X84.639 Y84.921 F7800.000
G1 X84.138 Y66.643 F7800.000
G1 F1200
G1 X83.530 Y66.035 E111.17160
G1 X82.983 Y66.035 E111.19796
G1 X83.965 Y67.017 E111.26487
G1 X83.965 Y67.563 E111.29123
G1 X82.437 Y66.035 E111.39541
G1 X81.890 Y66.035 E111.42177
G1 X83.965 Y68.110 E111.56324
G1 X83.965 Y68.657 E111.58960
G1 X81.343 Y66.035 E111.76835
G1 X80.797 Y66.035 E111.79471
G1 X83.965 Y69.203 E112.01073
G1 X83.965 Y69.750 E112.03709
G1 X80.250 Y66.035 E112.29040
G1 X79.703 Y66.035 E112.31676
G1 X83.965 Y70.297 E112.60734
G1 X83.965 Y70.844 E112.63370
G1 X79.156 Y66.035 E112.96156
G1 X78.610 Y66.035 E112.98792
G1 X83.965 Y71.390 E113.35306
G1 X83.965 Y71.937 E113.37943
G1 X78.063 Y66.035 E113.78185
G1 X77.516 Y66.035 E113.80821
G1 X83.965 Y72.484 E114.24791
G1 X83.965 Y73.030 E114.27427
G1 X76.970 Y66.035 E114.75125
G1 X76.423 Y66.035 E114.77761
G1 X83.965 Y73.577 E115.29186
G1 X83.965 Y74.124 E115.31822
G1 X75.876 Y66.035 E115.86976
G1 X75.329 Y66.035 E115.89612
G1 X83.965 Y74.671 E116.48494
G1 X83.965 Y75.217 E116.51130
G1 X74.783 Y66.035 E117.13740
G1 X74.236 Y66.035 E117.16376
G1 X83.965 Y75.764 E117.82713
G1 X83.965 Y76.311 E117.85349
G1 X73.689 Y66.035 E118.55414
G1 X73.143 Y66.035 E118.58051
G1 X83.965 Y76.857 E119.31844
G1 X83.965 Y77.404 E119.34480
G1 X72.596 Y66.035 E120.12001
G1 X72.049 Y66.035 E120.14637
G1 X83.965 Y77.951 E120.95886
G1 X83.965 Y78.498 E120.98522
G1 X71.502 Y66.035 E121.83499
G1 X70.956 Y66.035 E121.86135
G1 X83.965 Y79.044 E122.74841
G1 X83.965 Y79.591 E122.77477
G1 X70.409 Y66.035 E123.69909
G1 X69.862 Y66.035 E123.72545
G1 X83.965 Y80.138 E124.68706
G1 X83.965 Y80.684 E124.71342
G1 X69.316 Y66.035 E125.71231
G1 X68.769 Y66.035 E125.73867
G1 X83.965 Y81.231 E126.77484
G1 X83.965 Y81.778 E126.80120
G1 X68.222 Y66.035 E127.87464
G1 X67.676 Y66.035 E127.90100
G1 X83.965 Y82.324 E129.01173
G1 X83.965 Y82.871 E129.03809
G1 X67.129 Y66.035 E130.18609
G1 X66.582 Y66.035 E130.21245
G1 X83.965 Y83.418 E131.39774
G1 X83.965 Y83.965 E131.42410
G1 X66.035 Y66.035 E132.64665
G1 X66.035 Y66.582 E132.67301
G1 X83.418 Y83.965 E133.85829
G1 X82.871 Y83.965 E133.88465
G1 X66.035 Y67.129 E135.03265
G1 X66.035 Y67.676 E135.05901
G1 X82.324 Y83.965 E136.16973
G1 X81.778 Y83.965 E136.19609
G1 X66.035 Y68.222 E137.26953
G1 X66.035 Y68.769 E137.29589
G1 X81.231 Y83.965 E138.33206
G1 X80.684 Y83.965 E138.35842
G1 X66.035 Y69.316 E139.35730
G1 X66.035 Y69.862 E139.38366
G1 X80.138 Y83.965 E140.34526
G1 X79.591 Y83.965 E140.37162
G1 X66.035 Y70.409 E141.29595
G1 X66.035 Y70.956 E141.32231
G1 X79.044 Y83.965 E142.20935
G1 X78.497 Y83.965 E142.23571
G1 X66.035 Y71.503 E143.08548
G1 X66.035 Y72.049 E143.11184
G1 X77.951 Y83.965 E143.92433
G1 X77.404 Y83.965 E143.95069
G1 X66.035 Y72.596 E144.72589
G1 X66.035 Y73.143 E144.75225
G1 X76.857 Y83.965 E145.49018
G1 X76.311 Y83.965 E145.51654
G1 X66.035 Y73.689 E146.21719
G1 X66.035 Y74.236 E146.24355
G1 X75.764 Y83.965 E146.90692
G1 X75.217 Y83.965 E146.93328
G1 X66.035 Y74.783 E147.55937
G1 X66.035 Y75.330 E147.58573
G1 X74.670 Y83.965 E148.17455
G1 X74.124 Y83.965 E148.20091
G1 X66.035 Y75.876 E148.75244
G1 X66.035 Y76.423 E148.77880
G1 X73.577 Y83.965 E149.29305
G1 X73.030 Y83.965 E149.31941
G1 X66.035 Y76.970 E149.79639
G1 X66.035 Y77.516 E149.82275
G1 X72.484 Y83.965 E150.26244
G1 X71.937 Y83.965 E150.28880
G1 X66.035 Y78.063 E150.69122
G1 X66.035 Y78.610 E150.71758
G1 X71.390 Y83.965 E151.08271
G1 X70.844 Y83.965 E151.10907
G1 X66.035 Y79.156 E151.43693
G1 X66.035 Y79.703 E151.46329
G1 X70.297 Y83.965 E151.75387
G1 X69.750 Y83.965 E151.78023
G1 X66.035 Y80.250 E152.03353
G1 X66.035 Y80.797 E152.05989
G1 X69.203 Y83.965 E152.27591
G1 X68.657 Y83.965 E152.30227
G1 X66.035 Y81.343 E152.48101
G1 X66.035 Y81.890 E152.50737
G1 X68.110 Y83.965 E152.64883
G1 X67.563 Y83.965 E152.67519
G1 X66.035 Y82.437 E152.77938
G1 X66.035 Y82.983 E152.80574
G1 X67.017 Y83.965 E152.87264
G1 X66.470 Y83.965 E152.89900
G1 X65.862 Y83.357 E152.94046
M106 S242.25
G1 Z1.300 F7800.000
G1 X84.254 Y84.254 F7800.000
G1 F3600
G1 X65.746 Y84.254 E153.83060
G1 X65.746 Y65.746 E154.72075
G1 X84.254 Y65.746 E155.61090
G1 X84.254 Y84.194 E156.49816
G1 X84.639 Y84.639 F7800.000
G1 F3600
G1 X65.361 Y84.639 E157.42541
G1 X65.361 Y65.361 E158.35265
G1 X84.639 Y65.361 E159.27989
G1 X84.639 Y84.579 E160.20425
G1 X85.025 Y85.025 F7800.000
G1 F1800
G1 X64.975 Y85.025 E161.16859
G1 X64.975 Y64.975 E162.13292
G1 X85.025 Y64.975 E163.09726
G1 X85.025 Y84.965 E164.05871
G1 X84.639 Y84.921 F7800.000
G1 X83.576 Y84.138 F7800.000
G1 F4800
G1 X83.965 Y82.690 E164.13083
G1 X83.965 Y66.035 E164.93184
G1 X82.439 Y66.035 E165.00523
G1 X77.635 Y83.965 E165.89798
G1 X71.646 Y83.965 E166.18600
G1 X76.450 Y66.035 E167.07875
G1 X70.462 Y66.035 E167.36677
G1 X65.862 Y83.203 E168.22161
G1 X66.797 Y84.138 F7800.000
G1 F4800
G1 X83.965 Y79.538 E169.07646
G1 X83.965 Y73.550 E169.36448
G1 X66.035 Y78.354 E170.25723
G1 X66.035 Y72.365 E170.54525
G1 X83.965 Y67.561 E171.43799
G1 X83.965 Y66.035 E171.51138
G1 X67.310 Y66.035 E172.31240
G1 X65.862 Y66.424 E172.38451
G1 X65.862 Y80.922 F7800.000
G1 F4800
G1 X68.904 Y83.965 E172.59144
G1 X77.084 Y83.965 E172.98488
G1 X66.035 Y72.916 E173.73642
G1 X66.035 Y66.035 E174.06733
G1 X67.335 Y66.035 E174.12986
G1 X83.965 Y82.665 E175.26095
G1 X83.965 Y74.484 E175.65439
G1 X75.516 Y66.035 E176.22907
G1 X83.696 Y66.035 E176.62252
G1 X84.138 Y66.478 E176.65259
G1 Z1.600 F7800.000
G1 X84.254 Y84.254 F7800.000
G1 F3600
G1 X65.746 Y84.254 E177.54274
G1 X65.746 Y65.746 E178.43289
G1 X84.254 Y65.746 E179.32304
G1 X84.254 Y84.194 E180.21030
G1 X84.639 Y84.639 F7800.000
G1 F3600
G1 X65.361 Y84.639 E181.13754
G1 X65.361 Y65.361 E182.06479
G1 X84.639 Y65.361 E182.99203
G1 X84.639 Y84.579 E183.91639
G1 X85.025 Y85.025 F7800.000
G1 F1800
G1 X64.975 Y85.025 E184.88072
G1 X64.975 Y64.975 E185.84506
G1 X85.025 Y64.975 E186.80940
G1 X85.025 Y84.965 E187.77085
G1 X84.639 Y84.921 F7800.000
G1 X83.357 Y84.138 F7800.000
G1 F4800
G1 X83.965 Y81.870 E187.88378
G1 X83.965 Y66.035 E188.64537
G1 X82.219 Y66.035 E188.72932
G1 X77.415 Y83.965 E189.62207
G1 X71.427 Y83.965 E189.91009
G1 X76.231 Y66.035 E190.80284
G1 X70.242 Y66.035 E191.09086
G1 X65.862 Y82.384 E191.90489
G1 X67.616 Y84.138 F7800.000
G1 F4800
G1 X83.965 Y79.758 E192.71893
G1 X83.965 Y73.769 E193.00695
G1 X66.035 Y78.573 E193.89969
G1 X66.035 Y72.585 E194.18771
G1 X83.965 Y67.781 E195.08046
G1 X83.965 Y66.035 E195.16441
G1 X68.130 Y66.035 E195.92601
G1 X65.862 Y66.643 E196.03894
G1 X69.378 Y84.138 F7800.000
G1 F4800
G1 X66.035 Y80.796 E196.26627
G1 X66.035 Y72.616 E196.65971
G1 X77.384 Y83.965 E197.43165
G1 X83.965 Y83.965 E197.74813
G1 X83.965 Y82.365 E197.82509
G1 X67.635 Y66.035 E198.93578
G1 X75.816 Y66.035 E199.32922
G1 X84.138 Y74.358 E199.89530
G1 Z1.900 F7800.000
G1 X84.254 Y84.254 F7800.000
G1 F3600
G1 X65.746 Y84.254 E200.78545
G1 X65.746 Y65.746 E201.67560
G1 X84.254 Y65.746 E202.56575
G1 X84.254 Y84.194 E203.45301
G1 X84.639 Y84.639 F7800.000
G1 F3600
G1 X65.361 Y84.639 E204.38025
G1 X65.361 Y65.361 E205.30749
G1 X84.639 Y65.361 E206.23474
G1 X84.639 Y84.579 E207.15909
