; generated by Slic3r Prusa Edition 1.41.0-beta+win64 on 2018-11-12 at 14:25:54

; 

; external perimeters extrusion width = 0.45mm
; perimeters extrusion width = 0.45mm
; infill extrusion width = 0.45mm
; solid infill extrusion width = 0.45mm
; top infill extrusion width = 0.40mm
; first layer extrusion width = 0.80mm

M107
M104 S210 ; set temperature
G28 ; home all axes
G1 Z5 F5000 ; lift nozzle
; Filament gcode
M109 S210 ; set temperature and wait for it to be reached
G21 ; set units to millimeters
G90 ; use absolute coordinates
M82 ; use absolute distances for extrusion
G92 E0
G1 Z0.400 F7800.000
G1 E-2.00000 F1800.00000
G92 E0
G1 X45.544 Y60.254 F7800.000
G1 E2.00000 F1800.00000
G1 X46.248 Y59.731 E2.10423
G1 X48.582 Y58.304 E2.42915
G1 X49.333 Y57.955 E2.52747
G1 X50.123 Y57.706 E2.62579
G1 X52.713 Y57.155 E2.94031
G1 X53.685 Y57.054 E3.05634
G1 X96.126 Y57.047 E8.09695
G1 X97.364 Y57.169 E8.24467
G1 X99.809 Y57.690 E8.54159
G1 X100.624 Y57.942 E8.64287
G1 X101.624 Y58.431 E8.77512
G1 X103.756 Y59.733 E9.07172
G1 X104.445 Y60.245 E9.17373
G1 X105.226 Y61.039 E9.30599
G1 X106.707 Y62.845 E9.58341
G1 X107.208 Y63.596 E9.69059
G1 X107.562 Y64.323 E9.78670
G1 X108.439 Y66.593 E10.07565
G1 X108.754 Y67.816 E10.22558
G1 X108.902 Y70.967 E10.60029
G1 X108.903 Y79.011 E11.55563
G1 X108.804 Y81.769 E11.88341
G1 X108.548 Y83.081 E12.04217
G1 X107.598 Y85.606 E12.36254
G1 X107.229 Y86.375 E12.46381
G1 X106.722 Y87.136 E12.57247
G1 X105.219 Y88.969 E12.85395
G1 X104.661 Y89.563 E12.95080
G1 X104.025 Y90.084 E13.04838
G1 X101.437 Y91.684 E13.40974
G1 X100.692 Y92.031 E13.50733
G1 X99.903 Y92.281 E13.60565
G1 X97.279 Y92.847 E13.92444
G1 X96.283 Y92.951 E14.04342
G1 X53.301 Y92.927 E19.14821
G1 X50.294 Y92.333 E19.51221
G1 X49.428 Y92.078 E19.61939
G1 X48.521 Y91.654 E19.73837
G1 X46.322 Y90.316 E20.04405
G1 X45.603 Y89.791 E20.14976
G1 X44.960 Y89.167 E20.25620
G1 X43.285 Y87.145 E20.56802
G1 X42.728 Y86.297 E20.68848
G1 X41.507 Y83.250 E21.07844
G1 X41.198 Y81.715 E21.26440
G1 X41.097 Y79.009 E21.58597
G1 X41.097 Y71.026 E22.53402
G1 X41.183 Y68.405 E22.84553
G1 X41.307 Y67.479 E22.95640
G1 X41.544 Y66.641 E23.05989
G1 X42.466 Y64.239 E23.36549
G1 X42.846 Y63.496 E23.46455
G1 X43.320 Y62.810 E23.56361
G1 X44.885 Y60.907 E23.85619
G1 X45.501 Y60.297 E23.95920
; PURGING FINISHED
G1 E21.95920
G92 E0
G1 X89.443 Y79.123 F7800.000
G1 E2.00000 F1800.00000
G1 X89.334 Y79.105 E2.02033
G1 X89.225 Y79.087 E2.04001
G1 X89.116 Y79.070 E2.05904
G1 X60.884 Y79.070 E6.75415
G1 X60.775 Y79.087 E6.77318
G1 X60.666 Y79.105 E6.79286
G1 X60.557 Y79.123 E6.81319
G1 X60.535 Y79.202 E6.82825
G1 X60.446 Y79.517 E6.87869
G1 X60.368 Y80.680 E7.02579
G1 X60.325 Y80.861 E7.05054
G1 X60.282 Y81.042 E7.07659
G1 X60.239 Y81.223 E7.10393
G1 X60.154 Y81.584 E7.15864
G1 X59.692 Y82.681 E7.33371
G1 X59.620 Y82.816 E7.35551
G1 X59.533 Y82.948 E7.37895
G1 X59.447 Y83.079 E7.40345
G1 X59.361 Y83.211 E7.42901
G1 X59.274 Y83.343 E7.45562
G1 X59.188 Y83.474 E7.48134
G1 X58.279 Y84.448 E7.69884
G1 X58.155 Y84.559 E7.72547
G1 X58.032 Y84.652 E7.75116
G1 X57.908 Y84.744 E7.77791
G1 X57.785 Y84.837 E7.80571
G1 X57.661 Y84.929 E7.83343
G1 X56.444 Y85.560 E8.07979
G1 X56.280 Y85.628 E8.11092
G1 X56.141 Y85.672 E8.13735
G1 X56.003 Y85.716 E8.16475
G1 X55.865 Y85.759 E8.19224
G1 X54.330 Y85.985 E8.48591
G1 X54.135 Y85.997 E8.52257
G1 X54.020 Y85.993 E8.54478
G1 X53.905 Y85.990 E8.56766
G1 X52.981 Y85.807 E8.75528
G1 X52.057 Y85.623 E8.93889
G1 X51.857 Y85.564 E8.97978
G1 X51.856 Y85.563 E8.98013
G1 X50.069 Y84.473 E9.39029
G1 X50.055 Y84.461 E9.39387
G1 X49.915 Y84.317 E9.43261
G1 X48.808 Y82.950 E9.76954
G1 X48.752 Y82.852 E9.79115
G1 X48.619 Y82.589 E9.83934
G1 X48.079 Y81.106 E10.09780
G1 X47.989 Y80.535 E10.19259
G1 X47.983 Y79.766 E10.32080
G1 X47.977 Y78.997 E10.45405
G1 X48.001 Y78.854 E10.47919
G1 X48.111 Y78.273 E10.56515
G1 X48.268 Y77.836 E10.63403
G1 X48.425 Y77.398 E10.70552
G1 X48.582 Y76.961 E10.77601
G1 X48.759 Y76.645 E10.83088
G1 X49.012 Y76.219 E10.89446
G1 X49.273 Y75.900 E10.94925
G1 X49.535 Y75.580 E11.00664
G1 X49.797 Y75.261 E11.06666
G1 X49.847 Y75.174 E11.08197
G1 X49.897 Y75.087 E11.09798
G1 X49.947 Y75.000 E11.11400
G1 X49.847 Y74.826 E11.14603
G1 X49.797 Y74.739 E11.15937
G1 X49.012 Y73.781 E11.32372
G1 X48.936 Y73.671 E11.34092
G1 X48.848 Y73.513 E11.36554
G1 X48.759 Y73.355 E11.39157
G1 X48.671 Y73.197 E11.41901
G1 X48.582 Y73.039 E11.44785
G1 X48.425 Y72.602 E11.52196
G1 X48.268 Y72.164 E11.59345
G1 X48.111 Y71.727 E11.66232
G1 X48.072 Y71.575 E11.68508
G1 X48.048 Y71.432 E11.70718
G1 X48.024 Y71.289 E11.73030
G1 X48.001 Y71.146 E11.75443
G1 X47.977 Y71.003 E11.77862
G1 X47.989 Y69.465 E12.03503
G1 X48.005 Y69.295 E12.06299
G1 X48.030 Y69.161 E12.08622
G1 X48.055 Y69.028 E12.11037
G1 X48.079 Y68.894 E12.13544
G1 X48.619 Y67.411 E12.42599
G1 X48.696 Y67.246 E12.45869
G1 X48.752 Y67.148 E12.47966
G1 X48.808 Y67.050 E12.50127
G1 X49.915 Y65.683 E12.83820
G1 X50.055 Y65.539 E12.87693
G1 X50.069 Y65.527 E12.88052
G1 X51.856 Y64.437 E13.29068
G1 X51.857 Y64.436 E13.29102
G1 X52.057 Y64.377 E13.33192
G1 X52.981 Y64.193 E13.51552
G1 X53.905 Y64.010 E13.70314
G1 X54.020 Y64.007 E13.72602
G1 X54.330 Y64.015 E13.78043
G1 X55.865 Y64.241 E14.05257
G1 X56.444 Y64.440 E14.16003
G1 X57.053 Y64.755 E14.28321
G1 X57.661 Y65.071 E14.41144
G1 X57.785 Y65.163 E14.44029
G1 X58.279 Y65.552 E14.54076
G1 X58.582 Y65.877 E14.61326
G1 X58.885 Y66.201 E14.68852
G1 X59.188 Y66.526 E14.76355
G1 X59.361 Y66.789 E14.81678
G1 X59.692 Y67.319 E14.90566
G1 X59.846 Y67.685 E14.96402
G1 X60.000 Y68.050 E15.02513
G1 X60.154 Y68.416 E15.08624
G1 X60.239 Y68.777 E15.14353
G1 X60.387 Y69.451 E15.23052
G1 X60.407 Y69.795 E15.27609
G1 X60.426 Y70.139 E15.32415
G1 X60.446 Y70.483 E15.37467
G1 X60.468 Y70.562 E15.38728
G1 X60.490 Y70.641 E15.40050
G1 X60.512 Y70.719 E15.41434
G1 X60.535 Y70.798 E15.42879
G1 X60.557 Y70.877 E15.44385
G1 X60.666 Y70.895 E15.46419
G1 X60.775 Y70.913 E15.48387
G1 X60.884 Y70.930 E15.50289
G1 X89.116 Y70.930 E20.19801
G1 X89.225 Y70.913 E20.21703
G1 X89.334 Y70.895 E20.23671
G1 X89.443 Y70.877 E20.25704
G1 X89.465 Y70.798 E20.27211
G1 X89.554 Y70.483 E20.32254
G1 X89.632 Y69.320 E20.46964
G1 X89.675 Y69.139 E20.49439
G1 X89.718 Y68.958 E20.52044
G1 X89.761 Y68.777 E20.54779
G1 X89.846 Y68.416 E20.60250
G1 X90.308 Y67.319 E20.77757
G1 X90.380 Y67.184 E20.79936
G1 X90.467 Y67.052 E20.82281
G1 X90.553 Y66.921 E20.84731
G1 X90.639 Y66.789 E20.87286
G1 X90.726 Y66.657 E20.89948
G1 X90.812 Y66.526 E20.92519
G1 X91.721 Y65.552 E21.14269
G1 X91.846 Y65.440 E21.16959
G1 X91.970 Y65.348 E21.19524
G1 X92.093 Y65.256 E21.22194
G1 X92.216 Y65.164 E21.24971
G1 X92.339 Y65.071 E21.27745
G1 X93.576 Y64.434 E21.52832
G1 X93.739 Y64.366 E21.55947
G1 X93.871 Y64.324 E21.58478
G1 X94.003 Y64.282 E21.61096
G1 X94.135 Y64.241 E21.63718
G1 X95.670 Y64.015 E21.93086
G1 X95.865 Y64.003 E21.96751
G1 X95.980 Y64.007 E21.98973
G1 X96.095 Y64.010 E22.01261
G1 X97.019 Y64.193 E22.20023
G1 X97.943 Y64.377 E22.38383
G1 X98.123 Y64.428 E22.42030
G1 X98.143 Y64.440 E22.42478
G1 X99.932 Y65.528 E22.83260
G1 X99.945 Y65.539 E22.83599
G1 X100.085 Y65.683 E22.87473
G1 X101.192 Y67.050 E23.21166
G1 X101.248 Y67.148 E23.23327
G1 X101.381 Y67.411 E23.28146
G1 X101.921 Y68.894 E23.53992
G1 X102.011 Y69.465 E23.63471
G1 X102.017 Y70.234 E23.76292
G1 X102.023 Y71.003 E23.89617
G1 X101.999 Y71.146 E23.92131
G1 X101.889 Y71.727 E24.00728
G1 X101.732 Y72.164 E24.07615
G1 X101.575 Y72.602 E24.14764
G1 X101.418 Y73.039 E24.21813
G1 X101.241 Y73.355 E24.27300
G1 X100.988 Y73.781 E24.33658
G1 X100.727 Y74.100 E24.39137
G1 X100.465 Y74.420 E24.44877
G1 X100.203 Y74.739 E24.50878
G1 X100.153 Y74.826 E24.52409
G1 X100.103 Y74.913 E24.54011
G1 X100.053 Y75.000 E24.55612
G1 X100.153 Y75.174 E24.58816
G1 X100.203 Y75.261 E24.60149
G1 X100.988 Y76.219 E24.76584
G1 X101.064 Y76.329 E24.78304
G1 X101.152 Y76.487 E24.80766
G1 X101.241 Y76.645 E24.83369
G1 X101.329 Y76.803 E24.86113
G1 X101.418 Y76.961 E24.88998
G1 X101.575 Y77.398 E24.96408
G1 X101.732 Y77.836 E25.03557
G1 X101.889 Y78.273 E25.10445
G1 X101.928 Y78.425 E25.12720
G1 X101.952 Y78.568 E25.14931
G1 X101.976 Y78.711 E25.17242
G1 X101.999 Y78.854 E25.19655
G1 X102.023 Y78.997 E25.22074
G1 X102.011 Y80.535 E25.47716
G1 X101.995 Y80.705 E25.50512
G1 X101.970 Y80.839 E25.52834
G1 X101.945 Y80.972 E25.55249
G1 X101.921 Y81.106 E25.57756
G1 X101.381 Y82.589 E25.86812
G1 X101.304 Y82.754 E25.90082
G1 X101.248 Y82.852 E25.92178
G1 X101.192 Y82.950 E25.94339
G1 X100.085 Y84.317 E26.28032
G1 X99.945 Y84.461 E26.31906
G1 X99.931 Y84.473 E26.32264
G1 X98.144 Y85.563 E26.73280
G1 X98.143 Y85.564 E26.73315
G1 X97.943 Y85.623 E26.77404
G1 X97.019 Y85.807 E26.95765
G1 X96.095 Y85.990 E27.14527
G1 X95.980 Y85.993 E27.16815
G1 X95.670 Y85.985 E27.22256
G1 X94.135 Y85.759 E27.49470
G1 X93.556 Y85.560 E27.60216
G1 X92.947 Y85.245 E27.72534
G1 X92.339 Y84.929 E27.85356
G1 X92.215 Y84.837 E27.88242
G1 X91.721 Y84.448 E27.98288
G1 X91.418 Y84.123 E28.05538
G1 X91.115 Y83.799 E28.13064
G1 X90.812 Y83.474 E28.20568
G1 X90.639 Y83.211 E28.25891
G1 X90.308 Y82.681 E28.34779
G1 X90.154 Y82.315 E28.40614
G1 X90.000 Y81.950 E28.46726
G1 X89.846 Y81.584 E28.52837
G1 X89.761 Y81.223 E28.58566
G1 X89.613 Y80.549 E28.67264
G1 X89.593 Y80.205 E28.71822
G1 X89.574 Y79.861 E28.76627
G1 X89.554 Y79.517 E28.81680
G1 X89.532 Y79.438 E28.82941
G1 X89.510 Y79.359 E28.84263
G1 X89.488 Y79.281 E28.85647
G1 X89.465 Y79.202 E28.87092
G1 X89.460 Y79.181 E28.87493
G1 X89.412 Y79.229 F7800.000
G1 Z0.700 F7800.000
M104 S200 ; set temperature
; PURGING FINISHED
G1 X89.774 Y78.795
G1 F1800
G1 X60.226 Y78.795 E30.29607
G1 X60.236 Y80.590 E30.38243
G1 X59.493 Y82.653 E30.48788
G1 X58.065 Y84.317 E30.59333
G1 X56.267 Y85.323 E30.69244
G1 X54.236 Y85.671 E30.79155
G1 X52.080 Y85.273 E30.89700
G1 X50.205 Y84.137 E31.00245
G1 X48.919 Y82.527 E31.10156
G1 X48.244 Y80.579 E31.20067
G1 X48.285 Y78.387 E31.30612
G1 X49.100 Y76.352 E31.41157
G1 X50.318 Y75.000 E31.49908
G1 X49.100 Y73.648 E31.58659
G1 X48.285 Y71.613 E31.69204
G1 X48.244 Y69.421 E31.79749
G1 X48.919 Y67.473 E31.89660
G1 X50.205 Y65.863 E31.99571
G1 X52.080 Y64.727 E32.10116
G1 X54.236 Y64.329 E32.20661
G1 X56.267 Y64.677 E32.30572
G1 X58.065 Y65.683 E32.40483
G1 X59.493 Y67.347 E32.51028
G1 X60.236 Y69.410 E32.61573
G1 X60.226 Y71.205 E32.70209
G1 X89.774 Y71.205 E34.12322
G1 X89.764 Y69.410 E34.20959
G1 X90.507 Y67.347 E34.31504
G1 X91.935 Y65.683 E34.42049
G1 X93.733 Y64.677 E34.51960
G1 X95.764 Y64.329 E34.61871
G1 X97.920 Y64.727 E34.72416
G1 X99.795 Y65.863 E34.82961
G1 X101.081 Y67.473 E34.92872
G1 X101.756 Y69.421 E35.02783
G1 X101.715 Y71.613 E35.13328
G1 X100.900 Y73.648 E35.23873
G1 X99.682 Y75.000 E35.32624
G1 X100.900 Y76.352 E35.41374
G1 X101.715 Y78.387 E35.51919
G1 X101.756 Y80.579 E35.62464
G1 X101.081 Y82.527 E35.72375
G1 X99.795 Y84.137 E35.82286
G1 X97.920 Y85.273 E35.92831
G1 X95.764 Y85.671 E36.03376
G1 X93.733 Y85.323 E36.13287
G1 X91.935 Y84.317 E36.23198
G1 X90.507 Y82.653 E36.33743
G1 X89.764 Y80.590 E36.44288
G1 X89.773 Y78.855 E36.52636
G1 X89.441 Y79.016 F7800.000
G1 X89.316 Y79.345
G1 F1800
G1 X60.684 Y79.345 E37.90346
G1 X60.406 Y81.659 E38.01555
G1 X59.438 Y83.654 E38.12221
G1 X57.858 Y85.209 E38.22887
G1 X55.968 Y86.112 E38.32960
G1 X53.889 Y86.368 E38.43034
G1 X51.720 Y85.908 E38.53700
G1 X49.830 Y84.747 E38.64365
G1 X48.501 Y83.129 E38.74439
G1 X47.753 Y81.172 E38.84512
G1 X47.680 Y78.956 E38.95178
G1 X48.353 Y76.843 E39.05844
G1 X49.727 Y75.000 E39.16900
G1 X48.353 Y73.157 E39.27956
G1 X47.680 Y71.044 E39.38622
G1 X47.753 Y68.828 E39.49288
G1 X48.501 Y66.871 E39.59362
G1 X49.830 Y65.253 E39.69435
G1 X51.720 Y64.092 E39.80101
G1 X53.889 Y63.632 E39.90767
G1 X55.968 Y63.888 E40.00840
G1 X57.858 Y64.791 E40.10913
G1 X59.438 Y66.346 E40.21579
G1 X60.406 Y68.341 E40.32245
G1 X60.684 Y70.655 E40.43455
G1 X89.316 Y70.655 E41.81164
G1 X89.594 Y68.341 E41.92373
G1 X90.562 Y66.346 E42.03039
G1 X92.142 Y64.791 E42.13705
G1 X94.032 Y63.888 E42.23778
G1 X96.111 Y63.632 E42.33852
G1 X98.280 Y64.092 E42.44518
G1 X100.170 Y65.253 E42.55184
G1 X101.499 Y66.871 E42.65257
G1 X102.247 Y68.828 E42.75330
G1 X102.320 Y71.044 E42.85996
G1 X101.647 Y73.157 E42.96662
G1 X100.273 Y75.000 E43.07718
G1 X101.647 Y76.843 E43.18775
G1 X102.320 Y78.956 E43.29440
G1 X102.247 Y81.172 E43.40106
G1 X101.499 Y83.129 E43.50180
G1 X100.170 Y84.747 E43.60253
G1 X98.280 Y85.908 E43.70919
G1 X96.111 Y86.368 E43.81585
G1 X94.032 Y86.112 E43.91658
G1 X92.142 Y85.209 E44.01732
G1 X90.562 Y83.654 E44.12397
G1 X89.594 Y81.659 E44.23063
G1 X89.323 Y79.404 E44.33984
G1 X89.278 Y78.946 F7800.000
G1 X89.552 Y79.479
G1 F1200
G1 X89.533 Y79.146 E44.34367
G1 X89.487 Y79.070 E44.34470
G1 X60.513 Y79.070 E44.67823
G1 X60.467 Y79.146 E44.67926
G1 X60.448 Y79.479 E44.68309
G1 X60.241 Y81.218 F7800.000
G1 F1200
G1 X60.154 Y81.584 E44.68749
G1 X60.003 Y81.942 E44.69202
G1 X59.852 Y82.300 E44.69655
G1 X59.560 Y82.907 F7800.000
G1 F1200
G1 X59.467 Y83.048 E44.69858
G1 X59.374 Y83.190 E44.70149
G1 X59.281 Y83.332 E44.70529
G1 X59.188 Y83.474 E44.70997
G1 X58.868 Y83.817 E44.72291
G1 X58.215 Y84.514 E44.73537
G1 X58.076 Y84.618 E44.73862
G1 X57.938 Y84.722 E44.74287
G1 X57.661 Y84.929 E44.75147
G1 X56.349 Y85.606 E44.78821
G1 X56.188 Y85.657 E44.79341
G1 X55.865 Y85.759 E44.80478
G1 X54.210 Y85.999 E44.86092
G1 X54.058 Y85.994 E44.86692
G1 X53.905 Y85.990 E44.87296
G1 X51.928 Y85.592 E44.95282
G1 X51.857 Y85.564 E44.95607
G1 X50.069 Y84.473 E45.04563
G1 X49.962 Y84.374 E45.04970
G1 X48.808 Y82.950 E45.10101
G1 X48.644 Y82.657 E45.11041
G1 X48.362 Y81.882 E45.13565
G1 X48.079 Y81.106 E45.16358
G1 X48.050 Y80.948 E45.16904
G1 X47.989 Y80.609 E45.17448
G1 X47.983 Y79.803 E45.19109
G1 X47.977 Y78.997 E45.21186
G1 X48.000 Y78.860 E45.21543
G1 X48.067 Y78.450 E45.22021
G1 X48.252 Y77.880 F7800.000
G1 F1200
G1 X48.417 Y77.420 E45.22560
G1 X48.582 Y76.961 E45.23099
G1 X48.726 Y76.705 E45.23423
G1 X49.884 Y75.155 F7800.000
G1 F1200
G1 X49.994 Y75.020 E45.23570
G1 X50.006 Y75.000 E45.23592
G1 X49.994 Y74.980 E45.23615
G1 X49.884 Y74.845 E45.23762
G1 X48.726 Y73.295 F7800.000
G1 F1200
G1 X48.582 Y73.039 E45.24086
G1 X48.417 Y72.580 E45.24625
G1 X48.252 Y72.120 E45.25164
G1 X48.067 Y71.550 F7800.000
G1 F1200
G1 X48.045 Y71.413 E45.25323
G1 X48.022 Y71.276 E45.25548
G1 X47.977 Y71.003 E45.25987
G1 X47.991 Y69.369 E45.28568
G1 X48.021 Y69.211 E45.28919
G1 X48.050 Y69.052 E45.29368
G1 X48.079 Y68.894 E45.29819
G1 X48.660 Y67.309 E45.34543
G1 X48.734 Y67.180 E45.35046
G1 X48.808 Y67.050 E45.35547
G1 X49.998 Y65.588 E45.41876
G1 X50.069 Y65.527 E45.42191
G1 X51.857 Y64.436 E45.49226
G1 X51.982 Y64.392 E45.49671
G1 X53.905 Y64.010 E45.56256
G1 X54.257 Y64.004 E45.57436
G1 X55.061 Y64.122 E45.60489
G1 X55.865 Y64.241 E45.63928
G1 X56.026 Y64.292 E45.64644
G1 X56.380 Y64.407 E45.65570
G1 X57.021 Y64.739 E45.67752
G1 X57.661 Y65.071 E45.69939
G1 X57.938 Y65.278 E45.70988
G1 X58.228 Y65.498 E45.71462
G1 X58.548 Y65.841 E45.72294
G1 X58.868 Y66.183 E45.73357
G1 X59.188 Y66.526 E45.74650
G1 X59.281 Y66.668 E45.75119
G1 X59.560 Y67.093 E45.75727
G1 X59.852 Y67.700 F7800.000
G1 F1200
G1 X60.003 Y68.058 E45.76180
G1 X60.154 Y68.416 E45.76633
G1 X60.241 Y68.782 E45.77073
G1 X60.448 Y70.521 F7800.000
G1 F1200
G1 X60.467 Y70.854 E45.77456
G1 X60.513 Y70.930 E45.77559
G1 X89.487 Y70.930 E46.10912
G1 X89.533 Y70.854 E46.11015
G1 X89.552 Y70.521 E46.11398
G1 X89.759 Y68.782 F7800.000
G1 F1200
G1 X89.803 Y68.599 E46.11618
G1 X89.846 Y68.416 E46.11838
G1 X90.148 Y67.700 E46.12744
G1 X90.440 Y67.093 F7800.000
G1 F1200
G1 X90.533 Y66.952 E46.12947
G1 X90.626 Y66.810 E46.13238
G1 X90.719 Y66.668 E46.13618
G1 X90.812 Y66.526 E46.14086
G1 X91.132 Y66.183 E46.15380
G1 X91.785 Y65.486 E46.16626
G1 X91.924 Y65.382 E46.16951
G1 X92.062 Y65.278 E46.17376
G1 X92.339 Y65.071 E46.18237
G1 X93.651 Y64.394 E46.21910
G1 X93.773 Y64.356 E46.22283
G1 X93.893 Y64.317 E46.22710
G1 X94.135 Y64.241 E46.23561
G1 X95.790 Y64.001 E46.29176
G1 X95.942 Y64.006 E46.29776
G1 X96.095 Y64.010 E46.30379
