; generated by Slic3r Prusa Edition 1.39.1-alpha-prusa3d-win64 on 2018-02-18 at 19:29:02

; 

; external perimeters extrusion width = 0.45mm
; perimeters extrusion width = 0.45mm
; infill extrusion width = 0.45mm
; solid infill extrusion width = 0.45mm
; top infill extrusion width = 0.40mm
; first layer extrusion width = 0.80mm

M107
M104 S205 ; set temperature
G28 ; home all axes
G1 Z5 F5000 ; lift nozzle
; Filament gcode
M109 S205 ; set temperature and wait for it to be reached
G21 ; set units to millimeters
G90 ; use absolute coordinates
M82 ; use absolute distances for extrusion
G92 E0
G1 Z0.400 F7800.000
G1 E-2.00000 F1800.00000
G92 E0
G1 X57.634 Y38.463 F7800.000
G1 E2.00000 F1800.00000
G1 F1800
G1 X58.198 Y37.735 E2.10939
G1 X58.861 Y37.087 E2.21955
G1 X59.602 Y36.539 E2.32894
G1 X60.416 Y36.096 E2.43910
G1 X61.278 Y35.770 E2.54849
G1 X62.183 Y35.565 E2.65864
G1 X63.190 Y35.486 E2.77865
G1 X86.794 Y35.486 E5.58197
G1 X88.029 Y35.602 E5.72925
G1 X89.227 Y35.945 E5.87729
G1 X90.341 Y36.503 E6.02533
G1 X91.328 Y37.254 E6.17262
G1 X92.164 Y38.179 E6.32066
G1 X92.812 Y39.236 E6.46794
G1 X93.256 Y40.401 E6.61599
G1 X93.477 Y41.628 E6.76403
G1 X93.502 Y107.832 E14.62679
G1 X93.416 Y108.871 E14.75059
G1 X93.170 Y109.884 E14.87439
G1 X92.816 Y110.755 E14.98606
G1 X92.344 Y111.568 E15.09773
G1 X91.764 Y112.308 E15.20940
G1 X91.080 Y112.963 E15.32183
G1 X90.317 Y113.512 E15.43350
G1 X89.484 Y113.949 E15.54517
G1 X88.599 Y114.265 E15.65684
G1 X87.678 Y114.455 E15.76851
G1 X86.804 Y114.514 E15.87259
G1 X63.142 Y114.514 E18.68275
G1 X62.123 Y114.425 E18.80427
G1 X61.129 Y114.183 E18.92580
G1 X60.200 Y113.800 E19.04505
G1 X59.339 Y113.284 E19.16431
G1 X58.564 Y112.645 E19.28356
G1 X57.894 Y111.898 E19.40281
G1 X57.342 Y111.059 E19.52207
G1 X56.922 Y110.147 E19.64132
G1 X56.642 Y109.182 E19.76057
G1 X56.510 Y108.187 E19.87983
G1 X56.498 Y42.168 E27.72059
G1 X56.584 Y41.129 E27.84440
G1 X56.830 Y40.116 E27.96820
G1 X57.175 Y39.262 E28.07759
G1 X57.604 Y38.516 E28.17986
G1 E26.17986 F1800.00000
G92 E0
G1 X85.673 Y105.839 F7800.000
G1 E2.00000 F1800.00000
G1 F1800
G1 X85.673 Y106.686 E2.10056
G1 X64.327 Y106.686 E4.63580
G1 X64.327 Y43.314 E12.16215
G1 X85.673 Y43.314 E14.69739
G1 X85.673 Y44.161 E14.79795
G1 X65.173 Y44.161 E17.23263
G1 X65.173 Y105.839 E24.55787
G1 X85.613 Y105.839 E26.98543
G1 E24.98543 F1800.00000
G92 E0
G1 X65.887 Y44.875 F7800.000
G1 E2.00000 F1800.00000
G1 F1800
G1 X65.887 Y105.125 E9.15560
G1 X86.387 Y105.125 E11.59029
G1 X86.387 Y107.400 E11.86048
G1 X63.613 Y107.400 E14.56535
G1 X63.613 Y42.600 E22.26134
G1 X86.387 Y42.600 E24.96621
G1 X86.387 Y44.875 E25.23641
G1 X65.947 Y44.875 E27.66397
G1 X65.488 Y44.890 F7800.000
G1 E25.66397 F1800.00000
G92 E0
G1 X85.316 Y43.737 F7800.000
G1 E2.00000 F1800.00000
G1 F1800
G1 X64.816 Y43.738 E2.15915
G1 X64.761 Y43.749 E2.15959
G1 X64.750 Y43.804 E2.16002
G1 X64.761 Y106.251 E2.64483
G1 X85.316 Y106.262 E2.80441
G1 Z0.700 F7800.000
M104 S200 ; set temperature
G1 E0.80441 F1800.00000
G92 E0
G1 X65.291 Y44.279 F7800.000
G1 E2.00000 F1800.00000
G1 F3600
G1 X65.291 Y105.721 E4.95517
G1 X85.791 Y105.721 E5.94115
G1 X85.791 Y106.804 E5.99322
G1 X64.209 Y106.804 E7.03126
G1 X64.209 Y43.196 E10.09057
G1 X85.791 Y43.196 E11.12861
G1 X85.791 Y44.279 E11.18068
G1 X65.351 Y44.279 E12.16377
G1 X65.677 Y44.664 F7800.000
G1 F3600
G1 X65.677 Y105.336 E15.08185
G1 X86.177 Y105.336 E16.06783
G1 X86.177 Y107.189 E16.15699
G1 X63.823 Y107.189 E17.23213
G1 X63.823 Y42.811 E20.32853
G1 X86.177 Y42.811 E21.40367
G1 X86.177 Y44.664 E21.49283
G1 X65.737 Y44.664 E22.47592
G1 X66.063 Y45.050 F7800.000
G1 F1800
G1 X66.063 Y104.950 E25.35691
G1 X86.562 Y104.950 E26.34289
G1 X86.562 Y107.575 E26.46914
G1 X63.438 Y107.575 E27.58138
G1 X63.438 Y42.425 E30.71487
G1 X86.562 Y42.425 E31.82710
G1 X86.562 Y45.050 E31.95336
G1 X66.123 Y45.050 E32.93645
G1 X65.663 Y45.067 F7800.000
G1 X65.897 Y44.163 F7800.000
G1 F1200
G1 X66.574 Y43.485 E32.98270
G1 X67.122 Y43.485 E33.00910
G1 X66.617 Y43.990 E33.04350
G1 X67.165 Y43.990 E33.06990
G1 X67.669 Y43.485 E33.10430
G1 X68.216 Y43.485 E33.13070
G1 X67.712 Y43.990 E33.16510
G1 X68.259 Y43.990 E33.19151
G1 X68.763 Y43.485 E33.22591
G1 X69.310 Y43.485 E33.25231
G1 X68.806 Y43.990 E33.28671
G1 X69.353 Y43.990 E33.31311
G1 X69.857 Y43.485 E33.34751
G1 X70.404 Y43.485 E33.37392
G1 X69.900 Y43.990 E33.40832
G1 X70.447 Y43.990 E33.43472
G1 X70.951 Y43.485 E33.46912
G1 X71.499 Y43.485 E33.49552
G1 X70.994 Y43.990 E33.52992
G1 X71.542 Y43.990 E33.55632
G1 X72.046 Y43.485 E33.59073
G1 X72.593 Y43.485 E33.61713
G1 X72.089 Y43.990 E33.65153
G1 X72.636 Y43.990 E33.67793
G1 X73.140 Y43.485 E33.71233
G1 X73.687 Y43.485 E33.73873
G1 X73.183 Y43.990 E33.77314
G1 X73.730 Y43.990 E33.79954
G1 X74.234 Y43.485 E33.83394
G1 X74.781 Y43.485 E33.86034
G1 X74.277 Y43.990 E33.89474
G1 X74.824 Y43.990 E33.92114
G1 X75.328 Y43.485 E33.95555
G1 X75.876 Y43.485 E33.98195
G1 X75.371 Y43.990 E34.01635
G1 X75.919 Y43.990 E34.04275
G1 X76.423 Y43.485 E34.07715
G1 X76.970 Y43.485 E34.10355
G1 X76.466 Y43.990 E34.13796
G1 X77.013 Y43.990 E34.16436
G1 X77.517 Y43.485 E34.19876
G1 X78.064 Y43.485 E34.22516
G1 X77.560 Y43.990 E34.25956
G1 X78.107 Y43.990 E34.28596
G1 X78.611 Y43.485 E34.32037
G1 X79.158 Y43.485 E34.34677
G1 X78.654 Y43.990 E34.38117
G1 X79.201 Y43.990 E34.40757
G1 X79.705 Y43.485 E34.44197
G1 X80.253 Y43.485 E34.46837
G1 X79.748 Y43.990 E34.50278
G1 X80.296 Y43.990 E34.52918
G1 X80.800 Y43.485 E34.56358
G1 X81.347 Y43.485 E34.58998
G1 X80.843 Y43.990 E34.62438
G1 X81.390 Y43.990 E34.65078
G1 X81.894 Y43.485 E34.68519
G1 X82.441 Y43.485 E34.71159
G1 X81.937 Y43.990 E34.74599
G1 X82.484 Y43.990 E34.77239
G1 X82.988 Y43.485 E34.80679
G1 X83.535 Y43.485 E34.83319
G1 X83.031 Y43.990 E34.86760
G1 X83.578 Y43.990 E34.89400
G1 X84.082 Y43.485 E34.92840
G1 X84.630 Y43.485 E34.95480
G1 X84.125 Y43.990 E34.98920
G1 X84.673 Y43.990 E35.01560
G1 X85.177 Y43.485 E35.05000
G1 X85.502 Y43.485 E35.06571
G1 X85.502 Y43.707 E35.07641
G1 X85.046 Y44.163 E35.10752
G1 X65.107 Y43.312 F7800.000
G1 F1200
G1 X64.498 Y43.921 E35.14905
G1 X64.498 Y44.468 E35.17545
G1 X65.480 Y43.485 E35.24248
G1 X66.027 Y43.485 E35.26888
G1 X65.523 Y43.990 E35.30328
G1 X65.002 Y43.990 E35.32843
G1 X65.002 Y44.511 E35.35357
G1 X64.498 Y45.015 E35.38797
G1 X64.498 Y45.562 E35.41437
G1 X65.002 Y45.058 E35.44878
G1 X65.002 Y45.605 E35.47518
G1 X64.498 Y46.109 E35.50958
G1 X64.498 Y46.656 E35.53598
G1 X65.002 Y46.152 E35.57038
G1 X65.002 Y46.699 E35.59678
G1 X64.498 Y47.203 E35.63119
G1 X64.498 Y47.750 E35.65759
G1 X65.002 Y47.246 E35.69199
G1 X65.002 Y47.793 E35.71839
G1 X64.498 Y48.298 E35.75279
G1 X64.498 Y48.845 E35.77919
G1 X65.002 Y48.341 E35.81359
G1 X65.002 Y48.888 E35.84000
G1 X64.498 Y49.392 E35.87440
G1 X64.498 Y49.939 E35.90080
G1 X65.002 Y49.435 E35.93520
G1 X65.002 Y49.982 E35.96160
G1 X64.498 Y50.486 E35.99600
G1 X64.498 Y51.033 E36.02240
G1 X65.002 Y50.529 E36.05681
G1 X65.002 Y51.076 E36.08321
G1 X64.498 Y51.580 E36.11761
G1 X64.498 Y52.127 E36.14401
G1 X65.002 Y51.623 E36.17841
G1 X65.002 Y52.170 E36.20481
G1 X64.498 Y52.675 E36.23922
G1 X64.498 Y53.222 E36.26562
G1 X65.002 Y52.718 E36.30002
G1 X65.002 Y53.265 E36.32642
G1 X64.498 Y53.769 E36.36082
G1 X64.498 Y54.316 E36.38722
G1 X65.002 Y53.812 E36.42163
G1 X65.002 Y54.359 E36.44803
G1 X64.498 Y54.863 E36.48243
G1 X64.498 Y55.410 E36.50883
G1 X65.002 Y54.906 E36.54323
G1 X65.002 Y55.453 E36.56963
G1 X64.498 Y55.957 E36.60404
G1 X64.498 Y56.504 E36.63044
G1 X65.002 Y56.000 E36.66484
G1 X65.002 Y56.547 E36.69124
G1 X64.498 Y57.052 E36.72564
G1 X64.498 Y57.599 E36.75204
G1 X65.002 Y57.095 E36.78645
G1 X65.002 Y57.642 E36.81285
G1 X64.498 Y58.146 E36.84725
G1 X64.498 Y58.693 E36.87365
G1 X65.002 Y58.189 E36.90805
G1 X65.002 Y58.736 E36.93445
G1 X64.498 Y59.240 E36.96885
G1 X64.498 Y59.787 E36.99526
G1 X65.002 Y59.283 E37.02966
G1 X65.002 Y59.830 E37.05606
G1 X64.498 Y60.334 E37.09046
G1 X64.498 Y60.881 E37.11686
G1 X65.002 Y60.377 E37.15126
G1 X65.002 Y60.924 E37.17767
G1 X64.498 Y61.429 E37.21207
G1 X64.498 Y61.976 E37.23847
G1 X65.002 Y61.472 E37.27287
G1 X65.002 Y62.019 E37.29927
G1 X64.498 Y62.523 E37.33367
G1 X64.498 Y63.070 E37.36007
G1 X65.002 Y62.566 E37.39448
G1 X65.002 Y63.113 E37.42088
G1 X64.498 Y63.617 E37.45528
G1 X64.498 Y64.164 E37.48168
G1 X65.002 Y63.660 E37.51608
G1 X65.002 Y64.207 E37.54248
G1 X64.498 Y64.711 E37.57689
G1 X64.498 Y65.258 E37.60329
G1 X65.002 Y64.754 E37.63769
G1 X65.002 Y65.301 E37.66409
G1 X64.498 Y65.806 E37.69849
G1 X64.498 Y66.353 E37.72489
G1 X65.002 Y65.849 E37.75930
G1 X65.002 Y66.396 E37.78570
G1 X64.498 Y66.900 E37.82010
G1 X64.498 Y67.447 E37.84650
G1 X65.002 Y66.943 E37.88090
G1 X65.002 Y67.490 E37.90730
G1 X64.498 Y67.994 E37.94171
G1 X64.498 Y68.541 E37.96811
G1 X65.002 Y68.037 E38.00251
G1 X65.002 Y68.584 E38.02891
G1 X64.498 Y69.088 E38.06331
G1 X64.498 Y69.635 E38.08971
G1 X65.002 Y69.131 E38.12412
G1 X65.002 Y69.678 E38.15052
G1 X64.498 Y70.183 E38.18492
G1 X64.498 Y70.730 E38.21132
G1 X65.002 Y70.226 E38.24572
G1 X65.002 Y70.773 E38.27212
G1 X64.498 Y71.277 E38.30652
G1 X64.498 Y71.824 E38.33293
G1 X65.002 Y71.320 E38.36733
G1 X65.002 Y71.867 E38.39373
G1 X64.498 Y72.371 E38.42813
G1 X64.498 Y72.918 E38.45453
G1 X65.002 Y72.414 E38.48893
G1 X65.002 Y72.961 E38.51533
G1 X64.498 Y73.465 E38.54974
G1 X64.498 Y74.012 E38.57614
G1 X65.002 Y73.508 E38.61054
G1 X65.002 Y74.055 E38.63694
G1 X64.498 Y74.560 E38.67134
G1 X64.498 Y75.107 E38.69774
G1 X65.002 Y74.603 E38.73215
G1 X65.002 Y75.150 E38.75855
G1 X64.498 Y75.654 E38.79295
G1 X64.498 Y76.201 E38.81935
G1 X65.002 Y75.697 E38.85375
G1 X65.002 Y76.244 E38.88015
G1 X64.498 Y76.748 E38.91456
G1 X64.498 Y77.295 E38.94096
G1 X65.002 Y76.791 E38.97536
G1 X65.002 Y77.338 E39.00176
G1 X64.498 Y77.842 E39.03616
G1 X64.498 Y78.389 E39.06256
G1 X65.002 Y77.885 E39.09697
G1 X65.002 Y78.432 E39.12337
G1 X64.498 Y78.937 E39.15777
G1 X64.498 Y79.484 E39.18417
G1 X65.002 Y78.980 E39.21857
G1 X65.002 Y79.527 E39.24497
G1 X64.498 Y80.031 E39.27938
G1 X64.498 Y80.578 E39.30578
G1 X65.002 Y80.074 E39.34018
G1 X65.002 Y80.621 E39.36658
G1 X64.498 Y81.125 E39.40098
G1 X64.498 Y81.672 E39.42738
G1 X65.002 Y81.168 E39.46178
G1 X65.002 Y81.715 E39.48819
G1 X64.498 Y82.219 E39.52259
G1 X64.498 Y82.766 E39.54899
G1 X65.002 Y82.262 E39.58339
G1 X65.002 Y82.809 E39.60979
G1 X64.498 Y83.314 E39.64419
G1 X64.498 Y83.861 E39.67059
G1 X65.002 Y83.357 E39.70500
G1 X65.002 Y83.904 E39.73140
G1 X64.498 Y84.408 E39.76580
G1 X64.498 Y84.955 E39.79220
G1 X65.002 Y84.451 E39.82660
G1 X65.002 Y84.998 E39.85300
G1 X64.498 Y85.502 E39.88741
G1 X64.498 Y86.049 E39.91381
G1 X65.002 Y85.545 E39.94821
G1 X65.002 Y86.092 E39.97461
G1 X64.498 Y86.596 E40.00901
G1 X64.498 Y87.143 E40.03541
G1 X65.002 Y86.639 E40.06982
G1 X65.002 Y87.186 E40.09622
G1 X64.498 Y87.691 E40.13062
G1 X64.498 Y88.238 E40.15702
G1 X65.002 Y87.734 E40.19142
G1 X65.002 Y88.281 E40.21782
G1 X64.498 Y88.785 E40.25223
G1 X64.498 Y89.332 E40.27863
G1 X65.002 Y88.828 E40.31303
G1 X65.002 Y89.375 E40.33943
G1 X64.498 Y89.879 E40.37383
G1 X64.498 Y90.426 E40.40023
G1 X65.002 Y89.922 E40.43464
G1 X65.002 Y90.469 E40.46104
G1 X64.498 Y90.973 E40.49544
G1 X64.498 Y91.520 E40.52184
G1 X65.002 Y91.016 E40.55624
G1 X65.002 Y91.563 E40.58264
G1 X64.498 Y92.068 E40.61705
G1 X64.498 Y92.615 E40.64345
G1 X65.002 Y92.111 E40.67785
G1 X65.002 Y92.658 E40.70425
G1 X64.498 Y93.162 E40.73865
G1 X64.498 Y93.709 E40.76505
G1 X65.002 Y93.205 E40.79945
G1 X65.002 Y93.752 E40.82586
G1 X64.498 Y94.256 E40.86026
G1 X64.498 Y94.803 E40.88666
G1 X65.002 Y94.299 E40.92106
G1 X65.002 Y94.846 E40.94746
G1 X64.498 Y95.350 E40.98186
G1 X64.498 Y95.897 E41.00826
G1 X65.002 Y95.393 E41.04267
G1 X65.002 Y95.940 E41.06907
G1 X64.498 Y96.445 E41.10347
G1 X64.498 Y96.992 E41.12987
G1 X65.002 Y96.488 E41.16427
G1 X65.002 Y97.035 E41.19067
G1 X64.498 Y97.539 E41.22508
G1 X64.498 Y98.086 E41.25148
G1 X65.002 Y97.582 E41.28588
G1 X65.002 Y98.129 E41.31228
G1 X64.498 Y98.633 E41.34668
G1 X64.498 Y99.180 E41.37308
G1 X65.002 Y98.676 E41.40749
G1 X65.002 Y99.223 E41.43389
G1 X64.498 Y99.727 E41.46829
G1 X64.498 Y100.274 E41.49469
G1 X65.002 Y99.770 E41.52909
G1 X65.002 Y100.317 E41.55549
G1 X64.498 Y100.822 E41.58990
G1 X64.498 Y101.369 E41.61630
G1 X65.002 Y100.865 E41.65070
G1 X65.002 Y101.412 E41.67710
G1 X64.498 Y101.916 E41.71150
G1 X64.498 Y102.463 E41.73790
G1 X65.002 Y101.959 E41.77231
G1 X65.002 Y102.506 E41.79871
G1 X64.498 Y103.010 E41.83311
G1 X64.498 Y103.557 E41.85951
G1 X65.002 Y103.053 E41.89391
G1 X65.002 Y103.600 E41.92031
G1 X64.498 Y104.104 E41.95471
G1 X64.498 Y104.651 E41.98112
G1 X65.002 Y104.147 E42.01552
G1 X65.002 Y104.694 E42.04192
G1 X64.498 Y105.199 E42.07632
G1 X64.498 Y105.746 E42.10272
G1 X65.002 Y105.242 E42.13712
G1 X65.002 Y105.789 E42.16352
G1 X64.498 Y106.293 E42.19793
G1 X64.498 Y106.515 E42.20863
G1 X64.823 Y106.515 E42.22433
G1 X65.327 Y106.010 E42.25873
G1 X65.875 Y106.010 E42.28513
G1 X65.370 Y106.515 E42.31953
G1 X65.918 Y106.515 E42.34593
G1 X66.422 Y106.010 E42.38034
G1 X66.969 Y106.010 E42.40674
G1 X66.465 Y106.515 E42.44114
G1 X67.012 Y106.515 E42.46754
G1 X67.516 Y106.010 E42.50194
G1 X68.063 Y106.010 E42.52835
G1 X67.559 Y106.515 E42.56275
G1 X68.106 Y106.515 E42.58915
G1 X68.610 Y106.010 E42.62355
G1 X69.157 Y106.010 E42.64995
G1 X68.653 Y106.515 E42.68436
G1 X69.200 Y106.515 E42.71076
G1 X69.704 Y106.010 E42.74516
G1 X70.252 Y106.010 E42.77156
G1 X69.747 Y106.515 E42.80596
G1 X70.295 Y106.515 E42.83236
G1 X70.799 Y106.010 E42.86677
G1 X71.346 Y106.010 E42.89317
G1 X70.842 Y106.515 E42.92757
G1 X71.389 Y106.515 E42.95397
G1 X71.893 Y106.010 E42.98837
G1 X72.440 Y106.010 E43.01477
G1 X71.936 Y106.515 E43.04918
G1 X72.483 Y106.515 E43.07558
G1 X72.987 Y106.010 E43.10998
G1 X73.534 Y106.010 E43.13638
G1 X73.030 Y106.515 E43.17078
G1 X73.577 Y106.515 E43.19718
G1 X74.081 Y106.010 E43.23159
G1 X74.629 Y106.010 E43.25799
G1 X74.124 Y106.515 E43.29239
G1 X74.672 Y106.515 E43.31879
G1 X75.176 Y106.010 E43.35319
G1 X75.723 Y106.010 E43.37959
G1 X75.219 Y106.515 E43.41400
G1 X75.766 Y106.515 E43.44040
G1 X76.270 Y106.010 E43.47480
G1 X76.817 Y106.010 E43.50120
G1 X76.313 Y106.515 E43.53560
G1 X76.860 Y106.515 E43.56200
G1 X77.364 Y106.010 E43.59641
G1 X77.911 Y106.010 E43.62281
G1 X77.407 Y106.515 E43.65721
G1 X77.954 Y106.515 E43.68361
G1 X78.458 Y106.010 E43.71801
G1 X79.006 Y106.010 E43.74442
G1 X78.501 Y106.515 E43.77882
G1 X79.049 Y106.515 E43.80522
G1 X79.553 Y106.010 E43.83962
G1 X80.100 Y106.010 E43.86602
G1 X79.596 Y106.515 E43.90043
G1 X80.143 Y106.515 E43.92683
G1 X80.647 Y106.010 E43.96123
G1 X81.194 Y106.010 E43.98763
G1 X80.690 Y106.515 E44.02203
G1 X81.237 Y106.515 E44.04843
G1 X81.741 Y106.010 E44.08284
G1 X82.288 Y106.010 E44.10924
G1 X81.784 Y106.515 E44.14364
G1 X82.331 Y106.515 E44.17004
G1 X82.835 Y106.010 E44.20444
G1 X83.383 Y106.010 E44.23084
G1 X82.878 Y106.515 E44.26525
G1 X83.426 Y106.515 E44.29165
G1 X83.930 Y106.010 E44.32605
G1 X84.477 Y106.010 E44.35245
G1 X83.973 Y106.515 E44.38685
G1 X84.520 Y106.515 E44.41325
G1 X85.024 Y106.010 E44.44766
G1 X85.502 Y106.010 E44.47073
G1 X85.502 Y106.079 E44.47406
G1 X84.893 Y106.688 E44.51559
G1 Z1.000 F7800.000
G1 E42.51559 F1800.00000
G92 E0
G1 X65.291 Y44.279 F7800.000
G1 E2.00000 F1800.00000
G1 F3600
G1 X65.291 Y105.721 E4.95517
G1 X85.791 Y105.721 E5.94115
G1 X85.791 Y106.804 E5.99322
G1 X64.209 Y106.804 E7.03126
G1 X64.209 Y43.196 E10.09057
G1 X85.791 Y43.196 E11.12861
G1 X85.791 Y44.279 E11.18068
G1 X65.351 Y44.279 E12.16377
G1 X65.677 Y44.664 F7800.000
G1 F3600
G1 X65.677 Y105.336 E15.08185
G1 X86.177 Y105.336 E16.06783
G1 X86.177 Y107.189 E16.15699
G1 X63.823 Y107.189 E17.23213
G1 X63.823 Y42.811 E20.32853
G1 X86.177 Y42.811 E21.40367
G1 X86.177 Y44.664 E21.49283
G1 X65.737 Y44.664 E22.47592
G1 X66.063 Y45.050 F7800.000
G1 F1800
G1 X66.063 Y104.950 E25.35691
G1 X86.562 Y104.950 E26.34289
G1 X86.562 Y107.575 E26.46914
G1 X63.438 Y107.575 E27.58138
G1 X63.438 Y42.425 E30.71487
G1 X86.562 Y42.425 E31.82710
G1 X86.562 Y45.050 E31.95336
