; generated by Slic3r Prusa Edition 1.39.1-alpha-prusa3d-win64 on 2018-05-27 at 11:16:41

; 

; external perimeters extrusion width = 0.45mm
; perimeters extrusion width = 0.45mm
; infill extrusion width = 0.45mm
; solid infill extrusion width = 0.45mm
; top infill extrusion width = 0.40mm
; first layer extrusion width = 0.80mm

M107
M104 S200 ; set temperature
G28 ; home all axes
G1 Z5 F5000 ; lift nozzle
; Filament gcode
M109 S200 ; set temperature and wait for it to be reached
G21 ; set units to millimeters
G90 ; use absolute coordinates
M82 ; use absolute distances for extrusion
G92 E0
G1 Z0.400 F7800.000
G1 E-2.00000 F1800.00000
G92 E0
G1 X47.345 Y37.662 F7800.000
G1 E2.00000 F1800.00000
G1 F1800
G1 X48.602 Y36.709 E2.18736
G1 X50.047 Y36.076 E2.37471
G1 X51.600 Y35.798 E2.56207
G1 X98.006 Y35.786 E8.07352
G1 X99.254 Y35.904 E8.22232
G1 X100.457 Y36.252 E8.37111
G1 X101.575 Y36.817 E8.51991
G1 X102.569 Y37.580 E8.66871
G1 X103.404 Y38.515 E8.81751
G1 X104.050 Y39.588 E8.96631
G1 X104.486 Y40.763 E9.11511
G1 X104.695 Y41.998 E9.26391
G1 X104.713 Y107.602 E17.05543
G1 X104.635 Y108.527 E17.16559
G1 X104.429 Y109.437 E17.27650
G1 X104.100 Y110.305 E17.38665
G1 X103.652 Y111.124 E17.49756
G1 X102.627 Y112.365 E17.68869
G1 X101.331 Y113.330 E17.88058
G1 X99.842 Y113.957 E18.07246
G1 X98.246 Y114.210 E18.26435
G1 X51.859 Y114.213 E23.77354
G1 X50.942 Y114.130 E23.88293
G1 X50.044 Y113.923 E23.99233
G1 X49.184 Y113.595 E24.10172
G1 X48.376 Y113.152 E24.21112
G1 X47.122 Y112.113 E24.40451
G1 X46.155 Y110.803 E24.59791
G1 X45.530 Y109.293 E24.79206
G1 X45.288 Y107.682 E24.98545
G1 X45.287 Y42.398 E32.73902
G1 X45.365 Y41.473 E32.84917
G1 X45.571 Y40.563 E32.96008
G1 X45.900 Y39.695 E33.07024
G1 X46.348 Y38.876 E33.18115
G1 X47.307 Y37.708 E33.36062
G1 E31.36062 F1800.00000
G92 E0
G1 X96.400 Y44.100 F7800.000
G1 E2.00000 F1800.00000
G1 F1800
G1 X53.600 Y44.100 E7.08315
G1 X53.600 Y105.900 E14.42284
G1 X96.400 Y105.900 E19.50599
G1 X96.400 Y75.900 E23.06894
G1 X97.600 Y75.900 E23.21146
G1 X97.600 Y107.100 E26.91693
G1 X52.400 Y107.100 E32.28512
G1 X52.400 Y42.900 E39.90984
G1 X97.600 Y42.900 E45.27803
G1 X97.600 Y54.100 E46.60820
G1 X96.400 Y54.100 E46.75072
G1 X96.400 Y44.160 E47.93124
G1 X96.384 Y43.700 F7800.000
G1 X96.757 Y43.500 F7800.000
G1 F1800
G1 X53.243 Y43.500 E50.82583
G1 X53.142 Y43.521 E50.83266
G1 F1800
G1 X53.042 Y43.542 E50.84092
G1 X53.000 Y43.743 E50.85744
G1 F1800
G1 X53.000 Y106.257 E55.01591
G1 X53.021 Y106.358 E55.02275
G1 F1800
G1 X53.042 Y106.458 E55.03101
G1 X53.243 Y106.500 E55.04753
G1 F1800
G1 X96.757 Y106.500 E57.94211
G1 X96.858 Y106.479 E57.94894
G1 F1800
G1 X96.958 Y106.458 E57.95720
G1 X97.000 Y106.257 E57.97372
G1 F1800
G1 X97.000 Y76.257 E59.96934
G1 E57.96934 F1800.00000
G92 E0
G1 X97.000 Y53.743 F7800.000
G1 E2.00000 F1800.00000
G1 F1800
G1 X97.000 Y43.743 E2.66520
G1 X96.979 Y43.642 E2.67204
G1 F1800
G1 X96.958 Y43.542 E2.68030
G1 X96.757 Y43.500 E2.69682
G1 Z0.700 F7800.000
G1 X96.611 Y43.889 F7800.000
G1 F3600
G1 X53.389 Y43.889 E4.77561
G1 X53.389 Y106.111 E7.76824
G1 X96.611 Y106.111 E9.84704
G1 X96.611 Y76.111 E11.28993
G1 X97.389 Y76.111 E11.32739
G1 X97.389 Y106.889 E12.80774
G1 X52.611 Y106.889 E14.96145
G1 X52.611 Y43.111 E18.02899
G1 X97.389 Y43.111 E20.18269
G1 X97.389 Y53.889 E20.70112
G1 X96.611 Y53.889 E20.73857
G1 X96.611 Y43.949 E21.21665
G1 X96.225 Y44.275 F7800.000
G1 F1800
G1 X53.775 Y44.275 E23.25835
G1 X53.775 Y105.725 E26.21389
G1 X96.225 Y105.725 E28.25559
G1 X96.225 Y75.725 E29.69849
G1 X97.775 Y75.725 E29.77303
G1 X97.775 Y107.275 E31.29048
G1 X52.225 Y107.275 E33.48128
G1 X52.225 Y42.725 E36.58592
G1 X97.775 Y42.725 E38.77672
G1 X97.775 Y54.275 E39.33223
G1 X96.225 Y54.275 E39.40678
G1 X96.225 Y44.335 E39.88486
G1 X96.205 Y43.876 F7800.000
G1 X96.803 Y43.500 F7800.000
G1 F1200
G1 X53.197 Y43.500 E41.67297
G1 X53.115 Y43.517 E41.67638
G1 F1200
G1 X53.034 Y43.534 E41.68049
G1 X53.000 Y43.697 E41.68871
G1 F1200
G1 X53.000 Y106.303 E44.25591
G1 X53.017 Y106.385 E44.25932
G1 F1200
G1 X53.034 Y106.466 E44.26343
G1 X53.197 Y106.500 E44.27165
G1 F1200
G1 X96.803 Y106.500 E46.05976
G1 X96.885 Y106.483 E46.06317
G1 F1200
G1 X96.966 Y106.466 E46.06727
G1 X97.000 Y106.303 E46.07549
G1 F1200
G1 X97.000 Y76.303 E47.30565
G1 E45.30565 F1800.00000
G92 E0
G1 X97.000 Y53.697 F7800.000
G1 E2.00000 F1800.00000
G1 F1200
G1 X97.000 Y43.697 E2.41005
G1 X96.983 Y43.615 E2.41346
G1 F1200
G1 X96.966 Y43.534 E2.41757
G1 X96.803 Y43.500 E2.42579
G1 Z1.000 F7800.000
G1 X96.611 Y43.889 F7800.000
G1 F3600
G1 X53.389 Y43.889 E4.50458
G1 X53.389 Y106.111 E7.49721
G1 X96.611 Y106.111 E9.57601
G1 X96.611 Y76.111 E11.01890
G1 X97.389 Y76.111 E11.05636
G1 X97.389 Y106.889 E12.53671
G1 X52.611 Y106.889 E14.69042
G1 X52.611 Y43.111 E17.75796
G1 X97.389 Y43.111 E19.91166
G1 X97.389 Y53.889 E20.43009
G1 X96.611 Y53.889 E20.46754
G1 X96.611 Y43.949 E20.94562
G1 X96.225 Y44.275 F7800.000
G1 F1800
G1 X53.775 Y44.275 E22.98732
G1 X53.775 Y105.725 E25.94286
G1 X96.225 Y105.725 E27.98456
G1 X96.225 Y75.725 E29.42745
G1 X97.775 Y75.725 E29.50200
G1 X97.775 Y107.275 E31.01945
G1 X52.225 Y107.275 E33.21025
G1 X52.225 Y42.725 E36.31489
G1 X97.775 Y42.725 E38.50568
G1 X97.775 Y54.275 E39.06120
G1 X96.225 Y54.275 E39.13575
G1 X96.225 Y44.335 E39.61383
G1 X96.205 Y43.876 F7800.000
G1 X96.803 Y43.500 F7800.000
G1 F1200
G1 X53.197 Y43.500 E41.40194
G1 X53.115 Y43.517 E41.40535
G1 F1200
G1 X53.034 Y43.534 E41.40946
G1 X53.000 Y43.697 E41.41767
G1 F1200
G1 X53.000 Y106.303 E43.98488
G1 X53.017 Y106.385 E43.98829
G1 F1200
G1 X53.034 Y106.466 E43.99240
G1 X53.197 Y106.500 E44.00062
G1 F1200
G1 X96.803 Y106.500 E45.78873
G1 X96.885 Y106.483 E45.79213
G1 F1200
G1 X96.966 Y106.466 E45.79624
G1 X97.000 Y106.303 E45.80446
G1 F1200
G1 X97.000 Y76.303 E47.03462
G1 E45.03462 F1800.00000
G92 E0
G1 X97.000 Y53.697 F7800.000
G1 E2.00000 F1800.00000
G1 F1200
G1 X97.000 Y43.697 E2.41005
G1 X96.983 Y43.615 E2.41346
G1 F1200
G1 X96.966 Y43.534 E2.41757
G1 X96.803 Y43.500 E2.42579
G1 E0.42579 F1800.00000
G92 E0
; Filament-specific end gcode 
;END gcode for filament
M104 S0 ; turn off temperature
G28 X0  ; home X axis
M84     ; disable motors
; filament used = 180.1mm (0.4cm3)
; total filament cost = 0.0
; estimated printing time = 1m 30s

; avoid_crossing_perimeters = 0
; bed_shape = 0x0,150x0,150x150,0x150
; bed_temperature = 0
; before_layer_gcode = 
; between_objects_gcode = 
; bridge_acceleration = 0
; bridge_fan_speed = 100
; brim_width = 0
; complete_objects = 0
; cooling = 1
; default_acceleration = 0
; deretract_speed = 0
; disable_fan_first_layers = 3
; duplicate_distance = 6
; end_filament_gcode = "; Filament-specific end gcode \n;END gcode for filament\n"
; end_gcode = M104 S0 ; turn off temperature\nG28 X0  ; home X axis\nM84     ; disable motors\n
; extruder_clearance_height = 20
; extruder_clearance_radius = 20
; extruder_colour = ""
; extruder_offset = 0x0
; extrusion_axis = E
; extrusion_multiplier = 1
; fan_always_on = 1
; fan_below_layer_time = 60
; filament_colour = #FF80FF
; filament_cost = 0
; filament_density = 0
; filament_diameter = 1.75
; filament_max_volumetric_speed = 0
; filament_notes = ""
; filament_soluble = 0
; filament_type = PLA
; first_layer_acceleration = 0
; first_layer_bed_temperature = 0
; first_layer_extrusion_width = 200%
; first_layer_speed = 30
; first_layer_temperature = 200
; gcode_comments = 0
; gcode_flavor = repetier
; infill_acceleration = 0
; infill_first = 0
; layer_gcode = 
; max_fan_speed = 100
; max_layer_height = 0
; max_print_speed = 80
; max_volumetric_extrusion_rate_slope_negative = 0
; max_volumetric_extrusion_rate_slope_positive = 0
; max_volumetric_speed = 0
; min_fan_speed = 100
; min_layer_height = 0.07
; min_print_speed = 10
; min_skirt_length = 0
; notes = 
; nozzle_diameter = 0.4
; only_retract_when_crossing_perimeters = 1
; ooze_prevention = 0
; output_filename_format = [input_filename_base].gcode
; perimeter_acceleration = 0
; post_process = 
; printer_notes = 
; resolution = 0
; retract_before_travel = 2
; retract_before_wipe = 0%
; retract_layer_change = 0
; retract_length = 2
; retract_length_toolchange = 10
; retract_lift = 0
; retract_lift_above = 0
; retract_lift_below = 0
; retract_restart_extra = 0
; retract_restart_extra_toolchange = 0
; retract_speed = 30
; single_extruder_multi_material = 0
; skirt_distance = 6
; skirt_height = 1
; skirts = 1
; slowdown_below_layer_time = 5
; spiral_vase = 0
; standby_temperature_delta = -5
; start_filament_gcode = "; Filament gcode\n"
; start_gcode = G28 ; home all axes\nG1 Z5 F5000 ; lift nozzle\n
; temperature = 200
; threads = 8
; toolchange_gcode = 
; travel_speed = 130
; use_firmware_retraction = 0
; use_relative_e_distances = 0
; use_volumetric_e = 0
; variable_layer_height = 1
; wipe = 0
; wipe_tower = 0
; wipe_tower_per_color_wipe = 15
; wipe_tower_width = 60
; wipe_tower_x = 180
; wipe_tower_y = 140
; z_offset = 0
; clip_multipart_objects = 0
; dont_support_bridges = 1
; elefant_foot_compensation = 0
; extrusion_width = 0
; first_layer_height = 0.4
; infill_only_where_needed = 0
; interface_shells = 0
; layer_height = 0.3
; raft_layers = 0
; seam_position = aligned
; support_material = 0
; support_material_angle = 0
; support_material_buildplate_only = 0
; support_material_contact_distance = 0.2
; support_material_enforce_layers = 0
; support_material_extruder = 1
; support_material_extrusion_width = 0
; support_material_interface_contact_loops = 0
; support_material_interface_extruder = 1
; support_material_interface_layers = 3
; support_material_interface_spacing = 0
; support_material_interface_speed = 100%
; support_material_pattern = pillars
; support_material_spacing = 2.5
; support_material_speed = 60
; support_material_synchronize_layers = 0
; support_material_threshold = 0
; support_material_with_sheath = 1
; support_material_xy_spacing = 50%
; xy_size_compensation = 0
; bottom_solid_layers = 3
; bridge_angle = 0
; bridge_flow_ratio = 1
; bridge_speed = 60
; ensure_vertical_shell_thickness = 0
; external_fill_pattern = rectilinear
; external_perimeter_extrusion_width = 0
; external_perimeter_speed = 50%
; external_perimeters_first = 0
; extra_perimeters = 1
; fill_angle = 45
; fill_density = 20%
; fill_pattern = cubic
; gap_fill_speed = 20
; infill_every_layers = 1
; infill_extruder = 1
; infill_extrusion_width = 0
; infill_overlap = 25%
; infill_speed = 80
; overhangs = 1
; perimeter_extruder = 1
; perimeter_extrusion_width = 0
; perimeter_speed = 60
; perimeters = 3
; small_perimeter_speed = 15
; solid_infill_below_area = 50
; solid_infill_every_layers = 0
; solid_infill_extruder = 1
; solid_infill_extrusion_width = 0
; solid_infill_speed = 20
; thin_walls = 1
; top_infill_extrusion_width = 0
; top_solid_infill_speed = 15
; top_solid_layers = 3
