; generated by Slic3r Prusa Edition 1.39.1-alpha-prusa3d-win64 on 2018-05-27 at 11:34:55

; 

; external perimeters extrusion width = 0.45mm
; perimeters extrusion width = 0.45mm
; infill extrusion width = 0.45mm
; solid infill extrusion width = 0.45mm
; top infill extrusion width = 0.40mm
; first layer extrusion width = 0.80mm

M107
M104 S200 ; set temperature
G28 ; home all axes
G1 Z5 F5000 ; lift nozzle
; Filament gcode
M109 S200 ; set temperature and wait for it to be reached
G21 ; set units to millimeters
G90 ; use absolute coordinates
M82 ; use absolute distances for extrusion
G92 E0
G1 Z0.400 F7800.000
G1 E-2.00000 F1800.00000
G92 E0
G1 X37.242 Y47.824 F7800.000
G1 E2.00000 F1800.00000
G1 F1800
G1 X38.272 Y46.784 E2.17376
G1 X39.186 Y46.161 E2.30514
G1 X40.189 Y45.696 E2.43652
G1 X41.256 Y45.402 E2.56790
G1 X42.356 Y45.287 E2.69928
G1 X107.506 Y45.286 E10.43688
G1 X108.754 Y45.404 E10.58568
G1 X109.957 Y45.752 E10.73448
G1 X111.075 Y46.317 E10.88328
G1 X112.074 Y47.085 E11.03283
G1 X112.907 Y48.020 E11.18163
G1 X113.553 Y49.094 E11.33043
G1 X113.987 Y50.269 E11.47923
G1 X114.196 Y51.511 E11.62878
G1 X114.207 Y98.320 E17.18809
G1 X113.993 Y99.709 E17.35505
G1 X113.492 Y101.030 E17.52276
G1 X112.726 Y102.216 E17.69047
G1 X111.728 Y103.216 E17.85818
G1 X110.814 Y103.839 E17.98956
G1 X109.811 Y104.304 E18.12094
G1 X108.744 Y104.598 E18.25232
G1 X107.644 Y104.713 E18.38370
G1 X42.410 Y104.714 E26.13119
G1 X40.952 Y104.533 E26.30570
G1 X39.574 Y104.043 E26.47946
G1 X38.329 Y103.262 E26.65398
G1 X37.284 Y102.228 E26.82849
G1 X36.670 Y101.331 E26.95760
G1 X36.207 Y100.341 E27.08746
G1 X35.911 Y99.288 E27.21733
G1 X35.789 Y98.202 E27.34719
G1 X35.787 Y51.878 E32.84878
G1 X35.971 Y50.433 E33.02178
G1 X36.466 Y49.056 E33.19554
G1 X37.210 Y47.875 E33.36142
G1 E31.36142 F1800.00000
G92 E0
G1 X105.900 Y96.400 F7800.000
G1 E2.00000 F1800.00000
G1 F1800
G1 X105.900 Y53.600 E7.08315
G1 X44.100 Y53.600 E14.42284
G1 X44.100 Y96.400 E19.50599
G1 X54.100 Y96.400 E20.69364
G1 X54.100 Y97.600 E20.83616
G1 X42.900 Y97.600 E22.16633
G1 X42.900 Y52.400 E27.53451
G1 X107.100 Y52.400 E35.15924
G1 X107.100 Y97.600 E40.52742
G1 X75.900 Y97.600 E44.23290
G1 X75.900 Y96.400 E44.37541
G1 X105.840 Y96.400 E47.93124
G1 X106.300 Y96.395 F7800.000
G1 X106.500 Y96.757 F7800.000
G1 F1800
G1 X106.500 Y53.243 E50.82583
G1 X106.479 Y53.142 E50.83266
G1 F1800
G1 X106.458 Y53.042 E50.84092
G1 X106.257 Y53.000 E50.85744
G1 F1800
G1 X43.743 Y53.000 E55.01591
G1 X43.642 Y53.021 E55.02275
G1 F1800
G1 X43.542 Y53.042 E55.03101
G1 X43.500 Y53.243 E55.04753
G1 F1800
G1 X43.500 Y96.757 E57.94211
G1 X43.521 Y96.858 E57.94894
G1 F1800
G1 X43.542 Y96.958 E57.95720
G1 X43.743 Y97.000 E57.97372
G1 F1800
G1 X53.743 Y97.000 E58.63893
G1 E56.63893 F1800.00000
G92 E0
G1 X76.257 Y97.000 F7800.000
G1 E2.00000 F1800.00000
G1 F1800
G1 X106.257 Y97.000 E3.99561
G1 X106.358 Y96.979 E4.00245
G1 F1800
G1 X106.458 Y96.958 E4.01071
G1 X106.500 Y96.757 E4.02723
G1 Z0.700 F7800.000
G1 X106.111 Y96.611 F7800.000
G1 F3600
G1 X106.111 Y53.389 E6.10602
G1 X43.889 Y53.389 E9.09865
G1 X43.889 Y96.611 E11.17745
G1 X53.889 Y96.611 E11.65841
G1 X53.889 Y97.389 E11.69587
G1 X43.111 Y97.389 E12.21429
G1 X43.111 Y52.611 E14.36800
G1 X106.889 Y52.611 E17.43554
G1 X106.889 Y97.389 E19.58924
G1 X76.111 Y97.389 E21.06959
G1 X76.111 Y96.611 E21.10705
G1 X106.051 Y96.611 E22.54706
G1 X105.725 Y96.225 F7800.000
G1 F1800
G1 X105.725 Y53.775 E24.58876
G1 X44.275 Y53.775 E27.54430
G1 X44.275 Y96.225 E29.58600
G1 X54.275 Y96.225 E30.06696
G1 X54.275 Y97.775 E30.14151
G1 X42.725 Y97.775 E30.69703
G1 X42.725 Y52.225 E32.88783
G1 X107.275 Y52.225 E35.99246
G1 X107.275 Y97.775 E38.18326
G1 X75.725 Y97.775 E39.70071
G1 X75.725 Y96.225 E39.77526
G1 X105.665 Y96.225 E41.21527
G1 X106.125 Y96.218 F7800.000
G1 X106.500 Y96.803 F7800.000
G1 F1200
G1 X106.500 Y53.197 E43.00338
G1 X106.483 Y53.115 E43.00679
G1 F1200
G1 X106.466 Y53.034 E43.01090
G1 X106.303 Y53.000 E43.01912
G1 F1200
G1 X43.697 Y53.000 E45.58632
G1 X43.615 Y53.017 E45.58973
G1 F1200
G1 X43.534 Y53.034 E45.59384
G1 X43.500 Y53.197 E45.60206
G1 F1200
G1 X43.500 Y96.803 E47.39017
G1 X43.517 Y96.885 E47.39358
G1 F1200
G1 X43.534 Y96.966 E47.39768
G1 X43.697 Y97.000 E47.40590
G1 F1200
G1 X53.697 Y97.000 E47.81595
G1 E45.81595 F1800.00000
G92 E0
G1 X76.303 Y97.000 F7800.000
G1 E2.00000 F1800.00000
G1 F1200
G1 X106.303 Y97.000 E3.23016
G1 X106.385 Y96.983 E3.23357
G1 F1200
G1 X106.466 Y96.966 E3.23767
G1 X106.500 Y96.803 E3.24589
G1 Z1.000 F7800.000
G1 X106.111 Y96.611 F7800.000
G1 F3600
G1 X106.111 Y53.389 E5.32469
G1 X43.889 Y53.389 E8.31732
G1 X43.889 Y96.611 E10.39611
G1 X53.889 Y96.611 E10.87708
G1 X53.889 Y97.389 E10.91453
G1 X43.111 Y97.389 E11.43295
G1 X43.111 Y52.611 E13.58666
G1 X106.889 Y52.611 E16.65420
G1 X106.889 Y97.389 E18.80790
G1 X76.111 Y97.389 E20.28826
G1 X76.111 Y96.611 E20.32571
G1 X106.051 Y96.611 E21.76573
G1 X105.725 Y96.225 F7800.000
G1 F1800
G1 X105.725 Y53.775 E23.80743
G1 X44.275 Y53.775 E26.76296
G1 X44.275 Y96.225 E28.80466
G1 X54.275 Y96.225 E29.28563
G1 X54.275 Y97.775 E29.36018
G1 X42.725 Y97.775 E29.91569
G1 X42.725 Y52.225 E32.10649
G1 X107.275 Y52.225 E35.21113
G1 X107.275 Y97.775 E37.40193
G1 X75.725 Y97.775 E38.91937
G1 X75.725 Y96.225 E38.99392
G1 X105.665 Y96.225 E40.43393
G1 X106.125 Y96.218 F7800.000
G1 X106.500 Y96.803 F7800.000
G1 F1200
G1 X106.500 Y53.197 E42.22204
G1 X106.483 Y53.115 E42.22545
G1 F1200
G1 X106.466 Y53.034 E42.22956
G1 X106.303 Y53.000 E42.23778
G1 F1200
G1 X43.697 Y53.000 E44.80498
G1 X43.615 Y53.017 E44.80839
G1 F1200
G1 X43.534 Y53.034 E44.81250
G1 X43.500 Y53.197 E44.82072
G1 F1200
G1 X43.500 Y96.803 E46.60883
G1 X43.517 Y96.885 E46.61224
G1 F1200
G1 X43.534 Y96.966 E46.61635
G1 X43.697 Y97.000 E46.62457
G1 F1200
G1 X53.697 Y97.000 E47.03462
G1 E45.03462 F1800.00000
G92 E0
G1 X76.303 Y97.000 F7800.000
G1 E2.00000 F1800.00000
G1 F1200
G1 X106.303 Y97.000 E3.23016
G1 X106.385 Y96.983 E3.23357
G1 F1200
G1 X106.466 Y96.966 E3.23767
G1 X106.500 Y96.803 E3.24589
M106 S255
G1 Z1.300 F7800.000
G1 X106.111 Y96.611 F7800.000
G1 F3600
G1 X106.111 Y53.389 E5.32469
G1 X43.889 Y53.389 E8.31732
G1 X43.889 Y96.611 E10.39611
G1 X53.889 Y96.611 E10.87708
G1 X53.889 Y97.389 E10.91453
G1 X43.111 Y97.389 E11.43295
G1 X43.111 Y52.611 E13.58666
G1 X106.889 Y52.611 E16.65420
G1 X106.889 Y97.389 E18.80790
G1 X76.111 Y97.389 E20.28826
G1 X76.111 Y96.611 E20.32571
G1 X106.051 Y96.611 E21.76573
G1 X105.725 Y96.225 F7800.000
G1 F1800
G1 X105.725 Y53.775 E23.80743
G1 X44.275 Y53.775 E26.76296
G1 X44.275 Y96.225 E28.80466
G1 X54.275 Y96.225 E29.28563
G1 X54.275 Y97.775 E29.36018
G1 X42.725 Y97.775 E29.91569
G1 X42.725 Y52.225 E32.10649
G1 X107.275 Y52.225 E35.21113
G1 X107.275 Y97.775 E37.40193
G1 X75.725 Y97.775 E38.91937
G1 X75.725 Y96.225 E38.99392
G1 X105.665 Y96.225 E40.43393
G1 X106.125 Y96.218 F7800.000
G1 X106.500 Y96.803 F7800.000
G1 F1200
G1 X106.500 Y53.197 E42.22204
G1 X106.483 Y53.115 E42.22545
G1 F1200
G1 X106.466 Y53.034 E42.22956
G1 X106.303 Y53.000 E42.23778
G1 F1200
G1 X43.697 Y53.000 E44.80498
G1 X43.615 Y53.017 E44.80839
G1 F1200
G1 X43.534 Y53.034 E44.81250
G1 X43.500 Y53.197 E44.82072
G1 F1200
G1 X43.500 Y96.803 E46.60883
G1 X43.517 Y96.885 E46.61224
G1 F1200
G1 X43.534 Y96.966 E46.61635
G1 X43.697 Y97.000 E46.62457
G1 F1200
G1 X53.697 Y97.000 E47.03462
G1 E45.03462 F1800.00000
G92 E0
G1 X76.303 Y97.000 F7800.000
G1 E2.00000 F1800.00000
G1 F1200
G1 X106.303 Y97.000 E3.23016
G1 X106.385 Y96.983 E3.23357
G1 F1200
G1 X106.466 Y96.966 E3.23767
G1 X106.500 Y96.803 E3.24589
G1 Z1.600 F7800.000
G1 X106.111 Y96.611 F7800.000
G1 F3600
G1 X106.111 Y53.389 E5.32469
G1 X43.889 Y53.389 E8.31732
G1 X43.889 Y96.611 E10.39611
G1 X53.889 Y96.611 E10.87708
G1 X53.889 Y97.389 E10.91453
G1 X43.111 Y97.389 E11.43295
G1 X43.111 Y52.611 E13.58666
G1 X106.889 Y52.611 E16.65420
G1 X106.889 Y97.389 E18.80790
G1 X76.111 Y97.389 E20.28826
G1 X76.111 Y96.611 E20.32571
G1 X106.051 Y96.611 E21.76573
G1 X105.725 Y96.225 F7800.000
G1 F1800
G1 X105.725 Y53.775 E23.80743
G1 X44.275 Y53.775 E26.76296
G1 X44.275 Y96.225 E28.80466
G1 X54.275 Y96.225 E29.28563
G1 X54.275 Y97.775 E29.36018
G1 X42.725 Y97.775 E29.91569
G1 X42.725 Y52.225 E32.10649
G1 X107.275 Y52.225 E35.21113
G1 X107.275 Y97.775 E37.40193
G1 X75.725 Y97.775 E38.91937
G1 X75.725 Y96.225 E38.99392
G1 X105.665 Y96.225 E40.43393
G1 X106.125 Y96.218 F7800.000
G1 X106.500 Y96.803 F7800.000
G1 F1200
G1 X106.500 Y53.197 E42.22204
G1 X106.483 Y53.115 E42.22545
G1 F1200
G1 X106.466 Y53.034 E42.22956
G1 X106.303 Y53.000 E42.23778
G1 F1200
G1 X43.697 Y53.000 E44.80498
G1 X43.615 Y53.017 E44.80839
G1 F1200
G1 X43.534 Y53.034 E44.81250
G1 X43.500 Y53.197 E44.82072
G1 F1200
G1 X43.500 Y96.803 E46.60883
G1 X43.517 Y96.885 E46.61224
G1 F1200
G1 X43.534 Y96.966 E46.61635
G1 X43.697 Y97.000 E46.62457
G1 F1200
G1 X53.697 Y97.000 E47.03462
G1 E45.03462 F1800.00000
G92 E0
G1 X76.303 Y97.000 F7800.000
G1 E2.00000 F1800.00000
G1 F1200
G1 X106.303 Y97.000 E3.23016
G1 X106.385 Y96.983 E3.23357
G1 F1200
G1 X106.466 Y96.966 E3.23767
G1 X106.500 Y96.803 E3.24589
G1 Z1.900 F7800.000
G1 X106.111 Y96.611 F7800.000
G1 F3600
G1 X106.111 Y53.389 E5.32469
G1 X43.889 Y53.389 E8.31732
G1 X43.889 Y96.611 E10.39611
G1 X53.889 Y96.611 E10.87708
G1 X53.889 Y97.389 E10.91453
G1 X43.111 Y97.389 E11.43295
G1 X43.111 Y52.611 E13.58666
G1 X106.889 Y52.611 E16.65420
G1 X106.889 Y97.389 E18.80790
G1 X76.111 Y97.389 E20.28826
G1 X76.111 Y96.611 E20.32571
G1 X106.051 Y96.611 E21.76573
G1 X105.725 Y96.225 F7800.000
G1 F1800
G1 X105.725 Y53.775 E23.80743
G1 X44.275 Y53.775 E26.76296
G1 X44.275 Y96.225 E28.80466
G1 X54.275 Y96.225 E29.28563
G1 X54.275 Y97.775 E29.36018
G1 X42.725 Y97.775 E29.91569
G1 X42.725 Y52.225 E32.10649
G1 X107.275 Y52.225 E35.21113
G1 X107.275 Y97.775 E37.40193
G1 X75.725 Y97.775 E38.91937
G1 X75.725 Y96.225 E38.99392
G1 X105.665 Y96.225 E40.43393
G1 X106.125 Y96.218 F7800.000
G1 X106.500 Y96.803 F7800.000
G1 F1200
G1 X106.500 Y53.197 E42.22204
G1 X106.483 Y53.115 E42.22545
G1 F1200
G1 X106.466 Y53.034 E42.22956
G1 X106.303 Y53.000 E42.23778
G1 F1200
G1 X43.697 Y53.000 E44.80498
G1 X43.615 Y53.017 E44.80839
G1 F1200
G1 X43.534 Y53.034 E44.81250
G1 X43.500 Y53.197 E44.82072
G1 F1200
G1 X43.500 Y96.803 E46.60883
G1 X43.517 Y96.885 E46.61224
G1 F1200
G1 X43.534 Y96.966 E46.61635
G1 X43.697 Y97.000 E46.62457
G1 F1200
G1 X53.697 Y97.000 E47.03462
G1 E45.03462 F1800.00000
G92 E0
G1 X76.303 Y97.000 F7800.000
G1 E2.00000 F1800.00000
G1 F1200
G1 X106.303 Y97.000 E3.23016
G1 X106.385 Y96.983 E3.23357
G1 F1200
G1 X106.466 Y96.966 E3.23767
G1 X106.500 Y96.803 E3.24589
G1 Z2.200 F7800.000
G1 X106.111 Y96.611 F7800.000
G1 F3600
G1 X106.111 Y53.389 E5.32469
G1 X43.889 Y53.389 E8.31732
G1 X43.889 Y96.611 E10.39611
G1 X53.889 Y96.611 E10.87708
G1 X53.889 Y97.389 E10.91453
G1 X43.111 Y97.389 E11.43295
G1 X43.111 Y52.611 E13.58666
G1 X106.889 Y52.611 E16.65420
G1 X106.889 Y97.389 E18.80790
G1 X76.111 Y97.389 E20.28826
G1 X76.111 Y96.611 E20.32571
G1 X106.051 Y96.611 E21.76573
G1 X105.725 Y96.225 F7800.000
G1 F1800
G1 X105.725 Y53.775 E23.80743
G1 X44.275 Y53.775 E26.76296
G1 X44.275 Y96.225 E28.80466
G1 X54.275 Y96.225 E29.28563
G1 X54.275 Y97.775 E29.36018
G1 X42.725 Y97.775 E29.91569
G1 X42.725 Y52.225 E32.10649
G1 X107.275 Y52.225 E35.21113
G1 X107.275 Y97.775 E37.40193
G1 X75.725 Y97.775 E38.91937
G1 X75.725 Y96.225 E38.99392
G1 X105.665 Y96.225 E40.43393
G1 X106.125 Y96.218 F7800.000
G1 X106.500 Y96.803 F7800.000
G1 F1200
G1 X106.500 Y53.197 E42.22204
G1 X106.483 Y53.115 E42.22545
G1 F1200
G1 X106.466 Y53.034 E42.22956
G1 X106.303 Y53.000 E42.23778
G1 F1200
G1 X43.697 Y53.000 E44.80498
G1 X43.615 Y53.017 E44.80839
G1 F1200
G1 X43.534 Y53.034 E44.81250
G1 X43.500 Y53.197 E44.82072
G1 F1200
G1 X43.500 Y96.803 E46.60883
G1 X43.517 Y96.885 E46.61224
G1 F1200
G1 X43.534 Y96.966 E46.61635
G1 X43.697 Y97.000 E46.62457
G1 F1200
G1 X53.697 Y97.000 E47.03462
G1 E45.03462 F1800.00000
G92 E0
G1 X76.303 Y97.000 F7800.000
G1 E2.00000 F1800.00000
G1 F1200
G1 X106.303 Y97.000 E3.23016
G1 X106.385 Y96.983 E3.23357
G1 F1200
G1 X106.466 Y96.966 E3.23767
G1 X106.500 Y96.803 E3.24589
G1 Z2.500 F7800.000
G1 X106.111 Y96.611 F7800.000
G1 F3600
G1 X106.111 Y53.389 E5.32469
G1 X43.889 Y53.389 E8.31732
G1 X43.889 Y96.611 E10.39611
G1 X53.889 Y96.611 E10.87708
G1 X53.889 Y97.389 E10.91453
G1 X43.111 Y97.389 E11.43295
G1 X43.111 Y52.611 E13.58666
G1 X106.889 Y52.611 E16.65420
G1 X106.889 Y97.389 E18.80790
G1 X76.111 Y97.389 E20.28826
G1 X76.111 Y96.611 E20.32571
G1 X106.051 Y96.611 E21.76573
G1 X105.725 Y96.225 F7800.000
G1 F1800
G1 X105.725 Y53.775 E23.80743
G1 X44.275 Y53.775 E26.76296
G1 X44.275 Y96.225 E28.80466
G1 X54.275 Y96.225 E29.28563
G1 X54.275 Y97.775 E29.36018
G1 X42.725 Y97.775 E29.91569
G1 X42.725 Y52.225 E32.10649
G1 X107.275 Y52.225 E35.21113
G1 X107.275 Y97.775 E37.40193
G1 X75.725 Y97.775 E38.91937
G1 X75.725 Y96.225 E38.99392
G1 X105.665 Y96.225 E40.43393
G1 X106.125 Y96.218 F7800.000
G1 X106.500 Y96.803 F7800.000
G1 F1200
G1 X106.500 Y53.197 E42.22204
G1 X106.483 Y53.115 E42.22545
G1 F1200
G1 X106.466 Y53.034 E42.22956
G1 X106.303 Y53.000 E42.23778
G1 F1200
G1 X43.697 Y53.000 E44.80498
G1 X43.615 Y53.017 E44.80839
G1 F1200
G1 X43.534 Y53.034 E44.81250
G1 X43.500 Y53.197 E44.82072
G1 F1200
G1 X43.500 Y96.803 E46.60883
G1 X43.517 Y96.885 E46.61224
G1 F1200
G1 X43.534 Y96.966 E46.61635
G1 X43.697 Y97.000 E46.62457
G1 F1200
G1 X53.697 Y97.000 E47.03462
G1 E45.03462 F1800.00000
G92 E0
G1 X76.303 Y97.000 F7800.000
G1 E2.00000 F1800.00000
G1 F1200
G1 X106.303 Y97.000 E3.23016
G1 X106.385 Y96.983 E3.23357
G1 F1200
G1 X106.466 Y96.966 E3.23767
G1 X106.500 Y96.803 E3.24589
G1 Z2.800 F7800.000
G1 X106.111 Y96.611 F7800.000
G1 F3600
G1 X106.111 Y53.389 E5.32469
G1 X43.889 Y53.389 E8.31732
G1 X43.889 Y96.611 E10.39611
G1 X53.889 Y96.611 E10.87708
G1 X53.889 Y97.389 E10.91453
G1 X43.111 Y97.389 E11.43295
G1 X43.111 Y52.611 E13.58666
G1 X106.889 Y52.611 E16.65420
G1 X106.889 Y97.389 E18.80790
G1 X76.111 Y97.389 E20.28826
G1 X76.111 Y96.611 E20.32571
G1 X106.051 Y96.611 E21.76573
G1 X105.725 Y96.225 F7800.000
G1 F1800
G1 X105.725 Y53.775 E23.80743
G1 X44.275 Y53.775 E26.76296
G1 X44.275 Y96.225 E28.80466
G1 X54.275 Y96.225 E29.28563
G1 X54.275 Y97.775 E29.36018
G1 X42.725 Y97.775 E29.91569
G1 X42.725 Y52.225 E32.10649
G1 X107.275 Y52.225 E35.21113
G1 X107.275 Y97.775 E37.40193
G1 X75.725 Y97.775 E38.91937
G1 X75.725 Y96.225 E38.99392
G1 X105.665 Y96.225 E40.43393
G1 X106.125 Y96.218 F7800.000
G1 X106.500 Y96.803 F7800.000
G1 F1200
G1 X106.500 Y53.197 E42.22204
G1 X106.483 Y53.115 E42.22545
G1 F1200
G1 X106.466 Y53.034 E42.22956
G1 X106.303 Y53.000 E42.23778
G1 F1200
G1 X43.697 Y53.000 E44.80498
G1 X43.615 Y53.017 E44.80839
G1 F1200
G1 X43.534 Y53.034 E44.81250
G1 X43.500 Y53.197 E44.82072
G1 F1200
G1 X43.500 Y96.803 E46.60883
G1 X43.517 Y96.885 E46.61224
G1 F1200
G1 X43.534 Y96.966 E46.61635
G1 X43.697 Y97.000 E46.62457
G1 F1200
G1 X53.697 Y97.000 E47.03462
G1 E45.03462 F1800.00000
G92 E0
G1 X76.303 Y97.000 F7800.000
G1 E2.00000 F1800.00000
G1 F1200
G1 X106.303 Y97.000 E3.23016
G1 X106.385 Y96.983 E3.23357
G1 F1200
G1 X106.466 Y96.966 E3.23767
G1 X106.500 Y96.803 E3.24589
G1 Z3.100 F7800.000
G1 X106.111 Y96.611 F7800.000
G1 F3600
G1 X106.111 Y53.389 E5.32469
G1 X43.889 Y53.389 E8.31732
G1 X43.889 Y96.611 E10.39611
G1 X53.889 Y96.611 E10.87708
G1 X53.889 Y97.389 E10.91453
G1 X43.111 Y97.389 E11.43295
G1 X43.111 Y52.611 E13.58666
G1 X106.889 Y52.611 E16.65420
G1 X106.889 Y97.389 E18.80790
G1 X76.111 Y97.389 E20.28826
G1 X76.111 Y96.611 E20.32571
G1 X106.051 Y96.611 E21.76573
G1 X105.725 Y96.225 F7800.000
G1 F1800
G1 X105.725 Y53.775 E23.80743
G1 X44.275 Y53.775 E26.76296
G1 X44.275 Y96.225 E28.80466
G1 X54.275 Y96.225 E29.28563
G1 X54.275 Y97.775 E29.36018
G1 X42.725 Y97.775 E29.91569
G1 X42.725 Y52.225 E32.10649
G1 X107.275 Y52.225 E35.21113
G1 X107.275 Y97.775 E37.40193
G1 X75.725 Y97.775 E38.91937
G1 X75.725 Y96.225 E38.99392
G1 X105.665 Y96.225 E40.43393
G1 X106.125 Y96.218 F7800.000
