; generated by Slic3r Prusa Edition 1.39.1-alpha-prusa3d-win64 on 2018-03-30 at 18:44:00

; 

; external perimeters extrusion width = 0.45mm
; perimeters extrusion width = 0.45mm
; infill extrusion width = 0.45mm
; solid infill extrusion width = 0.45mm
; top infill extrusion width = 0.40mm
; first layer extrusion width = 0.80mm

M107
M104 S200 ; set temperature
G28 ; home all axes
G1 Z5 F5000 ; lift nozzle
; Filament gcode
M109 S200 ; set temperature and wait for it to be reached
G21 ; set units to millimeters
G90 ; use absolute coordinates
M82 ; use absolute distances for extrusion
G92 E0
G1 Z0.400 F7800.000
G1 E-2.00000 F1800.00000
G92 E0
G1 X57.554 Y53.702 F7800.000
G1 E2.00000 F1800.00000
G1 F1800
G1 X58.743 Y52.775 E2.17905
G1 X60.108 Y52.137 E2.35810
G1 X61.589 Y51.819 E2.53790
G1 X87.756 Y51.786 E5.64574
G1 X88.953 Y51.895 E5.78848
G1 X90.118 Y52.217 E5.93198
G1 X91.205 Y52.743 E6.07548
G1 X92.181 Y53.456 E6.21898
G1 X93.014 Y54.332 E6.36248
G1 X93.675 Y55.343 E6.50597
G1 X94.145 Y56.456 E6.64947
G1 X94.408 Y57.635 E6.79297
G1 X94.464 Y58.490 E6.89478
G1 X94.462 Y91.679 E10.83646
G1 X94.375 Y92.590 E10.94509
G1 X94.167 Y93.474 E11.05297
G1 X93.840 Y94.328 E11.16161
G1 X93.399 Y95.129 E11.27024
G1 X92.396 Y96.347 E11.45760
G1 X91.137 Y97.297 E11.64496
G1 X89.690 Y97.928 E11.83231
G1 X88.137 Y98.203 E12.01967
G1 X62.013 Y98.210 E15.12228
G1 X61.122 Y98.119 E15.22864
G1 X60.245 Y97.908 E15.33576
G1 X59.410 Y97.584 E15.44212
G1 X58.621 Y97.149 E15.54924
G1 X57.394 Y96.137 E15.73810
G1 X56.436 Y94.859 E15.92772
G1 X55.808 Y93.391 E16.11735
G1 X55.543 Y91.817 E16.30697
G1 X55.539 Y58.308 E20.28664
G1 X55.626 Y57.404 E20.39452
G1 X55.834 Y56.520 E20.50240
G1 X56.160 Y55.672 E20.61028
G1 X56.601 Y54.871 E20.71891
G1 X57.516 Y53.748 E20.89083
G1 E18.89083 F1800.00000
G92 E0
G1 X87.164 Y90.914 F7800.000
G1 E2.00000 F1800.00000
G1 F1800
G1 X87.061 Y90.936 E2.01909
G1 F1800
G1 X86.854 Y90.979 E2.05427
G1 F1800
G1 X86.750 Y91.000 E2.07034
G1 X63.250 Y91.000 E5.64294
G1 F1800
G1 X63.043 Y90.957 E5.67811
G1 F1800
G1 X62.836 Y90.914 E5.71630
G1 X62.814 Y90.811 E5.73539
G1 F1800
G1 X62.771 Y90.604 E5.77056
G1 F1800
G1 X62.750 Y90.500 E5.78664
G1 X62.750 Y59.500 E10.49942
G1 F1800
G1 X62.793 Y59.293 E10.53459
G1 F1800
G1 X62.836 Y59.086 E10.57278
G1 F1800
G1 X62.939 Y59.064 E10.59188
G1 F1800
G1 X63.146 Y59.021 E10.62705
G1 F1800
G1 X63.250 Y59.000 E10.64312
G1 X86.750 Y59.000 E14.21572
G1 F1800
G1 X86.957 Y59.043 E14.25089
G1 F1800
G1 X87.164 Y59.086 E14.28908
G1 X87.186 Y59.189 E14.30817
G1 F1800
G1 X87.229 Y59.396 E14.34334
G1 F1800
G1 X87.250 Y59.500 E14.35942
G1 X87.250 Y90.500 E19.07220
G1 F1800
G1 X87.207 Y90.707 E19.10738
G1 F1800
G1 X87.176 Y90.855 E19.13473
G1 X87.202 Y91.013 F7800.000
G1 Z0.700 F7800.000
G1 X86.975 Y90.725 F7800.000
G1 F1800
G1 X63.025 Y90.725 E20.28664
G1 X63.025 Y59.275 E21.79928
G1 X86.975 Y59.275 E22.95119
G1 X86.975 Y90.665 E24.46095
G1 X87.061 Y91.116 F7800.000
G1 X87.525 Y91.275 F7800.000
G1 F1800
G1 X62.475 Y91.275 E25.66577
G1 X62.475 Y58.725 E27.23131
G1 X87.525 Y58.725 E28.43613
G1 X87.525 Y91.215 E29.99879
G1 X87.143 Y91.155 F7800.000
G1 X87.236 Y90.986 F7800.000
G1 F1200
G1 X87.168 Y91.000 E29.99990
G1 X62.832 Y91.000 E30.38903
G1 X62.764 Y90.986 E30.39015
G1 X62.750 Y90.918 E30.39126
G1 X62.750 Y59.082 E30.90032
G1 X62.764 Y59.014 E30.90143
G1 X62.832 Y59.000 E30.90254
G1 X87.168 Y59.000 E31.29168
G1 X87.236 Y59.014 E31.29279
G1 X87.250 Y59.082 E31.29390
G1 X87.248 Y90.927 E31.80311
G1 Z1.000 F7800.000
G1 X86.975 Y90.725 F7800.000
G1 F1800
G1 X63.025 Y90.725 E32.95503
G1 X63.025 Y59.275 E34.46766
G1 X86.975 Y59.275 E35.61958
G1 X86.975 Y90.665 E37.12933
G1 X87.061 Y91.116 F7800.000
G1 X87.525 Y91.275 F7800.000
G1 F1800
G1 X62.475 Y91.275 E38.33415
G1 X62.475 Y58.725 E39.89969
G1 X87.525 Y58.725 E41.10451
G1 X87.525 Y91.215 E42.66717
G1 X87.143 Y91.155 F7800.000
G1 X87.236 Y90.986 F7800.000
G1 F1200
G1 X87.168 Y91.000 E42.66828
G1 X62.832 Y91.000 E43.05742
G1 X62.764 Y90.986 E43.05853
G1 X62.750 Y90.918 E43.05964
G1 X62.750 Y59.082 E43.56870
G1 X62.764 Y59.014 E43.56981
G1 X62.832 Y59.000 E43.57093
G1 X87.168 Y59.000 E43.96006
G1 X87.236 Y59.014 E43.96117
G1 X87.250 Y59.082 E43.96228
G1 X87.248 Y90.927 E44.47150
M106 S229.5
G1 Z1.300 F7800.000
G1 X86.975 Y90.725 F7800.000
G1 F1800
G1 X63.025 Y90.725 E45.62341
G1 X63.025 Y59.275 E47.13605
G1 X86.975 Y59.275 E48.28796
G1 X86.975 Y90.665 E49.79771
G1 X87.061 Y91.116 F7800.000
G1 X87.525 Y91.275 F7800.000
G1 F1800
G1 X62.475 Y91.275 E51.00253
G1 X62.475 Y58.725 E52.56808
G1 X87.525 Y58.725 E53.77289
G1 X87.525 Y91.215 E55.33555
G1 X87.143 Y91.155 F7800.000
G1 X87.236 Y90.986 F7800.000
G1 F1200
G1 X87.168 Y91.000 E55.33666
G1 X62.832 Y91.000 E55.72580
G1 X62.764 Y90.986 E55.72691
G1 X62.750 Y90.918 E55.72802
G1 X62.750 Y59.082 E56.23709
G1 X62.764 Y59.014 E56.23820
G1 X62.832 Y59.000 E56.23931
G1 X87.168 Y59.000 E56.62844
G1 X87.236 Y59.014 E56.62956
G1 X87.250 Y59.082 E56.63067
G1 X87.248 Y90.927 E57.13988
G1 Z1.600 F7800.000
G1 X86.975 Y90.725 F7800.000
G1 F1800
G1 X63.025 Y90.725 E58.29179
G1 X63.025 Y59.275 E59.80443
G1 X86.975 Y59.275 E60.95634
G1 X86.975 Y90.665 E62.46610
G1 X87.061 Y91.116 F7800.000
G1 X87.525 Y91.275 F7800.000
G1 F1800
G1 X62.475 Y91.275 E63.67091
G1 X62.475 Y58.725 E65.23646
G1 X87.525 Y58.725 E66.44128
G1 X87.525 Y91.215 E68.00394
G1 X87.143 Y91.155 F7800.000
G1 X87.236 Y90.986 F7800.000
G1 F1200
G1 X87.168 Y91.000 E68.00505
G1 X62.832 Y91.000 E68.39418
G1 X62.764 Y90.986 E68.39529
G1 X62.750 Y90.918 E68.39641
G1 X62.750 Y59.082 E68.90547
G1 X62.764 Y59.014 E68.90658
G1 X62.832 Y59.000 E68.90769
G1 X87.168 Y59.000 E69.29683
G1 X87.236 Y59.014 E69.29794
G1 X87.250 Y59.082 E69.29905
G1 X87.248 Y90.927 E69.80826
G1 Z1.900 F7800.000
G1 X86.975 Y90.725 F7800.000
G1 F1800
G1 X63.025 Y90.725 E70.96018
G1 X63.025 Y59.275 E72.47281
G1 X86.975 Y59.275 E73.62473
G1 X86.975 Y90.665 E75.13448
G1 X87.061 Y91.116 F7800.000
G1 X87.525 Y91.275 F7800.000
G1 F1800
G1 X62.475 Y91.275 E76.33930
G1 X62.475 Y58.725 E77.90484
G1 X87.525 Y58.725 E79.10966
G1 X87.525 Y91.215 E80.67232
G1 X87.143 Y91.155 F7800.000
G1 X87.236 Y90.986 F7800.000
G1 F1200
G1 X87.168 Y91.000 E80.67343
G1 X62.832 Y91.000 E81.06257
G1 X62.764 Y90.986 E81.06368
G1 X62.750 Y90.918 E81.06479
G1 X62.750 Y59.082 E81.57385
G1 X62.764 Y59.014 E81.57496
G1 X62.832 Y59.000 E81.57608
G1 X87.168 Y59.000 E81.96521
G1 X87.236 Y59.014 E81.96632
G1 X87.250 Y59.082 E81.96743
G1 X87.248 Y90.927 E82.47665
G1 Z2.200 F7800.000
G1 X86.975 Y90.725 F7800.000
G1 F1800
G1 X63.025 Y90.725 E83.62856
G1 X63.025 Y59.275 E85.14120
G1 X86.975 Y59.275 E86.29311
G1 X86.975 Y90.665 E87.80286
G1 X87.061 Y91.116 F7800.000
G1 X87.525 Y91.275 F7800.000
G1 F1800
G1 X62.475 Y91.275 E89.00768
G1 X62.475 Y58.725 E90.57322
G1 X87.525 Y58.725 E91.77804
G1 X87.525 Y91.215 E93.34070
G1 X87.143 Y91.155 F7800.000
G1 X87.236 Y90.986 F7800.000
G1 F1200
G1 X87.168 Y91.000 E93.34181
G1 X62.832 Y91.000 E93.73095
G1 X62.764 Y90.986 E93.73206
G1 X62.750 Y90.918 E93.73317
G1 X62.750 Y59.082 E94.24223
G1 X62.764 Y59.014 E94.24335
G1 X62.832 Y59.000 E94.24446
G1 X87.168 Y59.000 E94.63359
G1 X87.236 Y59.014 E94.63470
G1 X87.250 Y59.082 E94.63582
G1 X87.248 Y90.927 E95.14503
G1 Z2.500 F7800.000
G1 X86.975 Y90.725 F7800.000
G1 F1800
G1 X63.025 Y90.725 E96.29694
G1 X63.025 Y59.275 E97.80958
G1 X86.975 Y59.275 E98.96149
G1 X86.975 Y90.665 E100.47124
G1 X87.061 Y91.116 F7800.000
G1 X87.525 Y91.275 F7800.000
G1 F1800
G1 X62.475 Y91.275 E101.67606
G1 X62.475 Y58.725 E103.24161
G1 X87.525 Y58.725 E104.44643
G1 X87.525 Y91.215 E106.00908
G1 X87.143 Y91.155 F7800.000
G1 X87.236 Y90.986 F7800.000
G1 F1200
G1 X87.168 Y91.000 E106.01020
G1 X62.832 Y91.000 E106.39933
G1 X62.764 Y90.986 E106.40044
G1 X62.750 Y90.918 E106.40155
G1 X62.750 Y59.082 E106.91062
G1 X62.764 Y59.014 E106.91173
G1 X62.832 Y59.000 E106.91284
G1 X87.168 Y59.000 E107.30198
G1 X87.236 Y59.014 E107.30309
G1 X87.250 Y59.082 E107.30420
G1 X87.248 Y90.927 E107.81341
M106 S232.05
G1 Z2.800 F7800.000
G1 E105.81341 F1800.00000
G92 E0
G1 X86.975 Y59.275 F7800.000
G1 E2.00000 F1800.00000
G1 F1800
G1 X63.025 Y59.275 E3.15191
G1 X63.025 Y90.725 E4.66455
G1 X85.525 Y90.725 E5.74672
G1 X85.525 Y91.275 E5.77318
G1 X62.475 Y91.275 E6.88180
G1 X62.475 Y58.725 E8.44735
G1 X87.525 Y58.725 E9.65217
G1 X87.525 Y81.275 E10.73674
G1 X86.975 Y81.275 E10.76320
G1 X86.975 Y59.335 E11.81844
G1 X86.972 Y58.875 F7800.000
G1 X87.250 Y81.082 F7800.000
G1 F1200
G1 X87.250 Y59.082 E12.09284
G1 X87.236 Y59.014 E12.09370
G1 X87.168 Y59.000 E12.09457
G1 X62.832 Y59.000 E12.39810
G1 X62.764 Y59.014 E12.39897
G1 X62.750 Y59.082 E12.39984
G1 X62.750 Y90.918 E12.79691
G1 X62.764 Y90.986 E12.79778
G1 X62.832 Y91.000 E12.79865
G1 X85.332 Y91.000 E13.07929
G1 Z3.100 F7800.000
G1 E11.07929 F1800.00000
G92 E0
G1 X86.975 Y59.275 F7800.000
G1 E2.00000 F1800.00000
G1 F1800
G1 X63.025 Y59.275 E3.15191
G1 X63.025 Y90.725 E4.66455
G1 X85.525 Y90.725 E5.74672
G1 X85.525 Y91.275 E5.77318
G1 X62.475 Y91.275 E6.88180
G1 X62.475 Y58.725 E8.44735
G1 X87.525 Y58.725 E9.65217
G1 X87.525 Y81.275 E10.73674
G1 X86.975 Y81.275 E10.76320
G1 X86.975 Y59.335 E11.81844
G1 X86.972 Y58.875 F7800.000
G1 X87.250 Y81.082 F7800.000
G1 F1200
G1 X87.250 Y59.082 E12.09284
G1 X87.236 Y59.014 E12.09370
G1 X87.168 Y59.000 E12.09457
G1 X62.832 Y59.000 E12.39810
G1 X62.764 Y59.014 E12.39897
G1 X62.750 Y59.082 E12.39984
G1 X62.750 Y90.918 E12.79691
G1 X62.764 Y90.986 E12.79778
G1 X62.832 Y91.000 E12.79865
G1 X85.332 Y91.000 E13.07929
G1 Z3.400 F7800.000
G1 E11.07929 F1800.00000
G92 E0
G1 X86.975 Y59.275 F7800.000
G1 E2.00000 F1800.00000
G1 F1800
G1 X63.025 Y59.275 E3.15191
G1 X63.025 Y90.725 E4.66455
G1 X85.525 Y90.725 E5.74672
G1 X85.525 Y91.275 E5.77318
G1 X62.475 Y91.275 E6.88180
G1 X62.475 Y58.725 E8.44735
G1 X87.525 Y58.725 E9.65217
G1 X87.525 Y81.275 E10.73674
G1 X86.975 Y81.275 E10.76320
G1 X86.975 Y59.335 E11.81844
G1 X86.972 Y58.875 F7800.000
G1 X87.250 Y81.082 F7800.000
G1 F1200
G1 X87.250 Y59.082 E12.09284
G1 X87.236 Y59.014 E12.09370
G1 X87.168 Y59.000 E12.09457
G1 X62.832 Y59.000 E12.39810
G1 X62.764 Y59.014 E12.39897
G1 X62.750 Y59.082 E12.39984
G1 X62.750 Y90.918 E12.79691
G1 X62.764 Y90.986 E12.79778
G1 X62.832 Y91.000 E12.79865
G1 X85.332 Y91.000 E13.07929
G1 Z3.700 F7800.000
G1 E11.07929 F1800.00000
G92 E0
G1 X86.975 Y59.275 F7800.000
G1 E2.00000 F1800.00000
G1 F1800
G1 X63.025 Y59.275 E3.15191
G1 X63.025 Y90.725 E4.66455
G1 X85.525 Y90.725 E5.74672
G1 X85.525 Y91.275 E5.77318
G1 X62.475 Y91.275 E6.88180
G1 X62.475 Y58.725 E8.44735
G1 X87.525 Y58.725 E9.65217
G1 X87.525 Y81.275 E10.73674
G1 X86.975 Y81.275 E10.76320
G1 X86.975 Y59.335 E11.81844
G1 X86.972 Y58.875 F7800.000
G1 X87.250 Y81.082 F7800.000
G1 F1200
G1 X87.250 Y59.082 E12.09284
G1 X87.236 Y59.014 E12.09370
G1 X87.168 Y59.000 E12.09457
G1 X62.832 Y59.000 E12.39810
G1 X62.764 Y59.014 E12.39897
G1 X62.750 Y59.082 E12.39984
G1 X62.750 Y90.918 E12.79691
G1 X62.764 Y90.986 E12.79778
G1 X62.832 Y91.000 E12.79865
G1 X85.332 Y91.000 E13.07929
G1 Z4.000 F7800.000
G1 E11.07929 F1800.00000
G92 E0
G1 X86.975 Y59.275 F7800.000
G1 E2.00000 F1800.00000
G1 F1800
G1 X63.025 Y59.275 E3.15191
G1 X63.025 Y90.725 E4.66455
G1 X85.525 Y90.725 E5.74672
G1 X85.525 Y91.275 E5.77318
G1 X62.475 Y91.275 E6.88180
G1 X62.475 Y58.725 E8.44735
G1 X87.525 Y58.725 E9.65217
G1 X87.525 Y81.275 E10.73674
G1 X86.975 Y81.275 E10.76320
G1 X86.975 Y59.335 E11.81844
G1 X86.972 Y58.875 F7800.000
G1 X87.250 Y81.082 F7800.000
G1 F1200
G1 X87.250 Y59.082 E12.09284
G1 X87.236 Y59.014 E12.09370
G1 X87.168 Y59.000 E12.09457
G1 X62.832 Y59.000 E12.39810
G1 X62.764 Y59.014 E12.39897
G1 X62.750 Y59.082 E12.39984
G1 X62.750 Y90.918 E12.79691
G1 X62.764 Y90.986 E12.79778
G1 X62.832 Y91.000 E12.79865
G1 X85.332 Y91.000 E13.07929
G1 Z4.300 F7800.000
G1 E11.07929 F1800.00000
G92 E0
G1 X86.975 Y59.275 F7800.000
G1 E2.00000 F1800.00000
G1 F1800
G1 X63.025 Y59.275 E3.15191
G1 X63.025 Y90.725 E4.66455
G1 X85.525 Y90.725 E5.74672
G1 X85.525 Y91.275 E5.77318
G1 X62.475 Y91.275 E6.88180
G1 X62.475 Y58.725 E8.44735
G1 X87.525 Y58.725 E9.65217
G1 X87.525 Y81.275 E10.73674
G1 X86.975 Y81.275 E10.76320
G1 X86.975 Y59.335 E11.81844
G1 X86.972 Y58.875 F7800.000
G1 X87.250 Y81.082 F7800.000
G1 F1200
G1 X87.250 Y59.082 E12.09284
G1 X87.236 Y59.014 E12.09370
G1 X87.168 Y59.000 E12.09457
G1 X62.832 Y59.000 E12.39810
G1 X62.764 Y59.014 E12.39897
G1 X62.750 Y59.082 E12.39984
G1 X62.750 Y90.918 E12.79691
G1 X62.764 Y90.986 E12.79778
G1 X62.832 Y91.000 E12.79865
G1 X85.332 Y91.000 E13.07929
G1 Z4.600 F7800.000
G1 E11.07929 F1800.00000
G92 E0
G1 X86.975 Y59.275 F7800.000
G1 E2.00000 F1800.00000
G1 F1800
G1 X63.025 Y59.275 E3.15191
G1 X63.025 Y90.725 E4.66455
G1 X85.525 Y90.725 E5.74672
G1 X85.525 Y91.275 E5.77318
G1 X62.475 Y91.275 E6.88180
G1 X62.475 Y58.725 E8.44735
G1 X87.525 Y58.725 E9.65217
G1 X87.525 Y81.275 E10.73674
G1 X86.975 Y81.275 E10.76320
G1 X86.975 Y59.335 E11.81844
G1 X86.972 Y58.875 F7800.000
G1 X87.250 Y81.082 F7800.000
G1 F1200
G1 X87.250 Y59.082 E12.09284
G1 X87.236 Y59.014 E12.09370
G1 X87.168 Y59.000 E12.09457
G1 X62.832 Y59.000 E12.39810
G1 X62.764 Y59.014 E12.39897
G1 X62.750 Y59.082 E12.39984
G1 X62.750 Y90.918 E12.79691
G1 X62.764 Y90.986 E12.79778
G1 X62.832 Y91.000 E12.79865
G1 X85.332 Y91.000 E13.07929
G1 Z4.900 F7800.000
G1 E11.07929 F1800.00000
G92 E0
G1 X86.975 Y59.275 F7800.000
G1 E2.00000 F1800.00000
G1 F1800
G1 X63.025 Y59.275 E3.15191
G1 X63.025 Y90.725 E4.66455
G1 X85.525 Y90.725 E5.74672
G1 X85.525 Y91.275 E5.77318
G1 X62.475 Y91.275 E6.88180
G1 X62.475 Y58.725 E8.44735
G1 X87.525 Y58.725 E9.65217
G1 X87.525 Y81.275 E10.73674
G1 X86.975 Y81.275 E10.76320
G1 X86.975 Y59.335 E11.81844
G1 X86.972 Y58.875 F7800.000
G1 E9.81844 F1800.00000
G92 E0
G1 X87.250 Y81.082 F7800.000
G1 E2.00000 F1800.00000
G1 F1200
G1 X87.250 Y59.082 E2.27440
G1 X87.236 Y59.014 E2.27527
G1 X87.168 Y59.000 E2.27613
G1 X62.832 Y59.000 E2.57967
G1 X62.764 Y59.014 E2.58053
G1 X62.750 Y59.082 E2.58140
G1 X62.750 Y90.918 E2.97848
G1 X62.764 Y90.986 E2.97935
G1 X62.832 Y91.000 E2.98021
G1 X85.332 Y91.000 E3.26085
G1 E1.26085 F1800.00000
G92 E0
M107
; Filament-specific end gcode 
;END gcode for filament
M104 S0 ; turn off temperature
G28 X0  ; home X axis
M84     ; disable motors
; filament used = 213.3mm (0.5cm3)
; total filament cost = 0.0
; estimated printing time = 3m 27s

; avoid_crossing_perimeters = 0
; bed_shape = 0x0,150x0,150x150,0x150
; bed_temperature = 0
; before_layer_gcode = 
; between_objects_gcode = 
; bridge_acceleration = 0
; bridge_fan_speed = 100
; brim_width = 0
; complete_objects = 0
; cooling = 1
; default_acceleration = 0
; deretract_speed = 0
; disable_fan_first_layers = 3
; duplicate_distance = 6
; end_filament_gcode = "; Filament-specific end gcode \n;END gcode for filament\n"
; end_gcode = M104 S0 ; turn off temperature\nG28 X0  ; home X axis\nM84     ; disable motors\n
; extruder_clearance_height = 20
; extruder_clearance_radius = 20
; extruder_colour = ""
; extruder_offset = 0x0
; extrusion_axis = E
; extrusion_multiplier = 1
; fan_always_on = 0
; fan_below_layer_time = 60
; filament_colour = #FF80FF
; filament_cost = 0
; filament_density = 0
; filament_diameter = 1.75
; filament_max_volumetric_speed = 0
; filament_notes = ""
; filament_soluble = 0
; filament_type = PLA
; first_layer_acceleration = 0
; first_layer_bed_temperature = 0
; first_layer_extrusion_width = 200%
; first_layer_speed = 30
; first_layer_temperature = 200
; gcode_comments = 0
; gcode_flavor = repetier
; infill_acceleration = 0
; infill_first = 0
; layer_gcode = 
; max_fan_speed = 100
; max_layer_height = 0
; max_print_speed = 80
; max_volumetric_extrusion_rate_slope_negative = 0
; max_volumetric_extrusion_rate_slope_positive = 0
; max_volumetric_speed = 0
; min_fan_speed = 35
; min_layer_height = 0.07
; min_print_speed = 10
; min_skirt_length = 0
; notes = 
; nozzle_diameter = 0.4
; only_retract_when_crossing_perimeters = 1
; ooze_prevention = 0
; output_filename_format = [input_filename_base].gcode
