; generated by Slic3r Prusa Edition 1.39.1-alpha-prusa3d-win64 on 2018-02-21 at 17:27:58

; 

; external perimeters extrusion width = 0.45mm
; perimeters extrusion width = 0.45mm
; infill extrusion width = 0.45mm
; solid infill extrusion width = 0.45mm
; top infill extrusion width = 0.40mm
; first layer extrusion width = 0.80mm

M107
M104 S200 ; set temperature
G28 ; home all axes
G1 Z5 F5000 ; lift nozzle
; Filament gcode
M109 S200 ; set temperature and wait for it to be reached
G21 ; set units to millimeters
G90 ; use absolute coordinates
M82 ; use absolute distances for extrusion
G92 E0
G1 Z0.400 F7800.000
G1 E-2.00000 F1800.00000
G92 E0
G1 X53.386 Y38.374 F7800.000
G1 E2.00000 F1800.00000
G1 F1800
G1 X56.853 Y35.822 E2.51129
G1 X59.931 Y34.051 E2.93303
G1 X63.493 Y32.510 E3.39393
G1 X67.209 Y31.391 E3.85482
G1 X70.706 Y30.758 E4.27695
G1 X75.005 Y30.472 E4.78861
G1 X78.829 Y30.692 E5.24357
G1 X82.588 Y31.343 E5.69668
G1 X86.272 Y32.425 E6.15264
G1 X89.657 Y33.851 E6.58883
G1 X93.126 Y35.800 E7.06146
G1 X96.105 Y37.959 E7.49840
G1 X98.947 Y40.548 E7.95505
G1 X100.425 Y42.186 E8.21699
G1 X101.707 Y43.752 E8.45736
G1 X103.848 Y46.945 E8.91397
G1 X105.535 Y50.192 E9.34858
G1 X106.294 Y52.036 E9.58535
G1 X106.959 Y53.935 E9.82432
G1 X107.863 Y57.467 E10.25737
G1 X108.290 Y60.146 E10.57946
G1 X108.392 Y61.273 E10.71391
G1 X108.511 Y63.872 E11.02286
G1 X108.482 Y65.090 E11.16756
G1 X108.360 Y67.096 E11.40631
G1 X108.115 Y69.028 E11.63759
G1 X107.743 Y71.087 E11.88606
G1 X106.731 Y74.745 E12.33680
G1 X105.370 Y78.144 E12.77165
G1 X103.691 Y81.289 E13.19511
G1 X85.468 Y110.232 E17.25707
G1 X84.888 Y111.017 E17.37298
G1 X84.321 Y111.625 E17.47176
G1 X83.235 Y112.490 E17.63665
G1 X82.197 Y113.070 E17.77787
G1 X81.135 Y113.443 E17.91153
G1 X79.584 Y113.747 E18.09924
G1 X61.974 Y113.772 E20.19065
G1 X60.879 Y113.678 E20.32127
G1 X59.625 Y113.376 E20.47440
G1 X58.722 Y113.034 E20.58910
G1 X57.840 Y112.541 E20.70911
G1 X56.918 Y111.840 E20.84665
G1 X56.216 Y111.140 E20.96438
G1 X55.544 Y110.251 E21.09672
G1 X55.091 Y109.427 E21.20839
G1 X54.661 Y108.337 E21.34752
G1 X42.877 Y73.513 E25.71379
G1 X42.032 Y70.003 E26.14255
G1 X41.555 Y66.120 E26.60724
G1 X41.533 Y62.237 E27.06843
G1 X41.963 Y58.357 E27.53206
G1 X42.967 Y54.167 E28.04372
G1 X44.179 Y50.826 E28.46585
G1 X45.907 Y47.351 E28.92675
G1 X48.287 Y43.764 E29.43804
G1 X50.570 Y41.044 E29.85978
G1 X53.342 Y38.415 E30.31355
G1 E28.31355 F1800.00000
G92 E0
G1 X97.974 Y56.542 F7800.000
G1 E2.00000 F1800.00000
G1 F1800
G1 X97.910 Y57.561 E2.12120
G1 X97.529 Y58.229 E2.21257
G1 X97.174 Y58.635 E2.27664
G1 X96.346 Y59.310 E2.40354
G1 X95.876 Y59.610 E2.46974
G1 X94.928 Y60.108 E2.59687
G1 X94.562 Y60.280 E2.64493
G1 X94.685 Y60.867 E2.71620
G1 X94.749 Y61.460 E2.78702
G1 X95.753 Y61.576 E2.90696
G1 X96.731 Y61.832 E3.02710
G1 X97.313 Y62.029 E3.10008
G1 X98.162 Y62.460 E3.21311
G1 X98.816 Y63.068 E3.31914
G1 X99.149 Y64.006 E3.43738
G1 X98.774 Y64.955 E3.55857
G1 X98.205 Y65.473 E3.64995
G1 X97.742 Y65.749 E3.71401
G1 X96.746 Y66.135 E3.84091
G1 X96.206 Y66.275 E3.90711
G1 X95.151 Y66.455 E4.03424
G1 X94.749 Y66.506 E4.08231
G1 X94.685 Y67.103 E4.15357
G1 X94.563 Y67.687 E4.22439
G1 X95.481 Y68.107 E4.34434
G1 X96.333 Y68.653 E4.46448
G1 X96.826 Y69.020 E4.53745
G1 X97.499 Y69.692 E4.65048
G1 X97.933 Y70.472 E4.75652
G1 X97.961 Y71.468 E4.87475
G1 X97.311 Y72.254 E4.99595
G1 X96.610 Y72.571 E5.08732
G1 X96.084 Y72.691 E5.15138
G1 X95.017 Y72.750 E5.27829
G1 X94.461 Y72.716 E5.34449
G1 X93.401 Y72.562 E5.47162
G1 X93.004 Y72.486 E5.51968
G1 X92.759 Y73.033 E5.59094
G1 X92.462 Y73.551 E5.66177
G1 X93.205 Y74.234 E5.78171
G1 X93.847 Y75.017 E5.90185
G1 X94.201 Y75.518 E5.97483
G1 X94.635 Y76.366 E6.08786
G1 X94.806 Y77.242 E6.19389
G1 X94.525 Y78.197 E6.31212
G1 X93.664 Y78.744 E6.43332
G1 X92.899 Y78.829 E6.52469
G1 X92.362 Y78.780 E6.58876
G1 X91.329 Y78.506 E6.71566
G1 X90.810 Y78.302 E6.78186
G1 X89.851 Y77.828 E6.90899
G1 X89.496 Y77.633 E6.95706
G1 X89.097 Y78.075 E7.02772
G1 X88.654 Y78.483 E7.09922
G1 X89.148 Y79.359 E7.21861
G1 X89.515 Y80.301 E7.33871
G1 X89.698 Y80.887 E7.41169
G1 X89.848 Y81.827 E7.52472
G1 X89.741 Y82.713 E7.63075
G1 X89.276 Y83.392 E7.72836
G1 X88.810 Y83.669 E7.79280
G1 X88.077 Y83.771 E7.88074
G1 X87.491 Y83.652 E7.95171
G1 X86.680 Y83.278 E8.05780
G1 X86.038 Y82.837 E8.15027
G1 X85.659 Y82.528 E8.20831
G1 X84.572 Y81.443 E8.39078
G1 X84.049 Y81.744 E8.46240
G1 X83.505 Y81.988 E8.53322
G1 X83.704 Y82.978 E8.65317
G1 X83.763 Y83.988 E8.77331
G1 X83.755 Y84.602 E8.84629
G1 X83.608 Y85.542 E8.95931
G1 X83.232 Y86.352 E9.06535
G1 X82.443 Y86.959 E9.18358
G1 X81.424 Y86.896 E9.30478
G1 X80.756 Y86.515 E9.39615
G1 X80.350 Y86.159 E9.46022
G1 X79.675 Y85.331 E9.58712
G1 X79.376 Y84.861 E9.65332
G1 X78.878 Y83.913 E9.78045
G1 X78.705 Y83.547 E9.82851
G1 X78.123 Y83.670 E9.89918
G1 X77.525 Y83.740 E9.97067
G1 X77.409 Y84.738 E10.09006
G1 X77.153 Y85.717 E10.21017
G1 X76.956 Y86.299 E10.28315
G1 X76.525 Y87.147 E10.39617
G1 X75.917 Y87.801 E10.50221
G1 X75.143 Y88.077 E10.59981
G1 X74.603 Y88.028 E10.66425
G1 X73.950 Y87.678 E10.75220
G1 X73.546 Y87.238 E10.82316
G1 X73.109 Y86.459 E10.92926
G1 X72.849 Y85.725 E11.02172
G1 X72.724 Y85.252 E11.07977
G1 X72.482 Y83.735 E11.26223
G1 X71.882 Y83.671 E11.33390
G1 X71.304 Y83.549 E11.40410
G1 X71.207 Y83.765 E11.43215
G1 X70.587 Y84.924 E11.58827
G1 X70.328 Y85.326 E11.64506
G1 X69.854 Y85.943 E11.73752
G1 X69.190 Y86.556 E11.84482
G1 X68.684 Y86.842 E11.91390
G1 X67.948 Y86.974 E12.00260
G1 X67.419 Y86.853 E12.06704
G1 X66.768 Y86.352 E12.16465
G1 X66.392 Y85.542 E12.27068
G1 X66.245 Y84.602 E12.38371
G1 X66.237 Y83.987 E12.45669
G1 X66.295 Y82.979 E12.57667
G1 X66.489 Y82.010 E12.69398
G1 X65.932 Y81.732 E12.76792
G1 X65.435 Y81.447 E12.83597
G1 X64.751 Y82.191 E12.95591
G1 X63.969 Y82.832 E13.07605
G1 X63.467 Y83.187 E13.14903
G1 X62.620 Y83.620 E13.26206
G1 X61.744 Y83.792 E13.36809
G1 X60.789 Y83.511 E13.48633
G1 X60.242 Y82.649 E13.60752
G1 X60.157 Y81.884 E13.69889
G1 X60.206 Y81.347 E13.76296
G1 X60.479 Y80.314 E13.88987
G1 X60.683 Y79.796 E13.95606
G1 X61.157 Y78.836 E14.08319
G1 X61.352 Y78.481 E14.13126
G1 X60.907 Y78.079 E14.20252
G1 X60.507 Y77.637 E14.27334
G1 X59.627 Y78.133 E14.39329
G1 X58.685 Y78.501 E14.51343
G1 X58.098 Y78.683 E14.58640
G1 X57.158 Y78.833 E14.69943
G1 X56.272 Y78.726 E14.80546
G1 X55.451 Y78.163 E14.92370
G1 X55.196 Y77.175 E15.04490
G1 X55.352 Y76.422 E15.13627
G1 X55.565 Y75.926 E15.20034
G1 X56.144 Y75.028 E15.32724
G1 X56.498 Y74.598 E15.39344
G1 X57.246 Y73.831 E15.52057
G1 X57.541 Y73.554 E15.56863
G1 X57.242 Y73.034 E15.63990
G1 X56.998 Y72.490 E15.71072
G1 X56.008 Y72.690 E15.83066
G1 X54.998 Y72.749 E15.95080
G1 X54.383 Y72.741 E16.02378
G1 X53.443 Y72.593 E16.13681
G1 X52.633 Y72.217 E16.24284
G1 X52.026 Y71.428 E16.36107
G1 X52.090 Y70.410 E16.48227
G1 X52.471 Y69.741 E16.57364
G1 X52.826 Y69.336 E16.63771
G1 X53.654 Y68.661 E16.76461
G1 X54.124 Y68.361 E16.83081
G1 X55.072 Y67.863 E16.95794
G1 X55.438 Y67.691 E17.00601
G1 X55.315 Y67.104 E17.07727
G1 X55.251 Y66.511 E17.14809
G1 X54.247 Y66.395 E17.26804
G1 X53.269 Y66.139 E17.38818
G1 X52.687 Y65.941 E17.46115
G1 X51.838 Y65.510 E17.57418
G1 X51.184 Y64.903 E17.68021
G1 X50.851 Y63.965 E17.79845
G1 X51.226 Y63.016 E17.91965
G1 X51.795 Y62.498 E18.01102
G1 X52.258 Y62.222 E18.07508
G1 X53.254 Y61.836 E18.20199
G1 X53.794 Y61.696 E18.26819
G1 X54.849 Y61.515 E18.39532
G1 X55.251 Y61.464 E18.44338
G1 X55.315 Y60.868 E18.51464
G1 X55.437 Y60.284 E18.58547
G1 X54.519 Y59.864 E18.70541
G1 X53.667 Y59.318 E18.82555
G1 X53.174 Y58.951 E18.89853
G1 X52.501 Y58.278 E19.01156
G1 X52.067 Y57.498 E19.11759
G1 X52.039 Y56.503 E19.23582
G1 X52.689 Y55.717 E19.35702
G1 X53.390 Y55.400 E19.44839
G1 X53.916 Y55.280 E19.51246
G1 X54.983 Y55.221 E19.63936
G1 X55.539 Y55.255 E19.70556
G1 X56.599 Y55.409 E19.83269
G1 X56.996 Y55.485 E19.88075
G1 X57.241 Y54.937 E19.95202
G1 X57.538 Y54.420 E20.02284
G1 X56.795 Y53.737 E20.14279
G1 X56.153 Y52.954 E20.26292
G1 X55.799 Y52.453 E20.33590
G1 X55.365 Y51.605 E20.44893
G1 X55.194 Y50.729 E20.55496
G1 X55.475 Y49.774 E20.67320
G1 X56.336 Y49.227 E20.79440
G1 X57.101 Y49.142 E20.88577
G1 X57.638 Y49.191 E20.94983
G1 X58.671 Y49.464 E21.07674
G1 X59.190 Y49.669 E21.14294
G1 X60.149 Y50.143 E21.27007
G1 X60.504 Y50.337 E21.31813
G1 X60.907 Y49.892 E21.38939
G1 X61.349 Y49.492 E21.46022
G1 X60.853 Y48.612 E21.58016
G1 X60.485 Y47.670 E21.70030
G1 X60.302 Y47.083 E21.77328
G1 X60.152 Y46.144 E21.88631
G1 X60.259 Y45.257 E21.99234
G1 X60.822 Y44.436 E22.11057
G1 X61.810 Y44.182 E22.23177
G1 X62.564 Y44.337 E22.32314
G1 X63.060 Y44.550 E22.38721
G1 X63.957 Y45.129 E22.51411
G1 X64.388 Y45.484 E22.58031
G1 X65.154 Y46.231 E22.70744
G1 X65.431 Y46.526 E22.75550
G1 X65.951 Y46.227 E22.82677
G1 X66.495 Y45.983 E22.89759
G1 X66.296 Y44.993 E23.01754
G1 X66.237 Y43.983 E23.13767
G1 X66.245 Y43.369 E23.21065
G1 X66.392 Y42.429 E23.32368
G1 X66.768 Y41.619 E23.42971
G1 X67.557 Y41.011 E23.54795
G1 X68.576 Y41.075 E23.66915
G1 X69.244 Y41.456 E23.76052
G1 X69.650 Y41.811 E23.82458
G1 X70.325 Y42.640 E23.95149
G1 X70.624 Y43.110 E24.01769
G1 X71.122 Y44.057 E24.14482
G1 X71.295 Y44.424 E24.19288
G1 X71.882 Y44.300 E24.26414
G1 X72.475 Y44.236 E24.33497
G1 X72.590 Y43.233 E24.45491
G1 X72.847 Y42.254 E24.57505
G1 X73.044 Y41.672 E24.64803
G1 X73.475 Y40.824 E24.76106
G1 X74.085 Y40.168 E24.86740
G1 X75.014 Y39.833 E24.98471
G1 X75.970 Y40.211 E25.10677
G1 X76.488 Y40.780 E25.19814
G1 X76.768 Y41.250 E25.26316
G1 X77.148 Y42.235 E25.38852
G1 X77.290 Y42.779 E25.45533
G1 X77.470 Y43.834 E25.58246
G1 X77.521 Y44.236 E25.63052
G1 X78.118 Y44.300 E25.70178
G1 X78.701 Y44.422 E25.77261
G1 X79.121 Y43.504 E25.89255
G1 X79.667 Y42.652 E26.01269
G1 X80.035 Y42.160 E26.08567
G1 X80.707 Y41.486 E26.19870
G1 X81.487 Y41.052 E26.30473
G1 X82.482 Y41.024 E26.42296
G1 X83.269 Y41.674 E26.54416
G1 X83.586 Y42.375 E26.63553
G1 X83.705 Y42.901 E26.69960
G1 X83.764 Y43.968 E26.82650
G1 X83.731 Y44.525 E26.89270
G1 X83.576 Y45.584 E27.01983
G1 X83.500 Y45.982 E27.06789
G1 X84.048 Y46.227 E27.13916
G1 X84.565 Y46.523 E27.20998
G1 X85.249 Y45.780 E27.32993
G1 X86.031 Y45.139 E27.45007
G1 X86.533 Y44.784 E27.52304
G1 X87.380 Y44.351 E27.63607
G1 X88.256 Y44.179 E27.74210
G1 X89.211 Y44.460 E27.86034
G1 X89.758 Y45.322 E27.98154
G1 X89.843 Y46.086 E28.07291
G1 X89.794 Y46.623 E28.13697
G1 X89.521 Y47.656 E28.26388
G1 X89.317 Y48.175 E28.33008
G1 X88.843 Y49.135 E28.45721
G1 X88.648 Y49.489 E28.50527
G1 X89.093 Y49.892 E28.57653
G1 X89.493 Y50.334 E28.64736
G1 X90.373 Y49.838 E28.76730
G1 X91.315 Y49.470 E28.88744
G1 X91.902 Y49.288 E28.96042
G1 X92.842 Y49.138 E29.07345
G1 X93.728 Y49.245 E29.17948
G1 X94.549 Y49.807 E29.29771
G1 X94.804 Y50.796 E29.41892
G1 X94.648 Y51.549 E29.51029
G1 X94.435 Y52.045 E29.57435
G1 X93.856 Y52.943 E29.70125
G1 X93.502 Y53.373 E29.76745
G1 X92.754 Y54.139 E29.89458
G1 X92.459 Y54.416 E29.94265
G1 X92.758 Y54.937 E30.01391
G1 X93.002 Y55.481 E30.08473
G1 X93.992 Y55.281 E30.20468
G1 X95.002 Y55.222 E30.32482
G1 X95.617 Y55.230 E30.39779
G1 X96.557 Y55.378 E30.51082
G1 X97.367 Y55.754 E30.61685
G1 X97.937 Y56.495 E30.72796
G1 X97.244 Y56.766 F7800.000
G1 F1800
G1 X97.208 Y57.351 E30.79765
G1 X96.945 Y57.813 E30.86080
G1 X96.673 Y58.123 E30.90974
G1 X95.930 Y58.728 E31.02359
G1 X95.517 Y58.992 E31.08172
G1 X94.610 Y59.468 E31.20343
G1 X93.747 Y59.874 E31.31670
G1 X93.979 Y60.979 E31.45080
G1 X94.101 Y62.104 E31.58517
G1 X95.621 Y62.280 E31.76688
G1 X96.526 Y62.517 E31.87803
G1 X97.035 Y62.689 E31.94192
G1 X97.749 Y63.052 E32.03697
G1 X98.201 Y63.472 E32.11034
G1 X98.387 Y63.993 E32.17596
G1 X98.171 Y64.538 E32.24565
G1 X97.778 Y64.897 E32.30880
G1 X97.424 Y65.107 E32.35773
G1 X96.530 Y65.453 E32.47159
G1 X96.056 Y65.576 E32.52972
G1 X95.046 Y65.749 E32.65143
G1 X94.100 Y65.869 E32.76470
G1 X93.979 Y66.991 E32.89880
G1 X93.747 Y68.099 E33.03316
G1 X95.138 Y68.735 E33.21488
G1 X95.926 Y69.240 E33.32603
G1 X96.357 Y69.562 E33.38992
G1 X96.924 Y70.127 E33.48496
G1 X97.224 Y70.667 E33.55834
G1 X97.240 Y71.219 E33.62396
G1 X96.866 Y71.672 E33.69365
G1 X96.381 Y71.891 E33.75680
G1 X95.980 Y71.982 E33.80573
G1 X95.022 Y72.034 E33.91958
G1 X94.534 Y72.005 E33.97772
G1 X93.520 Y71.857 E34.09943
G1 X92.583 Y71.679 E34.21270
G1 X92.121 Y72.709 E34.34679
G1 X91.558 Y73.690 E34.48116
G1 X92.685 Y74.726 E34.66288
G1 X93.278 Y75.450 E34.77402
G1 X93.589 Y75.889 E34.83791
G1 X93.953 Y76.601 E34.93296
G1 X94.072 Y77.208 E35.00633
G1 X93.916 Y77.738 E35.07195
G1 X93.421 Y78.052 E35.14165
G1 X92.892 Y78.111 E35.20479
G1 X92.482 Y78.074 E35.25373
G1 X91.555 Y77.828 E35.36758
G1 X91.100 Y77.649 E35.42571
G1 X90.181 Y77.195 E35.54742
G1 X89.345 Y76.735 E35.66069
G1 X88.589 Y77.571 E35.79457
G1 X87.755 Y78.341 E35.92934
G1 X88.501 Y79.665 E36.10986
G1 X88.841 Y80.537 E36.22100
G1 X89.001 Y81.050 E36.28489
G1 X89.127 Y81.841 E36.37993
G1 X89.053 Y82.454 E36.45331
G1 X88.776 Y82.859 E36.51152
G1 X88.569 Y82.982 E36.54012
G1 X88.095 Y83.047 E36.59688
G1 X87.720 Y82.971 E36.64232
G1 X87.034 Y82.655 E36.73210
G1 X86.467 Y82.265 E36.81382
G1 X86.138 Y81.998 E36.86413
G1 X84.689 Y80.552 E37.10721
G1 X83.724 Y81.107 E37.23946
G1 X82.692 Y81.570 E37.37382
G1 X82.994 Y83.070 E37.55554
G1 X83.049 Y84.004 E37.66669
G1 X83.042 Y84.542 E37.73058
G1 X82.918 Y85.332 E37.82562
G1 X82.658 Y85.893 E37.89900
G1 X82.220 Y86.230 E37.96462
G1 X81.634 Y86.193 E38.03431
G1 X81.172 Y85.930 E38.09746
G1 X80.862 Y85.658 E38.14639
G1 X80.257 Y84.915 E38.26024
G1 X79.994 Y84.502 E38.31838
G1 X79.517 Y83.595 E38.44009
G1 X79.111 Y82.732 E38.55336
G1 X78.008 Y82.964 E38.68724
G1 X76.881 Y83.096 E38.82200
G1 X76.706 Y84.606 E39.00253
G1 X76.469 Y85.511 E39.11366
G1 X76.296 Y86.021 E39.17755
G1 X75.934 Y86.734 E39.27259
G1 X75.513 Y87.187 E39.34597
G1 X75.051 Y87.351 E39.40418
G1 X74.812 Y87.329 E39.43278
G1 X74.390 Y87.104 E39.48954
G1 X74.131 Y86.822 E39.53499
G1 X73.762 Y86.163 E39.62477
G1 X73.532 Y85.514 E39.70648
G1 X73.424 Y85.105 E39.75679
G1 X73.101 Y83.083 E39.99987
G1 X71.994 Y82.964 E40.13213
G1 X70.887 Y82.732 E40.26647
G1 X70.566 Y83.450 E40.35990
G1 X69.971 Y84.561 E40.50961
G1 X69.743 Y84.914 E40.55947
G1 X69.324 Y85.460 E40.64118
G1 X68.766 Y85.975 E40.73139
G1 X68.438 Y86.161 E40.77616
G1 X67.966 Y86.245 E40.83319
G1 X67.731 Y86.192 E40.86179
G1 X67.342 Y85.893 E40.92000
G1 X67.082 Y85.332 E40.99338
G1 X66.958 Y84.542 E41.08842
G1 X66.951 Y84.004 E41.15232
G1 X67.006 Y83.070 E41.26340
G1 X67.284 Y81.609 E41.44001
G1 X66.269 Y81.103 E41.57479
G1 X65.295 Y80.544 E41.70816
G1 X64.260 Y81.670 E41.88988
G1 X63.536 Y82.263 E42.00103
G1 X63.097 Y82.574 E42.06492
G1 X62.384 Y82.938 E42.15996
G1 X61.778 Y83.057 E42.23334
G1 X61.248 Y82.901 E42.29896
G1 X60.933 Y82.406 E42.36865
G1 X60.874 Y81.877 E42.43180
G1 X60.912 Y81.467 E42.48073
G1 X61.158 Y80.541 E42.59458
G1 X61.337 Y80.085 E42.65272
G1 X61.791 Y79.166 E42.77443
G1 X62.250 Y78.330 E42.88770
G1 X61.413 Y77.573 E43.02179
G1 X60.653 Y76.734 E43.15616
G1 X59.320 Y77.486 E43.33788
G1 X58.449 Y77.826 E43.44902
G1 X57.935 Y77.986 E43.51292
G1 X57.145 Y78.112 E43.60796
G1 X56.531 Y78.038 E43.68133
G1 X56.075 Y77.726 E43.74695
G1 X55.929 Y77.157 E43.81665
G1 X56.037 Y76.637 E43.87980
G1 X56.199 Y76.258 E43.92873
G1 X56.719 Y75.453 E44.04258
G1 X57.030 Y75.075 E44.10071
G1 X57.746 Y74.341 E44.22243
G1 X58.441 Y73.688 E44.33569
G1 X57.879 Y72.709 E44.46979
G1 X57.416 Y71.677 E44.60416
G1 X55.916 Y71.980 E44.78588
G1 X54.982 Y72.034 E44.89702
G1 X54.444 Y72.027 E44.96091
G1 X53.653 Y71.903 E45.05596
G1 X53.093 Y71.643 E45.12933
G1 X52.756 Y71.205 E45.19495
G1 X52.792 Y70.620 E45.26464
G1 X53.055 Y70.158 E45.32779
G1 X53.327 Y69.848 E45.37673
G1 X54.070 Y69.242 E45.49058
G1 X54.483 Y68.979 E45.54871
G1 X55.390 Y68.503 E45.67042
G1 X56.253 Y68.096 E45.78369
G1 X56.021 Y66.991 E45.91779
G1 X55.899 Y65.867 E46.05215
G1 X54.379 Y65.691 E46.23387
G1 X53.474 Y65.454 E46.34502
G1 X52.965 Y65.282 E46.40891
G1 X52.251 Y64.919 E46.50395
G1 X51.799 Y64.498 E46.57733
G1 X51.613 Y63.978 E46.64295
