; generated by Slic3r Prusa Edition 1.41.0-beta+win64 on 2018-11-13 at 16:27:54

; 

; external perimeters extrusion width = 0.45mm
; perimeters extrusion width = 0.45mm
; infill extrusion width = 0.45mm
; solid infill extrusion width = 0.45mm
; top infill extrusion width = 0.40mm
; support material extrusion width = 0.40mm
; first layer extrusion width = 0.80mm

M107
M104 S210 ; set temperature
G28 ; home all axes
G1 Z5 F5000 ; lift nozzle
; Filament gcode
M109 S210 ; set temperature and wait for it to be reached
G21 ; set units to millimeters
G90 ; use absolute coordinates
M82 ; use absolute distances for extrusion
G92 E0
G1 Z0.400 F7800.000
G1 E-2.00000 F1800.00000
G92 E0
G1 X54.346 Y52.119 F7800.000
G1 E2.00000 F1800.00000
G1 X55.277 Y51.431 E2.13741
G1 X56.317 Y50.924 E2.27482
G1 X57.425 Y50.615 E2.41149
G1 X58.577 Y50.511 E2.54890
G1 X90.508 Y50.853 E6.34133
G1 X91.857 Y51.111 E6.50450
G1 X93.125 Y51.656 E6.66841
G1 X94.241 Y52.458 E6.83159
G1 X95.162 Y53.486 E6.99550
G1 X95.651 Y54.288 E7.10710
G1 X96.017 Y55.154 E7.21871
G1 X96.252 Y56.070 E7.33105
G1 X96.349 Y57.005 E7.44266
G1 X96.349 Y94.523 E11.89855
G1 X96.137 Y95.962 E12.07128
G1 X95.604 Y97.315 E12.24401
G1 X94.777 Y98.512 E12.41674
G1 X93.700 Y99.489 E12.58948
G1 X92.887 Y99.985 E12.70256
G1 X92.015 Y100.351 E12.81490
G1 X91.098 Y100.584 E12.92725
G1 X90.151 Y100.679 E13.04033
G1 X60.704 Y100.318 E16.53782
G1 X59.884 Y100.169 E16.63688
G1 X59.084 Y99.911 E16.73668
G1 X58.325 Y99.551 E16.83648
G1 X57.625 Y99.097 E16.93554
G1 X57.009 Y98.572 E17.03165
G1 X54.076 Y95.661 E17.52248
G1 X53.407 Y94.874 E17.64515
G1 X52.917 Y94.072 E17.75676
G1 X52.551 Y93.206 E17.86837
G1 X52.316 Y92.296 E17.97997
G1 X52.217 Y91.356 E18.09232
G1 X52.257 Y56.135 E22.27535
G1 X52.493 Y55.008 E22.41203
G1 X52.930 Y53.937 E22.54944
G1 X53.555 Y52.963 E22.68685
G1 X54.305 Y52.163 E22.81713
; PURGING FINISHED
G1 E20.81713
G92 E0
G1 X58.572 Y56.868 F7800.000
G1 E2.00000 F1800.00000
G1 X58.572 Y91.167 E6.07351
G1 X60.000 Y91.167 E6.24315
G1 X60.000 Y57.189 E10.27849
G1 X61.428 Y57.189 E10.44812
G1 X61.428 Y94.002 E14.82024
G1 X62.857 Y94.002 E14.98987
G1 X62.857 Y88.881 E15.59810
G1 X64.285 Y88.881 E15.76774
G1 X64.285 Y94.002 E16.37597
G1 X65.713 Y94.002 E16.54560
G1 X65.713 Y88.881 E17.15383
G1 X67.142 Y88.881 E17.32347
G1 X67.142 Y94.002 E17.93170
G1 X68.570 Y94.002 E18.10133
G1 X68.570 Y88.881 E18.70957
G1 X69.998 Y88.881 E18.87920
G1 X69.998 Y94.002 E19.48743
G1 X71.427 Y94.002 E19.65707
G1 X71.427 Y88.881 E20.26530
G1 X72.855 Y88.881 E20.43493
G1 X72.855 Y94.002 E21.04317
G1 X74.283 Y94.002 E21.21280
G1 X74.283 Y88.881 E21.82103
G1 X75.711 Y88.881 E21.99067
G1 X75.711 Y94.002 E22.59890
G1 X77.140 Y94.002 E22.76853
G1 X77.140 Y88.881 E23.37677
G1 X78.568 Y88.881 E23.54640
G1 X78.568 Y94.002 E24.15464
G1 X79.996 Y94.002 E24.32427
G1 X79.996 Y88.881 E24.93251
G1 X81.425 Y88.881 E25.10214
G1 X81.425 Y94.002 E25.71037
G1 X82.853 Y94.002 E25.88001
G1 X82.853 Y88.881 E26.48824
G1 X84.281 Y88.881 E26.65788
G1 X84.281 Y94.002 E27.26611
G1 X85.710 Y94.002 E27.43575
G1 X85.710 Y88.881 E28.04399
G1 X87.138 Y88.881 E28.21362
G1 X87.138 Y94.002 E28.82186
G1 X88.566 Y94.002 E28.99149
G1 X88.566 Y57.189 E33.36361
G1 X89.995 Y57.189 E33.53324
G1 X89.995 Y94.324 E37.94353
G1 E35.94353
G92 E0
G1 X88.125 Y88.125 F7800.000
G1 X88.024 Y88.507
G1 E2.00000 F1800.00000
G1 X88.024 Y62.836 E3.34121
G1 X87.689 Y62.836 E3.35875
G1 X87.689 Y88.356 E4.69207
G1 X87.353 Y88.356 E4.70960
G1 X87.353 Y62.836 E6.04292
G1 X87.017 Y62.836 E6.06046
G1 X87.017 Y88.356 E7.39378
G1 X86.682 Y88.356 E7.41131
G1 X86.682 Y62.836 E8.74463
G1 X86.346 Y62.836 E8.76217
G1 X86.346 Y88.356 E10.09549
G1 X86.010 Y88.356 E10.11302
G1 X86.010 Y62.836 E11.44635
G1 X85.675 Y62.836 E11.46388
G1 X85.675 Y88.356 E12.79720
G1 X85.339 Y88.356 E12.81474
G1 X85.339 Y85.674 E12.95488
G1 X85.122 Y85.674 E12.96623
G1 X85.004 Y85.674 E12.97242
G1 X85.004 Y88.356 E13.11256
G1 X84.668 Y88.356 E13.13010
G1 X84.668 Y85.674 E13.27024
G1 X84.332 Y85.674 E13.28778
G1 X84.332 Y88.356 E13.42792
G1 X83.997 Y88.356 E13.44546
G1 X83.997 Y85.674 E13.58560
G1 X83.661 Y85.674 E13.60314
G1 X83.661 Y88.356 E13.74328
G1 X83.325 Y88.356 E13.76082
G1 X83.325 Y85.674 E13.90097
G1 X82.990 Y85.674 E13.91850
G1 X82.990 Y88.356 E14.05865
G1 X82.654 Y88.356 E14.07618
G1 X82.654 Y85.674 E14.21633
G1 X82.319 Y85.674 E14.23386
G1 X82.319 Y88.356 E14.37401
G1 X81.983 Y88.356 E14.39154
G1 X81.983 Y85.674 E14.53169
G1 X81.647 Y85.674 E14.54922
G1 X81.647 Y88.356 E14.68937
G1 X81.312 Y88.356 E14.70690
G1 X81.312 Y85.674 E14.84705
G1 X80.976 Y85.674 E14.86458
G1 X80.976 Y88.356 E15.00473
G1 X80.641 Y88.356 E15.02226
G1 X80.641 Y85.674 E15.16241
G1 X80.305 Y85.674 E15.17994
G1 X80.305 Y88.356 E15.32009
G1 X79.969 Y88.356 E15.33763
G1 X79.969 Y85.674 E15.47777
G1 X79.634 Y85.674 E15.49531
G1 X79.634 Y88.356 E15.63545
G1 X79.298 Y88.356 E15.65299
G1 X79.298 Y85.674 E15.79313
G1 X78.962 Y85.674 E15.81067
G1 X78.962 Y88.356 E15.95081
G1 X78.627 Y88.356 E15.96835
G1 X78.627 Y85.674 E16.10849
G1 X78.291 Y85.674 E16.12603
G1 X78.291 Y88.356 E16.26617
G1 X77.956 Y88.356 E16.28371
G1 X77.956 Y85.674 E16.42386
G1 X77.620 Y85.674 E16.44139
G1 X77.620 Y88.356 E16.58154
G1 X77.284 Y88.356 E16.59907
G1 X77.284 Y85.674 E16.73922
G1 X76.949 Y85.674 E16.75675
G1 X76.949 Y88.356 E16.89690
G1 X76.613 Y88.356 E16.91443
G1 X76.613 Y85.674 E17.05458
G1 X76.277 Y85.674 E17.07211
G1 X76.277 Y88.356 E17.21226
G1 X75.942 Y88.356 E17.22979
G1 X75.942 Y85.674 E17.36994
G1 X75.606 Y85.674 E17.38747
G1 X75.606 Y88.356 E17.52762
G1 X75.271 Y88.356 E17.54515
G1 X75.271 Y85.674 E17.68530
G1 X74.935 Y85.674 E17.70283
G1 X74.935 Y88.356 E17.84298
G1 X74.599 Y88.356 E17.86052
G1 X74.599 Y85.674 E18.00066
G1 X74.264 Y85.674 E18.01820
G1 X74.264 Y88.356 E18.15834
G1 X73.928 Y88.356 E18.17588
G1 X73.928 Y85.674 E18.31602
G1 X73.593 Y85.674 E18.33356
G1 X73.593 Y88.356 E18.47370
G1 X73.257 Y88.356 E18.49124
G1 X73.257 Y85.674 E18.63138
G1 X72.921 Y85.674 E18.64892
G1 X72.921 Y88.356 E18.78906
G1 X72.586 Y88.356 E18.80660
G1 X72.586 Y85.674 E18.94675
G1 X72.250 Y85.674 E18.96428
G1 X72.250 Y88.356 E19.10443
G1 X71.914 Y88.356 E19.12196
G1 X71.914 Y85.674 E19.26211
G1 X71.579 Y85.674 E19.27964
G1 X71.579 Y88.356 E19.41979
G1 X71.243 Y88.356 E19.43732
G1 X71.243 Y85.674 E19.57747
G1 X70.908 Y85.674 E19.59500
G1 X70.908 Y88.356 E19.73515
G1 X70.572 Y88.356 E19.75268
G1 X70.572 Y85.674 E19.89283
G1 X70.236 Y85.674 E19.91036
G1 X70.236 Y88.356 E20.05051
G1 X69.901 Y88.356 E20.06804
G1 X69.901 Y85.674 E20.20819
G1 X69.565 Y85.674 E20.22572
G1 X69.565 Y88.356 E20.36587
G1 X69.229 Y88.356 E20.38340
G1 X69.229 Y85.674 E20.52355
G1 X68.894 Y85.674 E20.54109
G1 X68.894 Y88.356 E20.68123
G1 X68.558 Y88.356 E20.69877
G1 X68.558 Y85.674 E20.83891
G1 X68.223 Y85.674 E20.85645
G1 X68.223 Y88.356 E20.99659
G1 X67.887 Y88.356 E21.01413
G1 X67.887 Y85.674 E21.15427
G1 X67.848 Y85.674 E21.15633
G1 X67.632 Y85.458 E21.17225
G1 X67.632 Y83.848 E21.25639
G1 X67.848 Y83.632 E21.27231
G1 X67.887 Y83.632 E21.27437
G1 X67.887 Y82.685 E21.32386
G1 X68.223 Y82.685 E21.34139
G1 X68.223 Y83.632 E21.39088
G1 X68.558 Y83.632 E21.40842
G1 X68.558 Y82.685 E21.45791
G1 X68.894 Y82.685 E21.47544
G1 X68.894 Y83.632 E21.52493
G1 X69.229 Y83.632 E21.54247
G1 X69.229 Y82.685 E21.59196
G1 X69.565 Y82.685 E21.60949
G1 X69.565 Y83.783 E21.66687
G1 X68.570 Y84.361 F7800.000
G1 F1800
G1 X68.570 Y85.149 E21.76048
G1 X69.998 Y85.149 E21.93012
G1 X69.998 Y84.682 E21.98556
G1 X71.427 Y84.682 E22.15519
G1 X71.427 Y85.470 E22.24880
G1 E20.24880
G92 E0
G1 X67.551 Y88.507 F7800.000
G1 E2.00000 F1800.00000
G1 X67.551 Y82.685 E2.30419
G1 X67.216 Y82.685 E2.32172
G1 X67.216 Y88.356 E2.61801
G1 X66.880 Y88.356 E2.63555
G1 X66.880 Y82.685 E2.93184
G1 X66.545 Y82.685 E2.94938
G1 X66.545 Y88.356 E3.24567
G1 X66.209 Y88.356 E3.26321
G1 X66.209 Y85.617 E3.40631
G1 X66.152 Y85.674 E3.41049
G1 X65.873 Y85.674 E3.42507
G1 X65.873 Y88.356 E3.56521
G1 X65.538 Y88.356 E3.58275
G1 X65.538 Y85.674 E3.72289
G1 X65.202 Y85.674 E3.74043
G1 X65.202 Y88.356 E3.88057
G1 X64.866 Y88.356 E3.89811
G1 X64.866 Y85.674 E4.03825
G1 X64.531 Y85.663 E4.05580
G1 X64.531 Y88.356 E4.19652
G1 X64.195 Y88.356 E4.21405
G1 X64.195 Y62.836 E5.54737
G1 X64.531 Y62.836 E5.56491
G1 X64.531 Y64.337 E5.64336
G1 X64.866 Y64.326 E5.66090
G1 X64.866 Y62.836 E5.73879
G1 X65.202 Y62.836 E5.75632
G1 X65.202 Y64.326 E5.83420
G1 X65.538 Y64.326 E5.85174
G1 X65.538 Y62.836 E5.92962
G1 X65.873 Y62.836 E5.94715
G1 X65.873 Y64.326 E6.02504
G1 X66.209 Y64.326 E6.04257
G1 X66.209 Y62.836 E6.12045
G1 X66.545 Y62.836 E6.13799
G1 X66.545 Y64.326 E6.21587
G1 X66.880 Y64.326 E6.23340
G1 X66.880 Y62.836 E6.31128
G1 X67.216 Y62.836 E6.32882
G1 X67.216 Y64.326 E6.40670
G1 X67.551 Y64.326 E6.42424
G1 X67.551 Y62.836 E6.50212
G1 X67.887 Y62.836 E6.51965
G1 X67.887 Y64.326 E6.59753
G1 X68.223 Y64.326 E6.61507
G1 X68.223 Y62.836 E6.69295
G1 X68.558 Y62.836 E6.71048
G1 X68.558 Y64.326 E6.78837
G1 X68.894 Y64.326 E6.80590
G1 X68.894 Y62.836 E6.88378
G1 X69.229 Y62.836 E6.90132
G1 X69.229 Y64.326 E6.97920
G1 X69.565 Y64.326 E6.99673
G1 X69.565 Y62.836 E7.07462
G1 X69.901 Y62.836 E7.09215
G1 X69.901 Y64.326 E7.17003
G1 X70.236 Y64.326 E7.18757
G1 X70.236 Y62.836 E7.26545
G1 X70.572 Y62.836 E7.28298
G1 X70.572 Y64.326 E7.36086
G1 X70.908 Y64.326 E7.37840
G1 X70.908 Y62.836 E7.45628
G1 X71.243 Y62.836 E7.47382
G1 X71.243 Y64.326 E7.55170
G1 X71.579 Y64.326 E7.56923
G1 X71.579 Y62.836 E7.64711
G1 X71.914 Y62.836 E7.66465
G1 X71.914 Y64.326 E7.74253
G1 X72.250 Y64.326 E7.76006
G1 X72.250 Y62.836 E7.83795
G1 X72.586 Y62.836 E7.85548
G1 X72.586 Y64.326 E7.93336
G1 X72.921 Y64.326 E7.95090
G1 X72.921 Y62.836 E8.02878
G1 X73.257 Y62.836 E8.04631
G1 X73.257 Y64.326 E8.12420
G1 X73.593 Y64.326 E8.14173
G1 X73.593 Y62.836 E8.21961
G1 X73.928 Y62.836 E8.23715
G1 X73.928 Y64.326 E8.31503
G1 X74.264 Y64.326 E8.33256
G1 X74.264 Y62.836 E8.41044
G1 X74.599 Y62.836 E8.42798
G1 X74.599 Y64.326 E8.50586
G1 X74.935 Y64.326 E8.52340
G1 X74.935 Y62.836 E8.60128
G1 X75.271 Y62.836 E8.61881
G1 X75.271 Y64.326 E8.69669
G1 X75.606 Y64.326 E8.71423
G1 X75.606 Y62.836 E8.79211
G1 X75.942 Y62.836 E8.80964
G1 X75.942 Y64.326 E8.88753
G1 X76.277 Y64.326 E8.90506
G1 X76.277 Y62.836 E8.98294
G1 X76.613 Y62.836 E9.00048
G1 X76.613 Y64.326 E9.07836
G1 X76.949 Y64.326 E9.09589
G1 X76.949 Y62.836 E9.17378
G1 X77.284 Y62.836 E9.19131
G1 X77.284 Y64.326 E9.26919
G1 X77.620 Y64.326 E9.28673
G1 X77.620 Y62.836 E9.36461
G1 X77.956 Y62.836 E9.38214
G1 X77.956 Y64.326 E9.46002
G1 X78.291 Y64.326 E9.47756
G1 X78.291 Y62.836 E9.55544
G1 X78.627 Y62.836 E9.57298
G1 X78.627 Y64.326 E9.65086
G1 X78.962 Y64.326 E9.66839
G1 X78.962 Y62.836 E9.74627
G1 X79.298 Y62.836 E9.76381
G1 X79.298 Y64.326 E9.84169
G1 X79.634 Y64.326 E9.85922
G1 X79.634 Y62.836 E9.93711
G1 X79.969 Y62.836 E9.95464
G1 X79.969 Y64.326 E10.03252
G1 X80.305 Y64.326 E10.05006
G1 X80.305 Y62.836 E10.12794
G1 X80.641 Y62.836 E10.14547
G1 X80.641 Y64.326 E10.22336
G1 X80.976 Y64.326 E10.24089
G1 X80.976 Y62.836 E10.31877
G1 X81.312 Y62.836 E10.33631
G1 X81.312 Y64.326 E10.41419
G1 X81.647 Y64.326 E10.43172
G1 X81.647 Y62.836 E10.50960
G1 X81.983 Y62.836 E10.52714
G1 X81.983 Y64.326 E10.60502
G1 X82.319 Y64.326 E10.62256
G1 X82.319 Y62.836 E10.70044
G1 X82.654 Y62.836 E10.71797
G1 X82.654 Y64.326 E10.79585
G1 X82.990 Y64.326 E10.81339
G1 X82.990 Y62.836 E10.89127
G1 X83.325 Y62.836 E10.90880
G1 X83.325 Y64.326 E10.98669
G1 X83.661 Y64.326 E11.00422
G1 X83.661 Y62.836 E11.08210
G1 X83.997 Y62.836 E11.09964
G1 X83.997 Y64.326 E11.17752
G1 X84.332 Y64.326 E11.19505
G1 X84.332 Y62.836 E11.27294
G1 X84.668 Y62.836 E11.29047
G1 X84.668 Y64.326 E11.36835
G1 X85.004 Y64.326 E11.38589
G1 X85.004 Y62.836 E11.46377
G1 X85.339 Y62.836 E11.48130
G1 X85.339 Y64.477 E11.56708
G1 X84.281 Y65.632 F7800.000
G1 F1800
G1 X84.281 Y64.851 E11.65980
G1 X82.853 Y64.851 E11.82943
G1 X82.853 Y65.311 E11.88398
G1 X81.425 Y65.311 E12.05362
G1 X81.425 Y64.851 E12.10817
G1 X79.996 Y64.851 E12.27780
G1 X79.996 Y65.311 E12.33235
G1 X78.568 Y65.311 E12.50199
G1 X78.568 Y64.851 E12.55654
G1 X77.140 Y64.851 E12.72617
G1 X77.140 Y65.311 E12.78073
G1 X75.711 Y65.311 E12.95036
G1 X75.711 Y64.851 E13.00491
G1 X74.283 Y64.851 E13.17455
G1 X74.283 Y65.311 E13.22910
G1 X72.855 Y65.311 E13.39873
G1 X72.855 Y64.851 E13.45328
G1 X71.427 Y64.851 E13.62292
G1 X71.427 Y65.311 E13.67747
G1 X69.998 Y65.311 E13.84710
G1 X69.998 Y64.851 E13.90166
G1 X68.570 Y64.851 E14.07129
G1 X68.570 Y65.311 E14.12584
G1 X67.142 Y65.311 E14.29548
G1 X67.142 Y64.851 E14.35003
G1 X65.713 Y64.851 E14.51966
G1 X65.713 Y65.632 E14.61238
G1 E12.61238
G92 E0
G1 X62.857 Y62.632 F7800.000
G1 E2.00000 F1800.00000
G1 X62.857 Y57.189 E2.64640
G1 X64.285 Y57.189 E2.81604
G1 X64.285 Y62.311 E3.42428
G1 X65.713 Y62.311 E3.59391
G1 X65.713 Y57.189 E4.20215
G1 X67.142 Y57.189 E4.37178
G1 X67.142 Y62.311 E4.98002
G1 X68.570 Y62.311 E5.14965
G1 X68.570 Y57.189 E5.75789
G1 X69.998 Y57.189 E5.92752
G1 X69.998 Y62.311 E6.53576
G1 X71.427 Y62.311 E6.70539
G1 X71.427 Y57.189 E7.31362
G1 X72.855 Y57.189 E7.48326
G1 X72.855 Y62.311 E8.09149
G1 X74.283 Y62.311 E8.26113
G1 X74.283 Y57.189 E8.86936
G1 X75.711 Y57.189 E9.03900
G1 X75.711 Y62.311 E9.64723
G1 X77.140 Y62.311 E9.81686
G1 X77.140 Y57.189 E10.42510
G1 X78.568 Y57.189 E10.59473
G1 X78.568 Y62.311 E11.20296
G1 X79.996 Y62.311 E11.37260
G1 X79.996 Y57.189 E11.98083
G1 X81.425 Y57.189 E12.15046
G1 X81.425 Y62.311 E12.75870
G1 X82.853 Y62.311 E12.92833
G1 X82.853 Y57.189 E13.53656
G1 X84.281 Y57.189 E13.70620
G1 X84.281 Y62.311 E14.31443
G1 X85.710 Y62.311 E14.48406
G1 X85.710 Y57.189 E15.09229
G1 X87.138 Y57.189 E15.26193
G1 X87.138 Y62.632 E15.90833
G1 E13.90833
G92 E0
G1 X67.142 Y80.236 F7800.000
G1 E2.00000 F1800.00000
G1 X67.142 Y82.481 E2.26670
G1 X66.209 Y83.902 F7800.000
G1 F1800
G1 X66.209 Y82.685 E2.33030
G1 X65.873 Y82.685 E2.34784
G1 X65.873 Y83.632 E2.39733
G1 X65.538 Y83.632 E2.41486
G1 X65.538 Y82.368 E2.48092
G1 X65.202 Y82.368 E2.49846
G1 X65.202 Y83.632 E2.56451
G1 X64.866 Y83.632 E2.58205
G1 X64.866 Y82.368 E2.64811
G1 X64.531 Y82.357 E2.66565
G1 X64.531 Y83.857 E2.74401
G1 X65.713 Y84.296 F7800.000
G1 F1800
G1 X65.713 Y85.470 E2.88342
G1 E0.88342
G92 E0
G1 X63.860 Y88.507 F7800.000
G1 E2.00000 F1800.00000
G1 X63.860 Y62.836 E3.34121
G1 X63.524 Y62.836 E3.35875
G1 X63.524 Y88.356 E4.69207
G1 X63.188 Y88.356 E4.70960
G1 X63.188 Y62.836 E6.04292
G1 X62.853 Y62.836 E6.06046
G1 X62.853 Y88.507 E7.40167
G1 E5.40167
G92 E0
G1 X82.297 Y82.297 F7800.000
G1 E2.00000 F1800.00000
G1 X71.828 Y82.297 E3.24326
G1 X71.828 Y80.172 E3.49562
G1 X69.828 Y80.172 E3.73315
G1 X69.828 Y78.172 E3.97068
G1 X67.703 Y78.172 E4.22303
G1 X67.703 Y67.703 E5.46629
G1 X82.297 Y67.703 E7.19944
G1 X82.297 Y82.237 E8.92546
G1 E6.92546
G92 E0
G1 X71.114 Y80.886 F7800.000
G1 E2.00000 F1800.00000
G1 X69.114 Y80.886 E2.23753
G1 X69.114 Y78.886 E2.47506
G1 X66.989 Y78.886 E2.72742
G1 X66.989 Y66.989 E4.14031
G1 X83.011 Y66.989 E6.04309
G1 X83.011 Y83.011 E7.94587
G1 X71.114 Y83.011 E9.35876
G1 X71.114 Y80.946 E9.60400
G1 X70.400 Y81.600 F7800.000
G1 F1800
G1 X68.400 Y81.600 E9.84153
G1 X68.400 Y79.600 E10.07906
G1 X66.275 Y79.600 E10.33141
G1 X66.275 Y66.275 E11.91394
G1 X83.725 Y66.275 E13.98636
G1 X83.725 Y83.725 E16.05877
G1 X70.400 Y83.725 E17.64130
G1 X70.400 Y81.660 E17.88653
G1 X70.219 Y81.244 F7800.000
G1 X72.043 Y80.632
G1 F1800
G1 X73.493 Y82.082 E18.13119
G1 E16.13119
G92 E0
G1 X71.368 Y79.957 F7800.000
G1 E2.00000 F1800.00000
G1 X70.043 Y78.632 E2.22360
G1 X69.368 Y77.957 F7800.000
G1 F1800
G1 X68.239 Y76.829 E2.41405
G1 X68.239 Y75.814 E2.53507
G1 X74.186 Y81.761 E3.53833
G1 X75.200 Y81.761 E3.65935
G1 X68.239 Y74.800 E4.83376
G1 X68.239 Y73.785 E4.95477
G1 X76.215 Y81.761 E6.30033
G1 X77.229 Y81.761 E6.42135
G1 X68.239 Y72.771 E7.93805
G1 X68.239 Y71.756 E8.05907
G1 X78.244 Y81.761 E9.74692
G1 X79.258 Y81.761 E9.86793
G1 X68.239 Y70.742 E11.72693
G1 X68.239 Y69.727 E11.84795
G1 X80.273 Y81.761 E13.87809
G1 X81.287 Y81.761 E13.99911
