; generated by Slic3r Prusa Edition 1.41.0-beta+win64 on 2018-10-23 at 09:20:08

; 

; external perimeters extrusion width = 0.45mm
; perimeters extrusion width = 0.45mm
; infill extrusion width = 0.45mm
; solid infill extrusion width = 0.45mm
; top infill extrusion width = 0.40mm
; first layer extrusion width = 0.80mm

M107
M104 S210 ; set temperature
G28 ; home all axes
G1 Z5 F5000 ; lift nozzle
; Filament gcode
M109 S210 ; set temperature and wait for it to be reached
G21 ; set units to millimeters
G90 ; use absolute coordinates
M82 ; use absolute distances for extrusion
G92 E0
G1 Z0.400 F7800.000
G1 E-2.00000 F1800.00000
G92 E0
G1 X55.542 Y55.235 F7800.000
G1 E2.00000 F1800.00000
G1 X56.664 Y54.442 E2.16317
G1 X57.936 Y53.907 E2.32708
G1 X59.287 Y53.660 E2.49026
G1 X90.256 Y53.643 E6.16828
G1 X91.445 Y53.756 E6.31011
G1 X92.592 Y54.090 E6.45194
G1 X93.656 Y54.632 E6.59377
G1 X94.600 Y55.364 E6.73560
G1 X95.390 Y56.259 E6.87743
G1 X95.999 Y57.286 E7.01926
G1 X96.405 Y58.409 E7.16110
G1 X96.594 Y59.589 E7.30293
G1 X96.592 Y60.435 E7.40346
G1 X94.893 Y84.203 E10.23349
G1 X94.729 Y85.027 E10.33329
G1 X94.097 Y87.172 E10.59879
G1 X93.101 Y89.212 E10.86848
G1 X92.607 Y90.005 E10.97934
G1 X90.923 Y92.073 E11.29616
G1 X89.246 Y93.520 E11.55920
G1 X88.446 Y94.070 E11.67449
G1 X86.754 Y95.008 E11.90418
G1 X85.894 Y95.369 E12.01505
G1 X83.837 Y96.011 E12.27097
G1 X81.742 Y96.314 E12.52234
G1 X68.205 Y96.307 E14.13008
G1 X66.132 Y96.004 E14.37881
G1 X63.971 Y95.322 E14.64804
G1 X63.096 Y94.929 E14.76186
G1 X60.995 Y93.705 E15.05069
G1 X58.906 Y91.899 E15.37864
G1 X57.154 Y89.653 E15.71694
G1 X55.890 Y87.136 E16.05145
G1 X55.144 Y84.449 E16.38266
G1 X54.944 Y82.404 E16.62666
G1 X53.394 Y60.120 E19.27968
G1 X53.459 Y59.089 E19.40235
G1 X53.689 Y58.082 E19.52502
G1 X54.077 Y57.132 E19.64695
G1 X54.616 Y56.251 E19.76962
G1 X55.501 Y55.280 E19.92567
; PURGING FINISHED
G1 E17.92567
G92 E0
G1 X80.400 Y88.900 F7800.000
G1 E2.00000 F1800.00000
G1 X69.600 Y88.900 E3.28266
G1 X69.600 Y83.600 E3.91212
G1 X80.400 Y83.600 E5.19478
G1 X80.400 Y88.840 E5.81711
G1 X80.545 Y89.273 F7800.000
G1 X81.828 Y88.084
G1 F1800
G1 X81.828 Y82.172 E6.51935
G1 X68.172 Y82.172 E8.14128
G1 X68.172 Y88.084 E8.84351
G1 X66.862 Y87.658 E9.00707
G1 X65.795 Y87.064 E9.15210
G1 X64.848 Y86.256 E9.30005
G1 X64.080 Y85.274 E9.44800
G1 X63.533 Y84.183 E9.59303
G1 X63.217 Y83.051 E9.73254
G1 X63.107 Y81.802 E9.88141
G1 X61.711 Y61.828 E12.25944
G1 X88.289 Y61.828 E15.41607
G1 X86.893 Y81.802 E17.79409
G1 X86.783 Y83.051 E17.94296
G1 X86.467 Y84.183 E18.08248
G1 X85.920 Y85.274 E18.22750
G1 X85.152 Y86.256 E18.37545
G1 X84.205 Y87.064 E18.52340
G1 X83.138 Y87.658 E18.66843
G1 X81.885 Y88.066 E18.82486
G1 E16.82486
G92 E0
G1 X81.114 Y82.886 F7800.000
G1 E2.00000 F1800.00000
G1 X68.886 Y82.886 E3.45230
G1 X68.886 Y88.861 E4.16197
G1 X67.821 Y88.721 E4.28955
G1 X66.575 Y88.316 E4.44511
G1 X65.386 Y87.654 E4.60680
G1 X64.329 Y86.752 E4.77174
G1 X63.474 Y85.658 E4.93669
G1 X62.863 Y84.441 E5.09838
G1 X62.512 Y83.179 E5.25394
G1 X62.395 Y81.859 E5.41140
G1 X60.945 Y61.114 E7.88114
G1 X89.055 Y61.114 E11.21968
G1 X87.605 Y81.859 E13.68943
G1 X87.488 Y83.179 E13.84689
G1 X87.137 Y84.441 E14.00244
G1 X86.526 Y85.658 E14.16414
G1 X85.671 Y86.752 E14.32908
G1 X84.614 Y87.654 E14.49402
G1 X83.425 Y88.316 E14.65571
G1 X82.179 Y88.721 E14.81127
G1 X81.114 Y88.861 E14.93885
G1 X81.114 Y82.946 E15.64140
G1 E13.64140
G92 E0
G1 X60.179 Y60.400 F7800.000
G1 E2.00000 F1800.00000
G1 X89.821 Y60.400 E5.52045
G1 X88.317 Y81.915 E8.08191
G1 X88.194 Y83.308 E8.24797
G1 X87.806 Y84.699 E8.41956
G1 X87.133 Y86.042 E8.59792
G1 X86.189 Y87.249 E8.77986
G1 X85.024 Y88.243 E8.96179
G1 X83.712 Y88.973 E9.14015
G1 X82.338 Y89.421 E9.31175
G1 X80.974 Y89.600 E9.47512
G1 X69.026 Y89.600 E10.89409
G1 X67.662 Y89.421 E11.05746
G1 X66.288 Y88.973 E11.22906
G1 X64.976 Y88.243 E11.40741
G1 X63.811 Y87.249 E11.58935
G1 X62.867 Y86.042 E11.77129
G1 X62.194 Y84.699 E11.94964
G1 X61.806 Y83.308 E12.12124
G1 X61.683 Y81.915 E12.28729
G1 X60.183 Y60.460 E14.84163
G1 X60.530 Y60.592 F7800.000
G1 E12.84163 F1800.00000
G92 E0
G1 X64.004 Y84.645 F7800.000
G1 E2.00000 F1800.00000
G1 X66.659 Y87.300 E2.45343
G1 X67.957 Y87.571 F7800.000
G1 F1800
G1 X63.903 Y83.517 E3.14592
G1 X63.746 Y82.955 E3.21637
G1 X63.686 Y82.273 E3.29904
G1 X67.636 Y86.223 E3.97365
G1 X67.636 Y85.196 E4.09769
G1 X63.599 Y81.159 E4.78720
G1 X63.522 Y80.054 E4.92089
G1 X67.636 Y84.169 E5.62358
G1 X67.636 Y83.141 E5.74763
G1 X63.445 Y78.950 E6.46351
G1 X63.368 Y77.846 E6.59721
G1 X67.636 Y82.114 E7.32628
G1 X67.636 Y81.636 E7.38404
G1 X68.185 Y81.636 E7.45032
G1 X63.290 Y76.742 E8.28631
G1 X63.213 Y75.637 E8.42001
G1 X69.212 Y81.636 E9.44462
G1 X70.239 Y81.636 E9.56867
G1 X63.136 Y74.533 E10.78189
G1 X63.059 Y73.429 E10.91559
G1 X71.266 Y81.636 E12.31743
G1 X72.293 Y81.636 E12.44147
G1 X62.981 Y72.324 E14.03193
G1 X62.904 Y71.220 E14.16562
G1 X73.320 Y81.636 E15.94470
G1 X74.347 Y81.636 E16.06874
G1 X62.827 Y70.116 E18.03643
G1 X62.750 Y69.012 E18.17013
G1 X75.374 Y81.636 E20.32643
G1 X76.401 Y81.636 E20.45047
G1 X62.673 Y67.907 E22.79539
G1 X62.595 Y66.803 E22.92909
G1 X77.429 Y81.636 E25.46262
G1 X78.456 Y81.636 E25.58667
G1 X62.518 Y65.699 E28.30882
G1 X62.441 Y64.594 E28.44252
G1 X79.483 Y81.636 E31.35328
G1 X80.510 Y81.636 E31.47733
G1 X62.364 Y63.490 E34.57671
G1 X62.287 Y62.386 E34.71041
G1 X81.858 Y81.957 E38.05330
G1 E36.05330
G92 E0
G1 X82.043 Y86.250 F7800.000
G1 E2.00000 F1800.00000
G1 X82.945 Y87.152 E2.15412
G1 X83.605 Y86.785 E2.24532
G1 X82.364 Y85.544 E2.45726
G1 X82.364 Y84.517 E2.58130
G1 X84.206 Y86.359 E2.89590
G1 X84.760 Y85.886 E2.98389
G1 X82.364 Y83.490 E3.39314
G1 X82.364 Y82.463 E3.51719
G1 X85.211 Y85.311 E4.00353
G1 X85.465 Y84.986 E4.05325
G1 X85.615 Y84.687 E4.09367
G1 X63.292 Y62.364 E7.90654
G1 X64.319 Y62.364 E8.03059
G1 X85.958 Y84.003 E11.72663
G1 X86.184 Y83.203 E11.82712
G1 X65.346 Y62.364 E15.38641
G1 X66.373 Y62.364 E15.51046
G1 X86.311 Y82.302 E18.91594
G1 X86.387 Y81.351 E19.03114
G1 X67.400 Y62.364 E22.27422
G1 X68.427 Y62.364 E22.39826
G1 X86.454 Y80.391 E25.47739
G1 X86.522 Y79.431 E25.59361
G1 X69.454 Y62.364 E28.50877
G1 X70.481 Y62.364 E28.63281
G1 X86.589 Y78.471 E31.38401
G1 X86.656 Y77.511 E31.50023
G1 X71.508 Y62.364 E34.08747
G1 X72.535 Y62.364 E34.21151
G1 X86.723 Y76.552 E36.63479
G1 X86.790 Y75.592 E36.75101
G1 X73.562 Y62.364 E39.01033
G1 X74.589 Y62.364 E39.13437
G1 X86.857 Y74.632 E41.22973
G1 X86.924 Y73.672 E41.34595
G1 X75.617 Y62.364 E43.27734
G1 X76.644 Y62.364 E43.40139
G1 X86.991 Y72.712 E45.16882
G1 X87.059 Y71.752 E45.28504
G1 X77.671 Y62.364 E46.88851
G1 X78.698 Y62.364 E47.01255
G1 X87.126 Y70.792 E48.45206
G1 X87.193 Y69.832 E48.56829
G1 X79.725 Y62.364 E49.84383
G1 X80.752 Y62.364 E49.96788
G1 X87.260 Y68.872 E51.07947
G1 X87.327 Y67.912 E51.19569
G1 X81.779 Y62.364 E52.14331
G1 X82.806 Y62.364 E52.26736
G1 X87.394 Y66.952 E53.05102
G1 X87.461 Y65.992 E53.16724
G1 X83.833 Y62.364 E53.78695
G1 X84.860 Y62.364 E53.91099
G1 X87.528 Y65.032 E54.36673
G1 X87.596 Y64.072 E54.48296
G1 X85.887 Y62.364 E54.77474
G1 X86.914 Y62.364 E54.89878
G1 X87.964 Y63.413 E55.07803
G1 Z0.700 F7800.000
M104 S200 ; set temperature
; PURGING FINISHED
G1 X69.389 Y83.389
G1 F900
G1 X80.611 Y83.389 E55.61773
G1 X80.611 Y89.111 E55.89291
G1 X69.389 Y89.111 E56.43261
G1 X69.389 Y83.449 E56.70490
G1 X69.775 Y83.775 F7800.000
G1 F900
G1 X80.225 Y83.775 E57.20750
G1 X80.225 Y88.725 E57.44558
G1 X69.775 Y88.725 E57.94819
G1 X69.775 Y83.835 E58.18338
G1 X69.628 Y83.403 F7800.000
G1 X80.996 Y83.004
G1 F3600
G1 X69.004 Y83.004 E58.76018
G1 X69.004 Y88.996 E59.04837
G1 X67.795 Y88.837 E59.10703
G1 X66.528 Y88.424 E59.17110
G1 X65.318 Y87.751 E59.23769
G1 X64.244 Y86.834 E59.30563
G1 X63.374 Y85.721 E59.37356
G1 X62.753 Y84.484 E59.44016
G1 X62.395 Y83.201 E59.50422
G1 X62.278 Y81.868 E59.56857
G1 X60.818 Y60.996 E60.57488
G1 X89.182 Y60.996 E61.93906
G1 X87.722 Y81.868 E62.94537
G1 X87.605 Y83.201 E63.00971
G1 X87.247 Y84.484 E63.07378
G1 X86.626 Y85.721 E63.14037
G1 X85.756 Y86.834 E63.20831
G1 X84.682 Y87.751 E63.27624
G1 X83.472 Y88.424 E63.34284
G1 X82.205 Y88.837 E63.40690
G1 X80.996 Y88.996 E63.46556
G1 X80.996 Y83.064 E63.75087
G1 X60.405 Y60.611 F7800.000
G1 F3600
G1 X89.595 Y60.611 E65.15483
G1 X88.107 Y81.898 E66.18119
G1 X87.986 Y83.270 E66.24741
G1 X87.608 Y84.623 E66.31499
G1 X86.954 Y85.929 E66.38523
G1 X86.036 Y87.102 E66.45688
G1 X84.903 Y88.069 E66.52853
G1 X83.627 Y88.779 E66.59877
G1 X82.291 Y89.214 E66.66634
G1 X80.960 Y89.389 E66.73091
G1 X69.040 Y89.389 E67.30422
G1 X67.709 Y89.214 E67.36879
G1 X66.373 Y88.779 E67.43636
G1 X65.097 Y88.069 E67.50660
G1 X63.964 Y87.102 E67.57825
G1 X63.046 Y85.929 E67.64990
G1 X62.392 Y84.623 E67.72014
G1 X62.014 Y83.270 E67.78772
G1 X61.893 Y81.898 E67.85394
G1 X60.409 Y60.670 E68.87742
G1 X59.991 Y60.225 F7800.000
G1 F1800
G1 X90.009 Y60.225 E70.32115
G1 X88.491 Y81.929 E71.36758
G1 X88.367 Y83.339 E71.43568
G1 X87.970 Y84.763 E71.50676
G1 X87.281 Y86.136 E71.58064
G1 X86.316 Y87.370 E71.65601
G1 X85.124 Y88.388 E71.73138
G1 X83.782 Y89.134 E71.80526
G1 X82.377 Y89.592 E71.87634
G1 X80.985 Y89.775 E71.94383
G1 X69.015 Y89.775 E72.51957
G1 X67.623 Y89.592 E72.58706
G1 X66.218 Y89.134 E72.65815
G1 X64.876 Y88.388 E72.73203
G1 X63.684 Y87.370 E72.80740
G1 X62.719 Y86.136 E72.88276
G1 X62.030 Y84.763 E72.95664
G1 X61.633 Y83.339 E73.02773
G1 X61.509 Y81.929 E73.09583
G1 X59.995 Y60.285 E74.13937
G1 X60.342 Y60.417 F7800.000
G1 X60.994 Y61.843
G1 F1200
G1 X61.551 Y61.285 E74.17751
G1 X62.100 Y61.285 E74.20402
G1 X61.192 Y62.193 E74.26608
G1 X61.228 Y62.705 E74.29092
G1 X62.648 Y61.285 E74.38802
G1 X63.196 Y61.285 E74.41453
G1 X61.264 Y63.218 E74.54667
G1 X61.299 Y63.730 E74.57150
G1 X63.744 Y61.285 E74.73869
G1 X64.293 Y61.285 E74.76520
G1 X61.335 Y64.243 E74.96742
G1 X61.371 Y64.755 E74.99225
G1 X64.841 Y61.285 E75.22951
G1 X65.389 Y61.285 E75.25602
G1 X61.407 Y65.268 E75.52832
G1 X61.443 Y65.780 E75.55316
G1 X65.937 Y61.285 E75.86050
G1 X66.486 Y61.285 E75.88701
G1 X61.479 Y66.292 E76.22938
G1 X61.514 Y66.805 E76.25422
G1 X67.034 Y61.285 E76.63164
G1 X67.582 Y61.285 E76.65815
G1 X61.550 Y67.317 E77.07061
G1 X61.586 Y67.830 E77.09544
G1 X68.130 Y61.285 E77.54294
G1 X68.679 Y61.285 E77.56945
G1 X61.622 Y68.342 E78.05199
G1 X61.658 Y68.854 E78.07682
G1 X69.227 Y61.285 E78.59440
G1 X69.775 Y61.285 E78.62091
G1 X61.694 Y69.367 E79.17352
G1 X61.729 Y69.879 E79.19836
G1 X70.323 Y61.285 E79.78602
G1 X70.872 Y61.285 E79.81252
G1 X61.765 Y70.392 E80.43522
G1 X61.801 Y70.904 E80.46006
G1 X71.420 Y61.285 E81.11779
G1 X71.968 Y61.285 E81.14430
G1 X61.837 Y71.417 E81.83707
G1 X61.873 Y71.929 E81.86191
G1 X72.516 Y61.285 E82.58972
G1 X73.065 Y61.285 E82.61623
G1 X61.909 Y72.441 E83.37908
G1 X61.944 Y72.954 E83.40392
G1 X73.613 Y61.285 E84.20181
G1 X74.161 Y61.285 E84.22832
G1 X61.980 Y73.466 E85.06125
G1 X62.016 Y73.979 E85.08609
G1 X74.709 Y61.285 E85.95406
G1 X75.258 Y61.285 E85.98057
G1 X62.052 Y74.491 E86.88358
G1 X62.088 Y75.003 E86.90842
G1 X75.806 Y61.285 E87.84647
G1 X76.354 Y61.285 E87.87298
G1 X62.124 Y75.516 E88.84607
G1 X62.159 Y76.028 E88.87090
G1 X76.902 Y61.285 E89.87903
G1 X77.451 Y61.285 E89.90554
G1 X62.195 Y76.541 E90.94871
G1 X62.231 Y77.053 E90.97355
G1 X77.999 Y61.285 E92.05176
G1 X78.547 Y61.285 E92.07827
G1 X62.267 Y77.566 E93.19151
G1 X62.303 Y78.078 E93.21635
G1 X79.095 Y61.285 E94.36464
G1 X79.644 Y61.285 E94.39115
G1 X62.339 Y78.590 E95.57447
G1 X62.374 Y79.103 E95.59931
G1 X80.192 Y61.285 E96.81768
G1 X80.740 Y61.285 E96.84418
G1 X62.410 Y79.615 E98.09759
G1 X62.446 Y80.128 E98.12243
G1 X81.288 Y61.285 E99.41087
G1 X81.837 Y61.285 E99.43738
G1 X62.482 Y80.640 E100.76087
G1 X62.518 Y81.152 E100.78570
G1 X82.385 Y61.285 E102.14423
G1 X82.933 Y61.285 E102.17074
G1 X62.554 Y81.665 E103.56430
G1 X62.595 Y82.172 E103.58889
G1 X83.481 Y61.285 E105.01712
G1 X84.030 Y61.285 E105.04362
G1 X62.639 Y82.676 E106.50631
G1 X62.688 Y83.175 E106.53056
G1 X84.578 Y61.285 E108.02739
G1 X85.126 Y61.285 E108.05390
G1 X62.808 Y83.604 E109.58003
G1 X62.927 Y84.032 E109.60155
G1 X85.674 Y61.285 E111.15701
G1 X86.223 Y61.285 E111.18352
G1 X63.059 Y84.449 E112.76745
G1 X63.242 Y84.814 E112.78720
G1 X86.771 Y61.285 E114.39611
G1 X87.319 Y61.285 E114.42262
G1 X63.425 Y85.179 E116.05649
G1 X63.608 Y85.544 E116.07624
G1 X87.867 Y61.285 E117.73507
G1 X88.416 Y61.285 E117.76158
G1 X63.846 Y85.855 E119.44169
G1 X64.086 Y86.163 E119.46058
G1 X88.865 Y61.385 E121.15494
G1 X88.823 Y61.974 E121.18352
G1 X64.203 Y86.594 E122.86707
G1 X68.888 Y88.488 F7800.000
G1 F1200
G1 X68.711 Y88.666 E122.87918
G1 X68.226 Y88.602 E122.90282
G1 X68.715 Y88.114 E122.93620
G1 X68.715 Y87.565 E122.96271
G1 X67.759 Y88.521 E123.02806
G1 X67.345 Y88.386 E123.04909
G1 X68.715 Y87.017 E123.14272
G1 X68.715 Y86.469 E123.16923
G1 X66.932 Y88.252 E123.29113
G1 X66.644 Y88.158 E123.30576
G1 X66.537 Y88.098 E123.31170
G1 X68.715 Y85.921 E123.46061
G1 X68.715 Y85.372 E123.48712
G1 X66.185 Y87.902 E123.66011
G1 X65.832 Y87.706 E123.67960
G1 X68.715 Y84.824 E123.87669
G1 X68.715 Y84.276 E123.90320
G1 X65.481 Y87.510 E124.12432
G1 X65.185 Y87.257 E124.14313
G1 X68.715 Y83.728 E124.38448
G1 X68.715 Y83.179 E124.41099
G1 X64.889 Y87.005 E124.67257
G1 X64.593 Y86.752 E124.69138
G1 X88.782 Y62.564 E126.34542
G1 X88.741 Y63.153 E126.37399
G1 X69.179 Y82.715 E127.71163
G1 X69.728 Y82.715 E127.73814
G1 X88.700 Y63.742 E129.03547
G1 X88.659 Y64.332 E129.06404
G1 X70.276 Y82.715 E130.32106
G1 X70.824 Y82.715 E130.34757
G1 X88.617 Y64.921 E131.56428
G1 X88.576 Y65.511 E131.59285
G1 X71.372 Y82.715 E132.76925
G1 X71.921 Y82.715 E132.79576
G1 X88.535 Y66.100 E133.93185
G1 X88.494 Y66.690 E133.96042
G1 X72.469 Y82.715 E135.05621
G1 X73.017 Y82.715 E135.08272
G1 X88.452 Y67.279 E136.13820
G1 X88.411 Y67.869 E136.16677
G1 X73.565 Y82.715 E137.18194
G1 X74.114 Y82.715 E137.20845
G1 X88.370 Y68.458 E138.18331
G1 X88.329 Y69.048 E138.21188
G1 X74.662 Y82.715 E139.14643
G1 X75.210 Y82.715 E139.17294
G1 X88.288 Y69.637 E140.06718
G1 X88.246 Y70.227 E140.09575
G1 X75.758 Y82.715 E140.94969
G1 X76.307 Y82.715 E140.97620
G1 X88.205 Y70.816 E141.78983
G1 X88.164 Y71.406 E141.81840
G1 X76.855 Y82.715 E142.59172
G1 X77.403 Y82.715 E142.61823
G1 X88.123 Y71.995 E143.35124
G1 X88.081 Y72.584 E143.37981
G1 X77.951 Y82.715 E144.07251
G1 X78.500 Y82.715 E144.09902
G1 X88.040 Y73.174 E144.75141
G1 X87.999 Y73.763 E144.77999
G1 X79.048 Y82.715 E145.39207
G1 X79.596 Y82.715 E145.41858
G1 X87.958 Y74.353 E145.99036
G1 X87.917 Y74.942 E146.01893
G1 X80.144 Y82.715 E146.55040
G1 X80.693 Y82.715 E146.57691
G1 X87.875 Y75.532 E147.06807
G1 X87.834 Y76.121 E147.09664
G1 X81.241 Y82.715 E147.54749
G1 X81.285 Y82.715 E147.54965
G1 X81.285 Y83.218 E147.57400
G1 X87.793 Y76.711 E148.01899
G1 X87.752 Y77.300 E148.04756
G1 X81.285 Y83.766 E148.48973
G1 X81.285 Y84.315 E148.51623
G1 X87.710 Y77.890 E148.95558
G1 X87.669 Y78.479 E148.98415
G1 X81.285 Y84.863 E149.42068
G1 X81.285 Y85.411 E149.44719
G1 X87.628 Y79.069 E149.88090
G1 X87.587 Y79.658 E149.90948
G1 X81.285 Y85.959 E150.34037
G1 X81.285 Y86.508 E150.36688
G1 X87.546 Y80.248 E150.79495
G1 X87.504 Y80.837 E150.82352
G1 X81.285 Y87.056 E151.24878
G1 X81.285 Y87.604 E151.27529
G1 X87.463 Y81.427 E151.69772
G1 X87.419 Y82.019 E151.72647
G1 X81.285 Y88.152 E152.14586
G1 X81.285 Y88.666 E152.17069
G1 X81.325 Y88.661 E152.17264
G1 X87.366 Y82.621 E152.58567
G1 X87.319 Y83.149 E152.61130
G1 X87.293 Y83.241 E152.61594
G1 X81.957 Y88.578 E152.98087
G1 X82.141 Y88.554 E152.98987
G1 X82.716 Y88.366 E153.01912
G1 X87.081 Y84.001 E153.31760
G1 X86.976 Y84.379 E153.33656
G1 X86.698 Y84.932 E153.36650
G1 X83.259 Y88.372 E153.60170
G1 X84.408 Y87.771 F7800.000
G1 F1200
G1 X86.536 Y85.643 E153.74721
G1 Z1.000 F7800.000
; PURGING FINISHED
G1 E151.74721 F1800.00000
G92 E0
G1 X86.623 Y85.719 F7800.000
G1 X84.041 Y84.085
G1 X83.339 Y85.818
G1 X82.763 Y86.798
G1 X81.000 Y88.991
G1 X75.000 Y89.000
G1 X69.000 Y83.000
G1 X69.389 Y83.389
G1 E2.00000 F1800.00000
G1 F900
G1 X80.611 Y83.389 E2.53970
