; generated by Slic3r Prusa Edition 1.39.1-alpha-prusa3d-win64 on 2018-03-02 at 17:41:40

; 

; external perimeters extrusion width = 0.45mm
; perimeters extrusion width = 0.45mm
; infill extrusion width = 0.45mm
; solid infill extrusion width = 0.45mm
; top infill extrusion width = 0.40mm
; first layer extrusion width = 0.80mm

M107
M104 S200 ; set temperature
G28 ; home all axes
G1 Z5 F5000 ; lift nozzle
; Filament gcode
M109 S200 ; set temperature and wait for it to be reached
G21 ; set units to millimeters
G90 ; use absolute coordinates
M82 ; use absolute distances for extrusion
G92 E0
G1 Z0.400 F7800.000
G1 E-2.00000 F1800.00000
G92 E0
G1 X14.819 Y56.732 F7800.000
G1 E2.00000 F1800.00000
G1 F1800
G1 X15.685 Y56.558 E2.10484
G1 X16.559 Y56.498 E2.20893
G1 X128.306 Y56.498 E15.48063
G1 X129.867 Y56.684 E15.66723
G1 X131.341 Y57.227 E15.85383
G1 X137.666 Y61.253 E16.74438
G1 X138.657 Y62.251 E16.91134
G1 X139.419 Y63.432 E17.07829
G1 X139.917 Y64.747 E17.24525
G1 X140.131 Y66.136 E17.41220
G1 X140.136 Y76.920 E18.69291
G1 X140.014 Y78.000 E18.82201
G1 X139.719 Y79.046 E18.95112
G1 X134.282 Y89.836 E20.38612
G1 X133.856 Y90.558 E20.48565
G1 X133.103 Y91.479 E20.62688
G1 X132.200 Y92.253 E20.76811
G1 X131.175 Y92.855 E20.90934
G1 X130.060 Y93.267 E21.05056
G1 X129.194 Y93.442 E21.15541
G1 X128.314 Y93.502 E21.26025
G1 X16.313 Y93.497 E34.56207
G1 X15.258 Y93.371 E34.68814
G1 X14.237 Y93.082 E34.81422
G1 X13.274 Y92.634 E34.94029
G1 X12.394 Y92.041 E35.06637
G1 X11.618 Y91.317 E35.19244
G1 X10.963 Y90.473 E35.31928
G1 X10.452 Y89.543 E35.44535
G1 X10.094 Y88.543 E35.57143
G1 X9.923 Y87.697 E35.67399
G1 X9.861 Y86.829 E35.77732
G1 X9.861 Y63.193 E38.58443
G1 X9.934 Y62.224 E38.69989
G1 X10.145 Y61.281 E38.81460
G1 X10.491 Y60.373 E38.93006
G1 X10.965 Y59.524 E39.04552
G1 X11.556 Y58.752 E39.16098
G1 X12.253 Y58.074 E39.27645
G1 X13.040 Y57.504 E39.39191
G1 X13.902 Y57.053 E39.50737
G1 X14.763 Y56.752 E39.61571
G1 E37.61571 F1800.00000
G92 E0
G1 X125.166 Y84.959 F7800.000
G1 E2.00000 F1800.00000
G1 F1800
G1 X125.088 Y84.629 E2.04028
G1 X126.472 Y83.937 E2.22396
G1 X126.472 Y84.959 E2.34531
G1 X125.226 Y84.959 E2.49323
G1 E0.49323 F1800.00000
G92 E0
G1 X127.186 Y85.673 F7800.000
G1 E2.00000 F1800.00000
G1 F1800
G1 X122.141 Y85.673 E2.59915
G1 X122.063 Y85.343 E2.63943
G1 X127.186 Y82.782 E3.31965
G1 X127.186 Y85.613 E3.65592
G1 E1.65592 F1800.00000
G92 E0
G1 X121.347 Y84.959 F7800.000
G1 E2.00000 F1800.00000
G1 F1800
G1 X18.403 Y84.959 E14.22609
G1 X18.403 Y65.041 E16.59169
G1 X126.472 Y65.041 E29.42645
G1 X126.472 Y72.896 E30.35936
G1 X121.347 Y70.333 E31.03988
G1 X121.347 Y84.899 E32.76978
G1 E30.76978 F1800.00000
G92 E0
G1 X127.263 Y71.583 F7800.000
G1 E2.00000 F1800.00000
G1 F1800
G1 X131.597 Y69.417 E2.57541
G1 X131.597 Y73.750 E3.09007
G1 X127.317 Y71.610 E3.65835
G1 X127.186 Y70.824 F7800.000
G1 F1800
G1 X132.311 Y68.261 E4.33887
G1 X132.311 Y74.906 E5.12800
G1 X127.186 Y72.343 E5.80852
G1 X127.186 Y74.051 E6.01141
G1 X122.061 Y71.489 E6.69193
G1 X122.061 Y85.673 E8.37654
G1 X17.689 Y85.673 E20.77226
G1 X17.689 Y64.327 E23.30750
G1 X127.186 Y64.327 E36.31190
G1 X127.186 Y70.764 E37.07638
G1 X127.900 Y69.668 F7800.000
G1 F1800
G1 X133.025 Y67.106 E37.75689
G1 X133.025 Y76.061 E38.82050
G1 X127.900 Y73.499 E39.50102
G1 X127.900 Y75.207 E39.70391
G1 X122.775 Y72.644 E40.38442
G1 X122.775 Y84.189 E41.75550
G1 X127.900 Y81.626 E42.43602
G1 X127.900 Y86.387 E43.00147
G1 X16.975 Y86.387 E56.17550
G1 X16.975 Y63.613 E58.88037
G1 X127.900 Y63.613 E72.05440
G1 X127.900 Y69.608 E72.76646
G1 X128.191 Y69.943 F7800.000
G1 X128.816 Y71.047 F7800.000
G1 F1800
G1 X130.244 Y72.475 E73.03409
G1 X131.061 Y72.883 E73.15512
G1 X131.061 Y72.165 E73.25028
G1 X129.806 Y70.911 E73.48537
G1 X130.558 Y70.535 E73.59664
G1 X131.382 Y71.360 E73.75120
G1 E71.75120 F1800.00000
G92 E0
G1 X126.257 Y66.699 F7800.000
G1 E2.00000 F1800.00000
G1 F1800
G1 X125.135 Y65.576 E2.18855
G1 X124.125 Y65.576 E2.30853
G1 X125.936 Y67.388 E2.61277
G1 X125.936 Y68.398 E2.73274
G1 X123.115 Y65.576 E3.20666
G1 X122.105 Y65.576 E3.32664
G1 X125.936 Y69.408 E3.97023
G1 X125.936 Y70.418 E4.09021
G1 X121.095 Y65.576 E4.90348
G1 X120.085 Y65.576 E5.02346
G1 X125.936 Y71.428 E6.00641
G1 X125.936 Y72.029 E6.07783
G1 X125.118 Y71.620 E6.18641
G1 X119.074 Y65.576 E7.20169
G1 X118.064 Y65.576 E7.32167
G1 X123.817 Y71.329 E8.28798
G1 E6.28798 F1800.00000
G92 E0
G1 X121.797 Y70.319 F7800.000
G1 E2.00000 F1800.00000
G1 F1800
G1 X117.054 Y65.576 E2.79664
G1 X116.044 Y65.576 E2.91662
G1 X120.811 Y70.343 E3.71737
G1 X120.811 Y71.353 E3.83735
G1 X115.034 Y65.576 E4.80778
G1 X114.024 Y65.576 E4.92776
G1 X120.811 Y72.364 E6.06787
G1 X120.811 Y73.374 E6.18785
G1 X113.014 Y65.576 E7.49763
G1 X112.004 Y65.576 E7.61761
G1 X120.811 Y74.384 E9.09707
G1 X120.811 Y75.394 E9.21705
G1 X110.994 Y65.576 E10.86619
G1 X109.984 Y65.576 E10.98617
G1 X120.811 Y76.404 E12.80498
G1 X120.811 Y77.414 E12.92496
G1 X108.973 Y65.576 E14.91345
G1 X107.963 Y65.576 E15.03343
G1 X120.811 Y78.424 E17.19160
G1 X120.811 Y79.434 E17.31158
G1 X106.953 Y65.576 E19.63942
G1 X105.943 Y65.576 E19.75940
G1 X120.811 Y80.444 E22.25692
G1 X120.811 Y81.454 E22.37690
G1 X104.933 Y65.576 E25.04410
G1 X103.923 Y65.576 E25.16408
G1 X120.811 Y82.465 E28.00095
G1 X120.811 Y83.475 E28.12093
G1 X102.913 Y65.576 E31.12748
G1 X101.903 Y65.576 E31.24746
G1 X120.750 Y84.424 E34.41341
G1 X119.740 Y84.424 E34.53339
G1 X100.893 Y65.576 E37.69934
G1 X99.883 Y65.576 E37.81932
G1 X118.730 Y84.424 E40.98527
G1 X117.720 Y84.424 E41.10525
G1 X98.872 Y65.576 E44.27120
G1 X97.862 Y65.576 E44.39118
G1 X116.710 Y84.424 E47.55713
G1 X115.699 Y84.424 E47.67711
G1 X96.852 Y65.576 E50.84306
G1 X95.842 Y65.576 E50.96304
G1 X114.689 Y84.424 E54.12899
G1 X113.679 Y84.424 E54.24897
G1 X94.832 Y65.576 E57.41492
G1 X93.822 Y65.576 E57.53490
G1 X112.669 Y84.424 E60.70085
G1 X111.659 Y84.424 E60.82083
G1 X92.812 Y65.576 E63.98678
G1 X91.802 Y65.576 E64.10676
G1 X110.649 Y84.424 E67.27271
G1 X109.639 Y84.424 E67.39269
G1 X90.792 Y65.576 E70.55864
G1 X89.782 Y65.576 E70.67862
G1 X108.629 Y84.424 E73.84457
G1 X107.619 Y84.424 E73.96455
G1 X88.771 Y65.576 E77.13050
G1 X87.761 Y65.576 E77.25048
G1 X106.609 Y84.424 E80.41643
G1 X105.598 Y84.424 E80.53641
G1 X86.751 Y65.576 E83.70236
G1 X85.741 Y65.576 E83.82234
G1 X104.588 Y84.424 E86.98829
G1 X103.578 Y84.424 E87.10827
G1 X84.731 Y65.576 E90.27422
G1 X83.721 Y65.576 E90.39420
G1 X102.568 Y84.424 E93.56015
G1 X101.558 Y84.424 E93.68013
G1 X82.711 Y65.576 E96.84608
G1 X81.701 Y65.576 E96.96606
G1 X100.548 Y84.424 E100.13201
G1 X99.538 Y84.424 E100.25199
G1 X80.691 Y65.576 E103.41794
G1 X79.681 Y65.576 E103.53792
G1 X98.528 Y84.424 E106.70387
G1 X97.518 Y84.424 E106.82385
G1 X78.670 Y65.576 E109.98980
G1 X77.660 Y65.576 E110.10978
G1 X96.508 Y84.424 E113.27573
G1 X95.497 Y84.424 E113.39571
G1 X76.650 Y65.576 E116.56166
G1 X75.640 Y65.576 E116.68164
G1 X94.487 Y84.424 E119.84759
G1 X93.477 Y84.424 E119.96757
G1 X74.630 Y65.576 E123.13352
G1 X73.620 Y65.576 E123.25350
G1 X92.467 Y84.424 E126.41945
G1 X91.457 Y84.424 E126.53943
G1 X72.610 Y65.576 E129.70538
G1 X71.600 Y65.576 E129.82536
G1 X90.447 Y84.424 E132.99131
G1 X89.437 Y84.424 E133.11129
G1 X70.590 Y65.576 E136.27724
G1 X69.580 Y65.576 E136.39722
G1 X88.427 Y84.424 E139.56317
G1 X87.417 Y84.424 E139.68315
G1 X68.569 Y65.576 E142.84910
G1 X67.559 Y65.576 E142.96908
G1 X86.407 Y84.424 E146.13503
G1 X85.396 Y84.424 E146.25501
G1 X66.549 Y65.576 E149.42096
G1 X65.539 Y65.576 E149.54094
G1 X84.386 Y84.424 E152.70689
G1 X83.376 Y84.424 E152.82687
G1 X64.529 Y65.576 E155.99282
G1 X63.519 Y65.576 E156.11280
G1 X82.366 Y84.424 E159.27875
G1 X81.356 Y84.424 E159.39873
G1 X62.509 Y65.576 E162.56468
G1 X61.499 Y65.576 E162.68466
G1 X80.346 Y84.424 E165.85061
G1 X79.336 Y84.424 E165.97059
G1 X60.489 Y65.576 E169.13654
G1 X59.479 Y65.576 E169.25652
G1 X78.326 Y84.424 E172.42247
G1 X77.316 Y84.424 E172.54245
G1 X58.468 Y65.576 E175.70840
G1 X57.458 Y65.576 E175.82838
G1 X76.306 Y84.424 E178.99433
G1 X75.295 Y84.424 E179.11431
G1 X56.448 Y65.576 E182.28026
G1 X55.438 Y65.576 E182.40024
G1 X74.285 Y84.424 E185.56619
G1 X73.275 Y84.424 E185.68617
G1 X54.428 Y65.576 E188.85212
G1 X53.418 Y65.576 E188.97210
G1 X72.265 Y84.424 E192.13805
G1 X71.255 Y84.424 E192.25803
G1 X52.408 Y65.576 E195.42398
G1 X51.398 Y65.576 E195.54396
G1 X70.245 Y84.424 E198.70991
G1 X69.235 Y84.424 E198.82989
G1 X50.388 Y65.576 E201.99584
G1 X49.378 Y65.576 E202.11582
G1 X68.225 Y84.424 E205.28177
G1 X67.215 Y84.424 E205.40175
G1 X48.367 Y65.576 E208.56770
G1 X47.357 Y65.576 E208.68768
G1 X66.205 Y84.424 E211.85363
G1 X65.194 Y84.424 E211.97361
G1 X46.347 Y65.576 E215.13956
G1 X45.337 Y65.576 E215.25954
G1 X64.184 Y84.424 E218.42549
G1 X63.174 Y84.424 E218.54547
G1 X44.327 Y65.576 E221.71142
G1 X43.317 Y65.576 E221.83140
G1 X62.164 Y84.424 E224.99735
G1 X61.154 Y84.424 E225.11733
G1 X42.307 Y65.576 E228.28328
G1 X41.297 Y65.576 E228.40326
G1 X60.144 Y84.424 E231.56921
G1 X59.134 Y84.424 E231.68919
G1 X40.287 Y65.576 E234.85514
G1 X39.277 Y65.576 E234.97512
G1 X58.124 Y84.424 E238.14107
G1 X57.114 Y84.424 E238.26105
G1 X38.266 Y65.576 E241.42700
G1 X37.256 Y65.576 E241.54698
G1 X56.104 Y84.424 E244.71293
G1 X55.093 Y84.424 E244.83291
G1 X36.246 Y65.576 E247.99886
G1 X35.236 Y65.576 E248.11884
G1 X54.083 Y84.424 E251.28479
G1 X53.073 Y84.424 E251.40477
G1 X34.226 Y65.576 E254.57072
G1 X33.216 Y65.576 E254.69070
G1 X52.063 Y84.424 E257.85665
G1 X51.053 Y84.424 E257.97663
G1 X32.206 Y65.576 E261.14258
G1 X31.196 Y65.576 E261.26256
G1 X50.043 Y84.424 E264.42851
G1 X49.033 Y84.424 E264.54849
G1 X30.186 Y65.576 E267.71444
G1 X29.176 Y65.576 E267.83442
G1 X48.023 Y84.424 E271.00037
G1 X47.013 Y84.424 E271.12035
G1 X28.165 Y65.576 E274.28630
G1 X27.155 Y65.576 E274.40628
G1 X46.003 Y84.424 E277.57223
G1 X44.992 Y84.424 E277.69221
G1 X26.145 Y65.576 E280.85816
G1 X25.135 Y65.576 E280.97814
G1 X43.982 Y84.424 E284.14409
G1 X42.972 Y84.424 E284.26407
G1 X24.125 Y65.576 E287.43002
G1 X23.115 Y65.576 E287.55000
G1 X41.962 Y84.424 E290.71595
G1 X40.952 Y84.424 E290.83593
G1 X22.105 Y65.576 E294.00188
G1 X21.095 Y65.576 E294.12186
G1 X39.942 Y84.424 E297.28781
G1 X38.932 Y84.424 E297.40779
G1 X20.085 Y65.576 E300.57374
G1 X19.075 Y65.576 E300.69372
G1 X37.922 Y84.424 E303.85967
G1 X36.912 Y84.424 E303.97965
G1 X18.939 Y66.451 E306.99872
G1 X18.939 Y67.461 E307.11870
G1 X35.902 Y84.424 E309.96809
G1 X34.891 Y84.424 E310.08807
G1 X18.939 Y68.471 E312.76778
G1 X18.939 Y69.481 E312.88776
G1 X33.881 Y84.424 E315.39780
G1 X32.871 Y84.424 E315.51778
G1 X18.939 Y70.491 E317.85814
G1 X18.939 Y71.501 E317.97812
G1 X31.861 Y84.424 E320.14880
G1 X30.851 Y84.424 E320.26878
G1 X18.939 Y72.511 E322.26979
G1 X18.939 Y73.522 E322.38977
G1 X29.841 Y84.424 E324.22110
G1 X28.831 Y84.424 E324.34108
G1 X18.939 Y74.532 E326.00273
G1 X18.939 Y75.542 E326.12271
G1 X27.821 Y84.424 E327.61469
G1 X26.811 Y84.424 E327.73467
G1 X18.939 Y76.552 E329.05697
G1 X18.939 Y77.562 E329.17695
G1 X25.801 Y84.424 E330.32957
G1 X24.790 Y84.424 E330.44955
G1 X18.939 Y78.572 E331.43250
G1 X18.939 Y79.582 E331.55248
G1 X23.780 Y84.424 E332.36575
G1 X22.770 Y84.424 E332.48573
G1 X18.939 Y80.592 E333.12932
G1 X18.939 Y81.602 E333.24930
G1 X21.760 Y84.424 E333.72322
G1 X20.750 Y84.424 E333.84320
G1 X18.939 Y82.612 E334.14744
G1 X18.939 Y83.623 E334.26742
G1 X20.061 Y84.745 E334.45596
G1 Z0.700 F7800.000
G1 X127.304 Y70.633 F7800.000
G1 F3600
G1 X132.429 Y68.070 E334.73155
G1 X132.429 Y75.096 E335.06949
G1 X127.304 Y72.534 E335.34508
G1 X127.304 Y74.242 E335.42724
G1 X122.179 Y71.680 E335.70283
G1 X122.179 Y85.154 E336.35088
G1 X127.304 Y82.591 E336.62647
G1 X127.304 Y85.791 E336.78038
G1 X17.571 Y85.791 E342.05814
G1 X17.571 Y64.209 E343.09619
G1 X127.304 Y64.209 E348.37395
G1 X127.304 Y70.573 E348.68004
G1 X127.689 Y70.009 F7800.000
G1 F3600
G1 X132.814 Y67.446 E348.95563
G1 X132.814 Y75.720 E349.35358
G1 X127.689 Y73.158 E349.62917
G1 X127.689 Y74.866 E349.71133
G1 X122.564 Y72.304 E349.98692
G1 X122.564 Y84.530 E350.57495
G1 X127.689 Y81.967 E350.85054
G1 X127.689 Y86.177 E351.05302
G1 X17.186 Y86.177 E356.36787
G1 X17.186 Y63.823 E357.44301
G1 X127.689 Y63.823 E362.75786
G1 X127.689 Y69.949 E363.05249
G1 X128.075 Y69.385 F7800.000
G1 F1800
G1 X133.200 Y66.822 E363.32808
G1 X133.200 Y76.344 E363.78605
G1 X128.075 Y73.782 E364.06164
G1 X128.075 Y75.490 E364.14380
G1 X122.950 Y72.928 E364.41939
G1 X122.950 Y83.906 E364.94740
G1 X128.075 Y81.343 E365.22299
G1 X128.075 Y86.562 E365.47402
G1 X16.800 Y86.562 E370.82597
G1 X16.800 Y63.438 E371.93820
G1 X128.075 Y63.438 E377.29015
G1 X128.075 Y69.325 E377.57331
G1 X128.366 Y69.659 F7800.000
G1 X129.154 Y69.837 F7800.000
G1 F1200
G1 X125.687 Y73.304 E377.80924
G1 X125.323 Y73.122 F7800.000
G1 F1200
G1 X127.675 Y70.771 E377.96927
G1 X127.015 Y71.101 E378.00479
G1 X127.015 Y70.885 E378.01515
G1 X125.089 Y72.811 E378.14620
G1 X124.725 Y72.629 E378.16576
G1 X127.015 Y70.340 E378.32156
G1 X127.015 Y69.794 E378.34781
G1 X124.361 Y72.448 E378.52835
G1 X123.998 Y72.266 E378.54791
G1 X127.015 Y69.249 E378.75320
G1 X127.015 Y68.703 E378.77945
G1 X123.634 Y72.084 E379.00949
G1 X123.270 Y71.902 E379.02905
G1 X127.015 Y68.158 E379.28383
G1 X127.015 Y67.612 E379.31008
G1 X122.906 Y71.720 E379.58961
G1 X122.543 Y71.538 E379.60917
G1 X127.015 Y67.067 E379.91345
G1 X127.015 Y66.521 E379.93970
G1 X108.033 Y85.502 E381.23122
G1 X107.488 Y85.502 E381.25746
G1 X127.015 Y65.975 E382.58610
G1 X127.015 Y65.430 E382.61235
G1 X106.942 Y85.502 E383.97811
G1 X106.397 Y85.502 E384.00436
G1 X127.015 Y64.884 E385.40724
G1 X127.015 Y64.498 E385.42583
G1 X126.855 Y64.498 E385.43349
G1 X105.851 Y85.502 E386.86266
G1 X105.306 Y85.502 E386.88891
G1 X126.310 Y64.498 E388.31809
G1 X125.764 Y64.498 E388.34434
G1 X104.760 Y85.502 E389.77351
G1 X104.215 Y85.502 E389.79976
G1 X125.219 Y64.498 E391.22893
G1 X124.673 Y64.498 E391.25518
G1 X103.669 Y85.502 E392.68436
G1 X103.124 Y85.502 E392.71061
G1 X124.128 Y64.498 E394.13978
G1 X123.582 Y64.498 E394.16603
G1 X102.578 Y85.502 E395.59520
G1 X102.033 Y85.502 E395.62145
G1 X123.037 Y64.498 E397.05063
G1 X122.491 Y64.498 E397.07688
G1 X101.487 Y85.502 E398.50605
G1 X100.941 Y85.502 E398.53230
G1 X121.946 Y64.498 E399.96148
G1 X121.400 Y64.498 E399.98772
G1 X100.396 Y85.502 E401.41690
G1 X99.850 Y85.502 E401.44315
G1 X120.855 Y64.498 E402.87232
G1 X120.309 Y64.498 E402.89857
G1 X99.305 Y85.502 E404.32775
G1 X98.759 Y85.502 E404.35399
G1 X119.763 Y64.498 E405.78317
G1 X119.218 Y64.498 E405.80942
G1 X98.214 Y85.502 E407.23859
G1 X97.668 Y85.502 E407.26484
G1 X118.672 Y64.498 E408.69402
G1 X118.127 Y64.498 E408.72026
G1 X97.123 Y85.502 E410.14944
G1 X96.577 Y85.502 E410.17569
G1 X117.581 Y64.498 E411.60486
G1 X117.036 Y64.498 E411.63111
G1 X96.032 Y85.502 E413.06029
G1 X95.486 Y85.502 E413.08653
G1 X116.490 Y64.498 E414.51571
G1 X115.945 Y64.498 E414.54196
G1 X94.941 Y85.502 E415.97113
G1 X94.395 Y85.502 E415.99738
G1 X115.399 Y64.498 E417.42656
G1 X114.854 Y64.498 E417.45280
G1 X93.849 Y85.502 E418.88198
G1 X93.304 Y85.502 E418.90823
G1 X114.308 Y64.498 E420.33740
G1 X113.763 Y64.498 E420.36365
G1 X92.758 Y85.502 E421.79283
G1 X92.213 Y85.502 E421.81907
G1 X113.217 Y64.498 E423.24825
G1 X112.671 Y64.498 E423.27450
G1 X91.667 Y85.502 E424.70367
G1 X91.122 Y85.502 E424.72992
G1 X112.126 Y64.498 E426.15910
G1 X111.580 Y64.498 E426.18534
G1 X90.576 Y85.502 E427.61452
G1 X90.031 Y85.502 E427.64077
G1 X111.035 Y64.498 E429.06994
G1 X110.489 Y64.498 E429.09619
G1 X89.485 Y85.502 E430.52537
G1 X88.940 Y85.502 E430.55161
G1 X109.944 Y64.498 E431.98079
G1 X109.398 Y64.498 E432.00704
G1 X88.394 Y85.502 E433.43621
G1 X87.849 Y85.502 E433.46246
G1 X108.853 Y64.498 E434.89164
G1 X108.307 Y64.498 E434.91788
G1 X87.303 Y85.502 E436.34706
G1 X86.757 Y85.502 E436.37331
G1 X107.762 Y64.498 E437.80248
G1 X107.216 Y64.498 E437.82873
G1 X86.212 Y85.502 E439.25791
G1 X85.666 Y85.502 E439.28415
G1 X106.671 Y64.498 E440.71333
G1 X106.125 Y64.498 E440.73958
G1 X85.121 Y85.502 E442.16875
G1 X84.575 Y85.502 E442.19500
