; generated by Slic3r Prusa Edition 1.41.0-beta+win64 on 2018-10-23 at 10:56:43

; 

; external perimeters extrusion width = 0.45mm
; perimeters extrusion width = 0.45mm
; infill extrusion width = 0.45mm
; solid infill extrusion width = 0.45mm
; top infill extrusion width = 0.40mm
; first layer extrusion width = 0.80mm

M107
M104 S210 ; set temperature
G28 ; home all axes
G1 Z5 F5000 ; lift nozzle
; Filament gcode
M109 S210 ; set temperature and wait for it to be reached
G21 ; set units to millimeters
G90 ; use absolute coordinates
M82 ; use absolute distances for extrusion
G92 E0
G1 Z0.400 F7800.000
G1 E-2.00000 F1800.00000
G92 E0
G1 X63.963 Y63.965 F7800.000
G1 E2.00000 F1800.00000
G1 X66.432 Y61.955 E2.37817
G1 X69.162 Y60.526 E2.74412
G1 X71.996 Y59.689 E3.09509
G1 X75.004 Y59.393 E3.45403
G1 X78.003 Y59.689 E3.81199
G1 X80.839 Y60.527 E4.16315
G1 X83.566 Y61.954 E4.52866
G1 X86.035 Y63.963 E4.90668
G1 X88.045 Y66.432 E5.28485
G1 X89.474 Y69.162 E5.65080
G1 X90.336 Y72.105 E6.01503
G1 X90.607 Y74.998 E6.36007
G1 X90.337 Y77.893 E6.70540
G1 X89.474 Y80.837 E7.06982
G1 X88.046 Y83.566 E7.43553
G1 X86.037 Y86.035 E7.81356
G1 X83.568 Y88.045 E8.19172
G1 X80.838 Y89.474 E8.55768
G1 X77.895 Y90.336 E8.92190
G1 X75.002 Y90.607 E9.26694
G1 X72.107 Y90.337 E9.61227
G1 X69.163 Y89.474 E9.97669
G1 X66.434 Y88.046 E10.34241
G1 X63.965 Y86.037 E10.72043
G1 X61.955 Y83.568 E11.09859
G1 X60.526 Y80.838 E11.46455
G1 X59.664 Y77.895 E11.82878
G1 X59.393 Y75.002 E12.17382
G1 X59.663 Y72.107 E12.51914
G1 X60.526 Y69.163 E12.88356
G1 X61.954 Y66.434 E13.24928
G1 X63.925 Y64.012 E13.62018
; PURGING FINISHED
G1 E11.62018
G92 E0
G1 X82.057 Y77.057 F7800.000
G1 E2.00000 F1800.00000
G1 X81.073 Y77.702 E2.13972
G1 X80.000 Y77.907 E2.26949
G1 X78.927 Y77.702 E2.39927
G1 X77.943 Y77.057 E2.53898
G1 X77.298 Y76.073 E2.67870
G1 X77.093 Y75.000 E2.80847
G1 X77.298 Y73.927 E2.93825
G1 X77.943 Y72.943 E3.07797
G1 X78.927 Y72.298 E3.21768
G1 X80.000 Y72.093 E3.34746
G1 X81.073 Y72.298 E3.47723
G1 X82.057 Y72.943 E3.61695
G1 X82.702 Y73.927 E3.75667
G1 X82.907 Y75.000 E3.88644
G1 X82.702 Y76.073 E4.01621
G1 X82.090 Y77.006 E4.14881
G1 X82.158 Y77.444 F7800.000
G1 E2.14881 F1800.00000
G92 E0
G1 X82.590 Y77.642 F7800.000
G1 X81.242 Y79.079
G1 X79.867 Y79.867
G1 X78.418 Y80.235
G1 X77.080 Y80.274
G1 X75.500 Y79.984
G1 X75.500 Y77.111
G1 X74.269 Y76.303
G1 X74.377 Y76.347
G1 E2.00000 F1800.00000
G1 X73.572 Y77.572 E2.17416
G1 X72.347 Y78.377 E2.34831
G1 X71.000 Y78.634 E2.51113
G1 X69.653 Y78.377 E2.67396
G1 X68.428 Y77.572 E2.84811
G1 X67.623 Y76.347 E3.02227
G1 X67.366 Y75.000 E3.18509
G1 X67.623 Y73.653 E3.34791
G1 X68.428 Y72.428 E3.52207
G1 X69.653 Y71.623 E3.69622
G1 X71.000 Y71.366 E3.85905
G1 X72.347 Y71.623 E4.02187
G1 X73.572 Y72.428 E4.19603
G1 X74.377 Y73.653 E4.37018
G1 X74.634 Y75.000 E4.53300
G1 X74.389 Y76.288 E4.68870
G1 X73.702 Y76.073 F7800.000
G1 F1800
G1 X73.057 Y77.057 E4.82842
G1 X72.073 Y77.702 E4.96814
G1 X71.000 Y77.907 E5.09791
G1 X69.927 Y77.702 E5.22768
G1 X68.943 Y77.057 E5.36740
G1 X68.298 Y76.073 E5.50712
G1 X68.093 Y75.000 E5.63689
G1 X68.298 Y73.927 E5.76667
G1 X68.943 Y72.943 E5.90639
G1 X69.927 Y72.298 E6.04610
G1 X71.000 Y72.093 E6.17588
G1 X72.073 Y72.298 E6.30565
G1 X73.057 Y72.943 E6.44537
G1 X73.702 Y73.927 E6.58509
G1 X73.907 Y75.000 E6.71486
G1 X73.714 Y76.014 E6.83751
G1 X73.948 Y76.389 F7800.000
G1 E4.83751 F1800.00000
G92 E0
G1 X75.323 Y74.798 F7800.000
G1 E2.00000 F1800.00000
G1 X75.052 Y73.380 E2.17145
G1 X74.088 Y71.912 E2.38005
G1 X72.620 Y70.948 E2.58864
G1 X71.000 Y70.639 E2.78451
G1 X69.380 Y70.948 E2.98039
G1 X69.125 Y71.115 E3.01666
G1 X68.878 Y70.843 E3.06028
G1 X69.759 Y69.759 E3.22614
G1 X70.946 Y68.795 E3.40772
G1 X72.278 Y68.105 E3.58589
G1 X73.558 Y67.732 E3.74423
G1 X75.008 Y67.587 E3.91731
G1 X76.410 Y67.723 E4.08459
G1 X77.722 Y68.105 E4.24696
G1 X79.054 Y68.795 E4.42512
G1 X80.241 Y69.759 E4.60670
G1 X81.131 Y70.854 E4.77431
G1 X80.000 Y70.639 E4.91104
G1 X78.380 Y70.948 E5.10692
G1 X76.912 Y71.912 E5.31551
G1 X75.948 Y73.380 E5.52410
G1 X75.677 Y74.798 E5.69556
G1 X75.383 Y74.798 E5.73053
G1 X75.323 Y75.202 F7800.000
G1 F1800
G1 X75.677 Y75.202 E5.77263
G1 X75.948 Y76.620 E5.94409
G1 X76.912 Y78.088 E6.15268
G1 X78.380 Y79.052 E6.36127
G1 X80.000 Y79.361 E6.55714
G1 X81.131 Y79.146 E6.69387
G1 X80.241 Y80.241 E6.86149
G1 X79.054 Y81.205 E7.04306
G1 X77.725 Y81.894 E7.22085
G1 X76.344 Y82.291 E7.39152
G1 X75.000 Y82.414 E7.55182
G1 X73.656 Y82.291 E7.71211
G1 X72.275 Y81.894 E7.88278
G1 X70.946 Y81.205 E8.06057
G1 X69.759 Y80.241 E8.24215
G1 X68.878 Y79.157 E8.40802
G1 X69.125 Y78.885 E8.45163
G1 X69.380 Y79.052 E8.48791
G1 X71.000 Y79.361 E8.68378
G1 X72.620 Y79.052 E8.87965
G1 X74.088 Y78.088 E9.08825
G1 X75.052 Y76.620 E9.29684
G1 X75.312 Y75.261 E9.46117
G1 E7.46117
G92 E0
G1 X75.500 Y75.187 F7800.000
G1 X75.500 Y79.984
G1 X77.370 Y80.289
G1 X78.418 Y80.235
G1 X79.867 Y79.867
G1 X81.431 Y78.939
G1 X82.385 Y77.921
G1 X82.336 Y77.727
G1 E2.00000 F1800.00000
G1 X82.582 Y77.949 E2.03929
G1 X81.805 Y79.448 E2.23978
G1 X80.749 Y80.749 E2.43883
G1 X79.448 Y81.805 E2.63788
G1 X77.991 Y82.560 E2.83279
G1 X76.476 Y82.996 E3.01990
G1 X75.000 Y83.131 E3.19599
G1 X73.524 Y82.996 E3.37209
G1 X72.009 Y82.560 E3.55920
G1 X70.552 Y81.805 E3.75411
G1 X69.251 Y80.749 E3.95316
G1 X68.195 Y79.448 E4.15221
G1 X67.440 Y77.991 E4.34711
G1 X67.004 Y76.476 E4.53423
G1 X66.869 Y75.000 E4.71032
G1 X67.004 Y73.524 E4.88641
G1 X67.440 Y72.009 E5.07353
G1 X68.195 Y70.552 E5.26843
G1 X69.251 Y69.251 E5.46748
G1 X70.552 Y68.195 E5.66654
G1 X72.011 Y67.439 E5.86167
G1 X73.421 Y67.028 E6.03609
G1 X75.005 Y66.869 E6.22512
G1 X76.559 Y67.022 E6.41061
G1 X77.989 Y67.439 E6.58748
G1 X79.448 Y68.195 E6.78262
G1 X80.749 Y69.251 E6.98167
G1 X81.805 Y70.552 E7.18072
G1 X82.582 Y72.051 E7.38121
G1 X82.336 Y72.273 E7.42050
G1 X81.347 Y71.623 E7.56111
G1 X80.000 Y71.366 E7.72394
G1 X78.653 Y71.623 E7.88676
G1 X77.428 Y72.428 E8.06091
G1 X76.623 Y73.653 E8.23507
G1 X76.366 Y75.000 E8.39789
G1 X76.623 Y76.347 E8.56072
G1 X77.428 Y77.572 E8.73487
G1 X78.653 Y78.377 E8.90903
G1 X80.000 Y78.634 E9.07185
G1 X81.347 Y78.377 E9.23467
G1 X82.286 Y77.760 E9.36816
G1 X83.227 Y78.256 F7800.000
G1 F1800
G1 X82.406 Y79.841 E9.58018
G1 X81.256 Y81.256 E9.79671
G1 X79.841 Y82.406 E10.01323
G1 X78.256 Y83.227 E10.22526
G1 X76.609 Y83.701 E10.42881
G1 X75.000 Y83.848 E10.62070
G1 X73.391 Y83.701 E10.81260
G1 X71.744 Y83.227 E11.01615
G1 X70.159 Y82.406 E11.22817
G1 X68.744 Y81.256 E11.44470
G1 X67.594 Y79.841 E11.66123
G1 X66.773 Y78.256 E11.87325
G1 X66.299 Y76.609 E12.07680
G1 X66.152 Y75.000 E12.26869
G1 X66.299 Y73.391 E12.46059
G1 X66.773 Y71.744 E12.66414
G1 X67.594 Y70.159 E12.87616
G1 X68.744 Y68.744 E13.09269
G1 X70.159 Y67.594 E13.30922
G1 X71.744 Y66.773 E13.52132
G1 X73.284 Y66.324 E13.71182
G1 X75.002 Y66.152 E13.91679
G1 X76.708 Y66.322 E14.12049
G1 X78.256 Y66.773 E14.31187
G1 X79.841 Y67.594 E14.52398
G1 X81.256 Y68.744 E14.74050
G1 X82.406 Y70.159 E14.95703
G1 X83.227 Y71.744 E15.16905
G1 X83.701 Y73.391 E15.37261
G1 X83.848 Y75.000 E15.56450
G1 X83.701 Y76.609 E15.75639
G1 X83.244 Y78.198 E15.95282
G1 X82.831 Y78.313 F7800.000
G1 X82.650 Y77.529
G1 F1800
G1 X82.954 Y76.868 E16.03055
G1 X83.409 Y75.876 E16.12193
G1 X83.206 Y76.242 F7800.000
G1 F1800
G1 X83.190 Y76.308 E16.12602
G1 X83.206 Y76.242 F7800.000
G1 F1800
G1 X83.380 Y75.000 E16.17160
G1 X83.378 Y74.980 E16.17235
G1 X83.321 Y74.572 E16.19002
G1 X83.263 Y74.165 E16.21041
G1 X83.206 Y73.758 E16.23353
G1 X83.190 Y73.692 E16.23763
G1 X83.409 Y74.124 F7800.000
G1 F1800
G1 X82.954 Y73.132 E16.32900
G1 X82.650 Y72.471 E16.40673
G1 E14.40673
G92 E0
G1 X80.168 Y70.453 F7800.000
G1 E2.00000 F1800.00000
G1 X78.427 Y68.711 E2.29679
G1 E0.29679
G92 E0
G1 X79.254 Y70.563 F7800.000
G1 E2.00000 F1800.00000
G1 X77.202 Y68.511 E2.34965
G1 X76.298 Y68.248 E2.46319
G1 X75.870 Y68.204 E2.51503
G1 X78.134 Y70.468 E2.90097
G1 X77.516 Y70.875 E2.99015
G1 X74.788 Y68.147 E3.45498
G1 X73.857 Y68.240 E3.56779
G1 X76.897 Y71.281 E4.08594
G1 X76.525 Y71.525 E4.13960
G1 X76.363 Y71.772 E4.17512
G1 X73.034 Y68.442 E4.74250
G1 X72.478 Y68.605 E4.81235
G1 X72.276 Y68.709 E4.83972
G1 X75.957 Y72.390 E5.46708
G1 X75.551 Y73.009 E5.55625
G1 X71.601 Y69.059 E6.22942
G1 X71.241 Y69.245 E6.27829
G1 X70.977 Y69.460 E6.31925
G1 X72.159 Y70.642 E6.52071
G1 X70.792 Y70.275 F7800.000
G1 F1800
G1 X70.130 Y70.275 E6.53615
G1 X69.800 Y70.275 E6.55363
G1 X68.684 Y71.161 F7800.000
G1 F1800
G1 X68.017 Y72.069 E6.62676
G1 X67.936 Y72.207 E6.63648
G1 X67.874 Y72.342 E6.64513
G1 X67.812 Y72.478 E6.65274
G1 X67.750 Y72.613 E6.65930
G1 X67.688 Y72.748 E6.66482
G1 X67.626 Y72.883 E6.66929
G1 X67.563 Y73.019 E6.67271
G1 E4.67271
G92 E0
G1 X67.563 Y76.981 F7800.000
G1 E2.00000 F1800.00000
G1 X67.626 Y77.117 E2.00342
G1 X67.688 Y77.252 E2.00789
G1 X67.750 Y77.387 E2.01341
G1 X67.812 Y77.522 E2.01997
G1 X67.874 Y77.658 E2.02757
G1 X67.936 Y77.793 E2.03623
G1 X68.017 Y77.931 E2.04595
G1 X68.684 Y78.839 E2.11908
G1 X69.800 Y79.725 F7800.000
G1 F1800
G1 X70.130 Y79.725 E2.13656
G1 X70.792 Y79.725 E2.15200
G1 X71.006 Y79.668 F7800.000
G1 F1800
G1 X72.836 Y81.498 E2.47014
G1 X73.755 Y81.762 E2.58781
G1 X74.185 Y81.801 E2.64087
G1 X72.084 Y79.700 E3.00629
G1 X72.825 Y79.558 E3.09911
G1 X72.923 Y79.494 E3.11355
G1 X75.280 Y81.850 E3.52332
G1 X76.238 Y81.763 E3.64157
G1 X73.554 Y79.079 E4.10814
G1 X74.185 Y78.665 E4.20098
G1 X77.051 Y81.530 E4.69921
G1 X77.526 Y81.394 E4.76002
G1 X77.812 Y81.246 E4.79958
G1 X74.699 Y78.133 E5.34078
G1 X75.114 Y77.502 E5.43362
G1 X78.500 Y80.889 E6.02251
G1 X78.759 Y80.755 E6.05835
G1 X79.119 Y80.462 E6.11540
G1 X78.225 Y79.568 E6.27087
G1 X79.517 Y79.814 E6.43259
G1 X79.925 Y80.222 E6.50344
G1 Z0.700 F7800.000
M104 S200 ; set temperature
; PURGING FINISHED
G1 X82.209 Y77.209
G1 F900
G1 X81.154 Y77.902 E6.56413
G1 X80.000 Y78.122 E6.62063
G1 X78.846 Y77.902 E6.67713
G1 X77.791 Y77.209 E6.73783
G1 X77.098 Y76.154 E6.79852
G1 X76.878 Y75.000 E6.85503
G1 X77.098 Y73.846 E6.91153
G1 X77.791 Y72.791 E6.97222
G1 X78.846 Y72.098 E7.03292
G1 X80.000 Y71.878 E7.08942
G1 X81.154 Y72.098 E7.14592
G1 X82.209 Y72.791 E7.20662
G1 X82.902 Y73.846 E7.26731
G1 X83.122 Y75.000 E7.32381
G1 X82.902 Y76.154 E7.38032
G1 X82.242 Y77.159 E7.43812
G1 X81.930 Y76.930 F7800.000
G1 F900
G1 X81.006 Y77.537 E7.49129
G1 X80.000 Y77.729 E7.54056
G1 X78.994 Y77.537 E7.58984
G1 X78.070 Y76.930 E7.64300
G1 X77.463 Y76.006 E7.69617
G1 X77.271 Y75.000 E7.74544
G1 X77.463 Y73.994 E7.79472
G1 X78.070 Y73.070 E7.84788
G1 X78.994 Y72.463 E7.90105
G1 X80.000 Y72.271 E7.95032
G1 X81.006 Y72.463 E7.99960
G1 X81.930 Y73.070 E8.05276
G1 X82.537 Y73.994 E8.10593
G1 X82.729 Y75.000 E8.15520
G1 X82.537 Y76.006 E8.20448
G1 X81.963 Y76.880 E8.25475
G1 X82.032 Y77.317 F7800.000
G1 X82.590 Y77.642
G1 X81.242 Y79.079
G1 X79.867 Y79.867
G1 X78.418 Y80.235
G1 X77.080 Y80.274
G1 X75.500 Y79.984
G1 X75.500 Y77.111
G1 X74.266 Y76.302
G1 F900
G1 X73.487 Y77.487 E8.32298
G1 X72.302 Y78.266 E8.39120
G1 X71.000 Y78.514 E8.45493
G1 X69.698 Y78.266 E8.51866
G1 X68.513 Y77.487 E8.58689
G1 X67.734 Y76.302 E8.65511
G1 X67.486 Y75.000 E8.71884
G1 X67.734 Y73.698 E8.78257
G1 X68.513 Y72.513 E8.85080
G1 X69.698 Y71.734 E8.91902
G1 X71.000 Y71.486 E8.98275
G1 X72.302 Y71.734 E9.04648
G1 X73.487 Y72.513 E9.11470
G1 X74.266 Y73.698 E9.18293
G1 X74.514 Y75.000 E9.24666
G1 X74.277 Y76.243 E9.30750
G1 X73.902 Y76.154 F7800.000
G1 F900
G1 X73.209 Y77.209 E9.36820
G1 X72.154 Y77.902 E9.42889
G1 X71.000 Y78.122 E9.48539
G1 X69.846 Y77.902 E9.54189
G1 X68.791 Y77.209 E9.60259
G1 X68.098 Y76.154 E9.66328
G1 X67.878 Y75.000 E9.71979
G1 X68.098 Y73.846 E9.77629
G1 X68.791 Y72.791 E9.83698
G1 X69.846 Y72.098 E9.89768
G1 X71.000 Y71.878 E9.95418
G1 X72.154 Y72.098 E10.01068
G1 X73.209 Y72.791 E10.07138
G1 X73.902 Y73.846 E10.13207
G1 X74.122 Y75.000 E10.18857
G1 X73.913 Y76.095 E10.24219
G1 X73.537 Y76.006 F7800.000
G1 F900
G1 X72.930 Y76.930 E10.29535
G1 X72.006 Y77.537 E10.34852
G1 X71.000 Y77.729 E10.39779
G1 X69.994 Y77.537 E10.44707
G1 X69.070 Y76.930 E10.50023
G1 X68.463 Y76.006 E10.55340
G1 X68.271 Y75.000 E10.60267
G1 X68.463 Y73.994 E10.65195
G1 X69.070 Y73.070 E10.70511
G1 X69.994 Y72.463 E10.75828
G1 X71.000 Y72.271 E10.80755
G1 X72.006 Y72.463 E10.85683
G1 X72.930 Y73.070 E10.90999
G1 X73.537 Y73.994 E10.96316
G1 X73.729 Y75.000 E11.01243
G1 X73.548 Y75.947 E11.05882
G1 X73.782 Y76.322 F7800.000
G1 X75.500 Y77.111
G1 X75.500 Y79.984
G1 X77.080 Y80.274
G1 X78.418 Y80.235
G1 X80.223 Y79.688
G1 X81.626 Y78.762
G1 X82.590 Y77.642
G1 X82.490 Y77.490
G1 X82.729 Y77.119
G1 F3600
G1 X82.910 Y77.202 E11.06839
G1 X82.670 Y78.034 E11.11005
G1 X81.905 Y79.513 E11.19013
G1 X80.833 Y80.833 E11.27191
G1 X79.513 Y81.905 E11.35369
G1 X78.034 Y82.670 E11.43376
G1 X76.498 Y83.112 E11.51064
G1 X75.000 Y83.250 E11.58301
G1 X73.502 Y83.112 E11.65538
G1 X71.966 Y82.670 E11.73225
G1 X70.487 Y81.905 E11.81233
G1 X69.167 Y80.833 E11.89411
G1 X68.095 Y79.513 E11.97589
G1 X67.330 Y78.034 E12.05596
G1 X66.888 Y76.498 E12.13284
G1 X66.750 Y75.000 E12.20521
G1 X66.888 Y73.502 E12.27757
G1 X67.330 Y71.966 E12.35445
G1 X68.095 Y70.487 E12.43453
G1 X69.167 Y69.167 E12.51630
G1 X70.487 Y68.095 E12.59808
G1 X71.970 Y67.327 E12.67842
G1 X73.229 Y66.950 E12.74162
G1 X74.048 Y66.838 E12.78135
G1 X75.000 Y66.750 E12.82735
G1 X75.952 Y66.838 E12.87336
G1 X76.771 Y66.950 E12.91308
G1 X78.030 Y67.327 E12.97629
G1 X79.513 Y68.095 E13.05662
G1 X80.833 Y69.167 E13.13840
G1 X81.905 Y70.487 E13.22018
G1 X82.670 Y71.966 E13.30025
G1 X82.910 Y72.798 E13.34192
G1 X82.729 Y72.881 E13.35149
G1 X82.487 Y72.513 E13.37268
G1 X81.302 Y71.734 E13.44091
G1 X80.000 Y71.486 E13.50463
G1 X78.698 Y71.734 E13.56836
G1 X77.513 Y72.513 E13.63659
G1 X76.734 Y73.698 E13.70481
G1 X76.486 Y75.000 E13.76854
G1 X76.734 Y76.302 E13.83227
G1 X77.513 Y77.487 E13.90050
G1 X78.698 Y78.266 E13.96872
G1 X80.000 Y78.514 E14.03245
G1 X81.302 Y78.266 E14.09618
G1 X82.487 Y77.487 E14.16441
G1 X82.696 Y77.169 E14.18271
G1 X83.030 Y78.178 F7800.000
G1 F3600
G1 X82.229 Y79.725 E14.26653
G1 X81.107 Y81.107 E14.35213
G1 X79.725 Y82.229 E14.43773
G1 X78.178 Y83.030 E14.52155
G1 X76.570 Y83.493 E14.60202
G1 X75.000 Y83.637 E14.67784
G1 X73.430 Y83.493 E14.75367
G1 X71.822 Y83.030 E14.83414
G1 X70.275 Y82.229 E14.91796
G1 X68.893 Y81.107 E15.00356
G1 X67.771 Y79.725 E15.08916
G1 X66.970 Y78.178 E15.17298
G1 X66.507 Y76.570 E15.25345
G1 X66.363 Y75.000 E15.32927
G1 X66.507 Y73.430 E15.40509
G1 X66.970 Y71.822 E15.48557
G1 X67.771 Y70.275 E15.56938
G1 X68.893 Y68.893 E15.65498
G1 X70.275 Y67.771 E15.74058
G1 X71.825 Y66.968 E15.82456
G1 X73.147 Y66.573 E15.89094
G1 X74.004 Y66.455 E15.93251
G1 X75.000 Y66.363 E15.98064
G1 X75.996 Y66.455 E16.02876
G1 X76.853 Y66.573 E16.07034
G1 X78.175 Y66.968 E16.13672
G1 X79.725 Y67.771 E16.22069
G1 X81.107 Y68.893 E16.30629
G1 X82.229 Y70.275 E16.39189
G1 X83.030 Y71.822 E16.47571
G1 X83.493 Y73.430 E16.55618
G1 X83.637 Y75.000 E16.63201
G1 X83.493 Y76.570 E16.70783
G1 X83.047 Y78.120 E16.78541
G1 X83.373 Y78.355 F7800.000
G1 F1800
G1 X82.553 Y79.938 E16.87113
G1 X81.381 Y81.381 E16.96056
G1 X79.938 Y82.553 E17.04998
G1 X78.321 Y83.390 E17.13754
G1 X76.641 Y83.873 E17.22160
G1 X75.000 Y84.024 E17.30088
G1 X73.359 Y83.873 E17.38016
G1 X71.679 Y83.390 E17.46423
G1 X70.062 Y82.553 E17.55179
G1 X68.619 Y81.381 E17.64121
G1 X67.447 Y79.938 E17.73063
G1 X66.610 Y78.321 E17.81819
G1 X66.127 Y76.641 E17.90226
G1 X65.976 Y75.000 E17.98154
G1 X66.127 Y73.359 E18.06081
G1 X66.610 Y71.679 E18.14488
G1 X67.447 Y70.062 E18.23244
G1 X68.619 Y68.619 E18.32186
G1 X70.062 Y67.447 E18.41128
G1 X71.680 Y66.609 E18.49890
G1 X73.065 Y66.195 E18.56845
G1 X73.960 Y66.071 E18.61188
G1 X75.000 Y65.976 E18.66213
G1 X76.040 Y66.071 E18.71237
G1 X76.935 Y66.195 E18.75580
G1 X78.320 Y66.609 E18.82535
G1 X79.938 Y67.447 E18.91297
G1 X81.381 Y68.619 E19.00239
G1 X82.553 Y70.062 E19.09181
G1 X83.390 Y71.679 E19.17937
G1 X83.873 Y73.359 E19.26344
G1 X84.024 Y75.000 E19.34271
G1 X83.873 Y76.641 E19.42199
G1 X83.396 Y78.300 E19.50502
