; generated by Slic3r Prusa Edition 1.41.0-beta+win64 on 2018-10-23 at 11:56:48

; 

; external perimeters extrusion width = 0.45mm
; perimeters extrusion width = 0.45mm
; infill extrusion width = 0.45mm
; solid infill extrusion width = 0.45mm
; top infill extrusion width = 0.40mm
; first layer extrusion width = 0.80mm

M107
M104 S210 ; set temperature
G28 ; home all axes
G1 Z5 F5000 ; lift nozzle
; Filament gcode
M109 S210 ; set temperature and wait for it to be reached
G21 ; set units to millimeters
G90 ; use absolute coordinates
M82 ; use absolute distances for extrusion
G92 E0
G1 Z0.400 F7800.000
G1 E-2.00000 F1800.00000
G92 E0
G1 X55.542 Y55.235 F7800.000
G1 E2.00000 F1800.00000
G1 X56.669 Y54.439 E2.16391
G1 X57.936 Y53.907 E2.32708
G1 X59.287 Y53.660 E2.49026
G1 X90.256 Y53.643 E6.16828
G1 X91.445 Y53.756 E6.31011
G1 X92.592 Y54.090 E6.45194
G1 X93.656 Y54.632 E6.59377
G1 X94.600 Y55.364 E6.73560
G1 X95.390 Y56.259 E6.87743
G1 X95.999 Y57.286 E7.01926
G1 X96.405 Y58.409 E7.16109
G1 X96.594 Y59.589 E7.30293
G1 X96.592 Y60.435 E7.40346
G1 X94.893 Y84.203 E10.23349
G1 X94.729 Y85.027 E10.33329
G1 X94.097 Y87.172 E10.59879
G1 X93.098 Y89.218 E10.86922
G1 X92.607 Y90.005 E10.97935
G1 X90.923 Y92.073 E11.29617
G1 X89.246 Y93.520 E11.55920
G1 X88.446 Y94.070 E11.67449
G1 X86.754 Y95.008 E11.90418
G1 X85.894 Y95.369 E12.01505
G1 X83.837 Y96.011 E12.27097
G1 X81.742 Y96.314 E12.52234
G1 X68.205 Y96.307 E14.13008
G1 X66.132 Y96.004 E14.37882
G1 X63.971 Y95.322 E14.64805
G1 X63.096 Y94.929 E14.76186
G1 X60.995 Y93.705 E15.05069
G1 X58.906 Y91.899 E15.37864
G1 X57.154 Y89.653 E15.71694
G1 X55.890 Y87.136 E16.05145
G1 X55.144 Y84.449 E16.38266
G1 X54.944 Y82.404 E16.62666
G1 X53.394 Y60.120 E19.27968
G1 X53.458 Y59.095 E19.40162
G1 X53.687 Y58.088 E19.52429
G1 X54.077 Y57.132 E19.64696
G1 X54.616 Y56.251 E19.76963
G1 X55.501 Y55.280 E19.92567
; PURGING FINISHED
G1 E17.92567
G92 E0
G1 X80.400 Y88.900 F7800.000
G1 E2.00000 F1800.00000
G1 X69.600 Y88.900 E3.28266
G1 X69.600 Y83.600 E3.91212
G1 X80.400 Y83.600 E5.19478
G1 X80.400 Y88.840 E5.81711
G1 X80.545 Y89.273 F7800.000
G1 E3.81711 F1800.00000
G92 E0
G1 X81.000 Y88.991 F7800.000
G1 X81.986 Y87.867
G1 X83.339 Y85.818
G1 X84.223 Y83.316
G1 X84.217 Y81.591
G1 X83.772 Y80.025
G1 X82.478 Y77.682
G1 X79.004 Y78.751
G1 X76.671 Y75.199
G1 X76.988 Y75.982
G1 E2.00000 F1800.00000
G1 X75.000 Y76.361 E2.24038
G1 X73.012 Y75.982 E2.48076
G1 X71.205 Y74.795 E2.73752
G1 X70.018 Y72.988 E2.99428
G1 X69.639 Y71.000 E3.23466
G1 X70.018 Y69.012 E3.47504
G1 X71.205 Y67.205 E3.73180
G1 X73.012 Y66.018 E3.98857
G1 X75.000 Y65.639 E4.22895
G1 X76.988 Y66.018 E4.46932
G1 X78.795 Y67.205 E4.72609
G1 X79.982 Y69.012 E4.98285
G1 X80.361 Y71.000 E5.22323
G1 X79.982 Y72.988 E5.46361
G1 X78.795 Y74.795 E5.72037
G1 X77.038 Y75.949 E5.97001
G1 X76.715 Y75.307 F7800.000
G1 F1800
G1 X75.000 Y75.634 E6.17734
G1 X73.285 Y75.307 E6.38467
G1 X71.721 Y74.279 E6.60700
G1 X70.693 Y72.715 E6.82932
G1 X70.366 Y71.000 E7.03665
G1 X70.693 Y69.285 E7.24398
G1 X71.721 Y67.721 E7.46631
G1 X73.285 Y66.693 E7.68863
G1 X75.000 Y66.366 E7.89596
G1 X76.715 Y66.693 E8.10329
G1 X78.279 Y67.721 E8.32562
G1 X79.307 Y69.285 E8.54794
G1 X79.634 Y71.000 E8.75527
G1 X79.307 Y72.715 E8.96260
G1 X78.279 Y74.279 E9.18493
G1 X76.765 Y75.274 E9.40013
G1 X76.441 Y74.632 F7800.000
G1 F1800
G1 X75.000 Y74.907 E9.57441
G1 X73.559 Y74.632 E9.74869
G1 X72.236 Y73.764 E9.93658
G1 X71.368 Y72.441 E10.12447
G1 X71.093 Y71.000 E10.29874
G1 X71.368 Y69.559 E10.47302
G1 X72.236 Y68.236 E10.66091
G1 X73.559 Y67.368 E10.84880
G1 X75.000 Y67.093 E11.02308
G1 X76.441 Y67.368 E11.19736
G1 X77.764 Y68.236 E11.38525
G1 X78.632 Y69.559 E11.57314
G1 X78.907 Y71.000 E11.74742
G1 X78.632 Y72.441 E11.92170
G1 X77.764 Y73.764 E12.10959
G1 X76.492 Y74.599 E12.29035
G1 X76.387 Y75.029 F7800.000
G1 E10.29035 F1800.00000
G92 E0
G1 X81.828 Y82.172 F7800.000
G1 E2.00000 F1800.00000
G1 X68.172 Y82.172 E3.62193
G1 X68.172 Y88.084 E4.32417
G1 X66.862 Y87.658 E4.48773
G1 X65.795 Y87.064 E4.63275
G1 X64.848 Y86.256 E4.78070
G1 X64.080 Y85.274 E4.92865
G1 X63.533 Y84.183 E5.07368
G1 X63.217 Y83.051 E5.21320
G1 X63.107 Y81.802 E5.36206
G1 X61.711 Y61.828 E7.74009
G1 X88.289 Y61.828 E10.89672
G1 X86.893 Y81.802 E13.27475
G1 X86.783 Y83.051 E13.42361
G1 X86.467 Y84.183 E13.56313
G1 X85.920 Y85.274 E13.70816
G1 X85.152 Y86.256 E13.85611
G1 X84.205 Y87.064 E14.00406
G1 X83.138 Y87.658 E14.14909
G1 X81.828 Y88.084 E14.31264
G1 X81.828 Y82.232 E15.00775
G1 X81.114 Y82.886 F7800.000
G1 F1800
G1 X68.886 Y82.886 E16.46005
G1 X68.886 Y88.861 E17.16972
G1 X67.821 Y88.721 E17.29731
G1 X66.575 Y88.316 E17.45286
G1 X65.386 Y87.654 E17.61455
G1 X64.329 Y86.752 E17.77950
G1 X63.474 Y85.658 E17.94444
G1 X62.863 Y84.441 E18.10613
G1 X62.512 Y83.179 E18.26169
G1 X62.395 Y81.859 E18.41915
G1 X60.945 Y61.114 E20.88889
G1 X89.055 Y61.114 E24.22743
G1 X87.605 Y81.859 E26.69718
G1 X87.488 Y83.179 E26.85464
G1 X87.137 Y84.441 E27.01020
G1 X86.526 Y85.658 E27.17189
G1 X85.671 Y86.752 E27.33683
G1 X84.614 Y87.654 E27.50177
G1 X83.425 Y88.316 E27.66347
G1 X82.179 Y88.721 E27.81902
G1 X81.114 Y88.861 E27.94661
G1 X81.114 Y82.946 E28.64915
G1 E26.64915
G92 E0
G1 X60.179 Y60.400 F7800.000
G1 E2.00000 F1800.00000
G1 X89.821 Y60.400 E5.52045
G1 X88.317 Y81.915 E8.08191
G1 X88.194 Y83.308 E8.24797
G1 X87.806 Y84.699 E8.41956
G1 X87.133 Y86.042 E8.59792
G1 X86.189 Y87.249 E8.77986
G1 X85.024 Y88.243 E8.96179
G1 X83.712 Y88.973 E9.14015
G1 X82.338 Y89.421 E9.31175
G1 X80.974 Y89.600 E9.47512
G1 X69.026 Y89.600 E10.89409
G1 X67.662 Y89.421 E11.05746
G1 X66.288 Y88.973 E11.22906
G1 X64.976 Y88.243 E11.40741
G1 X63.811 Y87.249 E11.58935
G1 X62.867 Y86.042 E11.77129
G1 X62.194 Y84.699 E11.94964
G1 X61.806 Y83.308 E12.12124
G1 X61.683 Y81.915 E12.28729
G1 X60.183 Y60.460 E14.84163
G1 X60.530 Y60.592 F7800.000
G1 E12.84163 F1800.00000
G92 E0
G1 X69.798 Y72.979 F7800.000
G1 E2.00000 F1800.00000
G1 X62.518 Y65.699 E3.24342
G1 X62.441 Y64.594 E3.37711
G1 X69.152 Y71.305 E4.52332
G1 X69.093 Y71.000 E4.56083
G1 X69.218 Y70.345 E4.64139
G1 X62.364 Y63.490 E5.81219
G1 X62.287 Y62.386 E5.94589
G1 X69.383 Y69.482 E7.15798
G1 X69.512 Y68.807 E7.24102
G1 X69.600 Y68.672 E7.26046
G1 X63.292 Y62.364 E8.33796
G1 X64.319 Y62.364 E8.46200
G1 X70.007 Y68.052 E9.43362
G1 X70.414 Y67.433 E9.52320
G1 X65.346 Y62.364 E10.38894
G1 X66.373 Y62.364 E10.51298
G1 X70.824 Y66.815 E11.27316
G1 X71.443 Y66.407 E11.36274
G1 X67.400 Y62.364 E12.05337
G1 X68.427 Y62.364 E12.17741
G1 X72.063 Y66.000 E12.79850
G1 X72.683 Y65.593 E12.88807
G1 X69.454 Y62.364 E13.43961
G1 X70.481 Y62.364 E13.56366
G1 X73.497 Y65.380 E14.07883
G1 X74.360 Y65.216 E14.18488
G1 X71.508 Y62.364 E14.67195
G1 X72.535 Y62.364 E14.79599
G1 X75.327 Y65.156 E15.27287
G1 X76.596 Y65.398 E15.42892
G1 X73.562 Y62.364 E15.94714
G1 X74.589 Y62.364 E16.07119
G1 X86.857 Y74.632 E18.16654
G1 X86.924 Y73.672 E18.28276
G1 X75.617 Y62.364 E20.21416
G1 X76.644 Y62.364 E20.33820
G1 X86.991 Y72.712 E22.10563
G1 X87.059 Y71.752 E22.22185
G1 X77.671 Y62.364 E23.82532
G1 X78.698 Y62.364 E23.94937
G1 X87.126 Y70.792 E25.38888
G1 X87.193 Y69.832 E25.50510
G1 X79.725 Y62.364 E26.78065
G1 X80.752 Y62.364 E26.90469
G1 X87.260 Y68.872 E28.01628
G1 X87.327 Y67.912 E28.13250
G1 X81.779 Y62.364 E29.08013
G1 X82.806 Y62.364 E29.20417
G1 X87.394 Y66.952 E29.98784
G1 X87.461 Y65.992 E30.10406
G1 X83.833 Y62.364 E30.72376
G1 X84.860 Y62.364 E30.84781
G1 X87.528 Y65.032 E31.30355
G1 X87.596 Y64.072 E31.41977
G1 X85.887 Y62.364 E31.71155
G1 X86.914 Y62.364 E31.83560
G1 X87.964 Y63.413 E32.01485
G1 E30.01485
G92 E0
G1 X87.091 Y75.893 F7800.000
G1 E2.00000 F1800.00000
G1 X80.602 Y69.404 E3.10836
G1 X80.844 Y70.673 E3.26441
G1 X86.723 Y76.551 E4.26852
G1 X86.656 Y77.511 E4.38475
G1 X80.784 Y71.640 E5.38759
G1 X80.620 Y72.503 E5.49364
G1 X86.589 Y78.471 E6.51312
G1 X86.522 Y79.431 E6.62934
G1 X80.407 Y73.317 E7.67372
G1 X80.000 Y73.937 E7.76330
G1 X86.453 Y80.390 E8.86553
G1 X86.379 Y81.343 E8.98095
G1 X79.593 Y74.557 E10.14004
G1 X79.185 Y75.176 E10.22961
G1 X86.304 Y82.295 E11.44555
G1 X86.253 Y82.957 E11.52575
G1 X86.184 Y83.203 E11.55648
G1 X78.567 Y75.586 E12.85749
G1 X77.948 Y75.993 E12.94707
G1 X85.958 Y84.003 E14.31528
G1 X85.615 Y84.687 E14.40770
G1 X77.328 Y76.400 E15.82320
G1 X77.193 Y76.488 E15.84263
G1 X76.518 Y76.617 E15.92567
G1 X81.537 Y81.636 E16.78294
G1 X80.510 Y81.636 E16.90698
G1 X75.655 Y76.782 E17.73615
G1 X75.000 Y76.907 E17.81671
G1 X74.695 Y76.848 E17.85422
G1 X79.483 Y81.636 E18.67198
G1 X78.456 Y81.636 E18.79603
G1 X73.021 Y76.202 E19.72419
G1 E17.72419
G92 E0
G1 X77.750 Y81.957 F7800.000
G1 E2.00000 F1800.00000
G1 X62.595 Y66.803 E4.58843
G1 X62.673 Y67.907 E4.72212
G1 X76.401 Y81.636 E7.06704
G1 X75.374 Y81.636 E7.19109
G1 X62.750 Y69.012 E9.34739
G1 X62.827 Y70.116 E9.48109
G1 X74.347 Y81.636 E11.44877
G1 X73.320 Y81.636 E11.57282
G1 X62.904 Y71.220 E13.35189
G1 X62.981 Y72.324 E13.48559
G1 X72.293 Y81.636 E15.07604
G1 X71.266 Y81.636 E15.20009
G1 X63.059 Y73.429 E16.60193
G1 X63.136 Y74.533 E16.73563
G1 X70.239 Y81.636 E17.94885
G1 X69.212 Y81.636 E18.07290
G1 X63.213 Y75.637 E19.09750
G1 X63.290 Y76.742 E19.23120
G1 X68.185 Y81.636 E20.06719
G1 X67.636 Y81.636 E20.13347
G1 X67.636 Y82.114 E20.19124
G1 X63.368 Y77.846 E20.92031
G1 X63.445 Y78.950 E21.05401
G1 X67.636 Y83.141 E21.76989
G1 X67.636 Y84.169 E21.89393
G1 X63.522 Y80.054 E22.59662
G1 X63.599 Y81.159 E22.73032
G1 X67.636 Y85.196 E23.41982
G1 X67.636 Y86.223 E23.54387
G1 X63.686 Y82.273 E24.21847
G1 X63.746 Y82.955 E24.30115
G1 X63.903 Y83.517 E24.37160
G1 X67.957 Y87.571 E25.06409
G1 X66.659 Y87.300 F7800.000
G1 F1800
G1 X64.004 Y84.645 E25.51752
G1 E23.51752
G92 E0
G1 X63.377 Y85.719 F7800.000
G1 X65.959 Y84.085
G1 X66.661 Y85.818
G1 X67.237 Y86.798
G1 X69.000 Y88.991
G1 X81.000 Y88.991
G1 X82.763 Y86.798
G1 X82.043 Y86.250
G1 E2.00000 F1800.00000
G1 X82.945 Y87.152 E2.15412
G1 X83.605 Y86.785 E2.24532
G1 X82.364 Y85.544 E2.45726
G1 X82.364 Y84.517 E2.58130
G1 X84.206 Y86.359 E2.89590
G1 X84.760 Y85.886 E2.98389
G1 X82.364 Y83.490 E3.39314
G1 X82.364 Y82.463 E3.51719
G1 X85.440 Y85.540 E4.04263
G1 Z0.700 F7800.000
M104 S200 ; set temperature
; PURGING FINISHED
G1 E2.04263 F1800.00000
G92 E0
G1 X86.623 Y85.719 F7800.000
G1 X84.041 Y84.085
G1 X83.339 Y85.818
G1 X82.763 Y86.798
G1 X81.000 Y88.991
G1 X75.000 Y89.000
G1 X69.000 Y83.000
G1 X69.389 Y83.389
G1 E2.00000 F1800.00000
G1 F900
G1 X80.611 Y83.389 E2.53970
G1 X80.611 Y89.111 E2.81488
G1 X69.389 Y89.111 E3.35458
G1 X69.389 Y83.449 E3.62686
G1 X69.775 Y83.775 F7800.000
G1 F900
G1 X80.225 Y83.775 E4.12947
G1 X80.225 Y88.725 E4.36755
G1 X69.775 Y88.725 E4.87016
G1 X69.775 Y83.835 E5.10535
G1 X69.628 Y83.403 F7800.000
G1 X73.330 Y75.196
G1 F900
G1 X71.806 Y74.194 E5.19309
G1 X70.804 Y72.670 E5.28082
G1 X70.486 Y71.000 E5.36257
G1 X70.804 Y69.330 E5.44433
G1 X71.806 Y67.806 E5.53206
G1 X73.330 Y66.804 E5.61979
G1 X75.000 Y66.486 E5.70154
G1 X76.670 Y66.804 E5.78330
G1 X78.194 Y67.806 E5.87103
G1 X79.196 Y69.330 E5.95876
G1 X79.514 Y71.000 E6.04052
G1 X79.196 Y72.670 E6.12227
G1 X78.194 Y74.194 E6.21000
G1 X76.670 Y75.196 E6.29774
G1 X75.000 Y75.514 E6.37949
G1 X73.389 Y75.207 E6.45835
G1 X73.478 Y74.831 F7800.000
G1 F900
G1 X72.084 Y73.916 E6.53856
G1 X71.169 Y72.522 E6.61876
G1 X70.878 Y71.000 E6.69328
G1 X71.169 Y69.478 E6.76781
G1 X72.084 Y68.084 E6.84801
G1 X73.478 Y67.169 E6.92822
G1 X75.000 Y66.878 E7.00274
G1 X76.522 Y67.169 E7.07727
G1 X77.916 Y68.084 E7.15747
G1 X78.831 Y69.478 E7.23767
G1 X79.122 Y71.000 E7.31220
G1 X78.831 Y72.522 E7.38672
G1 X77.916 Y73.916 E7.46693
G1 X76.522 Y74.831 E7.54713
G1 X75.000 Y75.122 E7.62166
G1 X73.537 Y74.843 E7.69329
G1 X73.626 Y74.467 F7800.000
G1 F900
G1 X72.363 Y73.637 E7.76597
G1 X71.533 Y72.374 E7.83864
G1 X71.271 Y71.000 E7.90594
G1 X71.533 Y69.626 E7.97324
G1 X72.363 Y68.363 E8.04591
G1 X73.626 Y67.533 E8.11858
G1 X75.000 Y67.271 E8.18588
G1 X76.374 Y67.533 E8.25318
G1 X77.637 Y68.363 E8.32585
G1 X78.467 Y69.626 E8.39852
G1 X78.729 Y71.000 E8.46582
G1 X78.467 Y72.374 E8.53312
G1 X77.637 Y73.637 E8.60579
G1 X76.374 Y74.467 E8.67847
G1 X75.000 Y74.729 E8.74576
G1 X73.684 Y74.478 E8.81018
G1 X73.309 Y74.712 F7800.000
G1 X80.996 Y83.004
G1 F3600
G1 X69.004 Y83.004 E9.38697
G1 X69.004 Y88.996 E9.67517
G1 X67.795 Y88.837 E9.73382
G1 X66.528 Y88.424 E9.79789
G1 X65.318 Y87.751 E9.86449
G1 X64.244 Y86.834 E9.93242
G1 X63.374 Y85.721 E10.00035
G1 X62.753 Y84.484 E10.06695
G1 X62.395 Y83.201 E10.13102
G1 X62.278 Y81.868 E10.19536
G1 X60.818 Y60.996 E11.20167
G1 X89.182 Y60.996 E12.56585
G1 X87.722 Y81.868 E13.57216
G1 X87.605 Y83.201 E13.63650
G1 X87.247 Y84.484 E13.70057
G1 X86.626 Y85.721 E13.76717
G1 X85.756 Y86.834 E13.83510
G1 X84.682 Y87.751 E13.90303
G1 X83.472 Y88.424 E13.96963
G1 X82.205 Y88.837 E14.03370
G1 X80.996 Y88.996 E14.09235
G1 X80.996 Y83.064 E14.37766
G1 X60.405 Y60.611 F7800.000
G1 F3600
G1 X89.595 Y60.611 E15.78162
G1 X88.107 Y81.898 E16.80798
G1 X87.986 Y83.270 E16.87421
G1 X87.609 Y84.623 E16.94178
G1 X86.954 Y85.929 E17.01202
G1 X86.036 Y87.102 E17.08367
G1 X84.903 Y88.069 E17.15532
G1 X83.627 Y88.779 E17.22556
G1 X82.291 Y89.214 E17.29314
G1 X80.960 Y89.389 E17.35770
G1 X69.040 Y89.389 E17.93101
G1 X67.709 Y89.214 E17.99558
G1 X66.373 Y88.779 E18.06315
G1 X65.097 Y88.069 E18.13339
G1 X63.964 Y87.102 E18.20504
G1 X63.046 Y85.929 E18.27669
G1 X62.392 Y84.623 E18.34693
G1 X62.014 Y83.270 E18.41451
G1 X61.893 Y81.898 E18.48073
G1 X60.409 Y60.670 E19.50421
G1 X59.991 Y60.225 F7800.000
G1 F1800
G1 X90.009 Y60.225 E20.94795
G1 X88.491 Y81.929 E21.99437
G1 X88.367 Y83.339 E22.06247
G1 X87.970 Y84.763 E22.13355
G1 X87.281 Y86.136 E22.20744
G1 X86.316 Y87.370 E22.28280
G1 X85.124 Y88.388 E22.35817
G1 X83.782 Y89.134 E22.43205
G1 X82.377 Y89.592 E22.50313
G1 X80.985 Y89.775 E22.57062
G1 X69.015 Y89.775 E23.14637
G1 X67.623 Y89.592 E23.21386
G1 X66.218 Y89.134 E23.28494
G1 X64.876 Y88.388 E23.35882
G1 X63.684 Y87.370 E23.43419
G1 X62.719 Y86.136 E23.50955
G1 X62.030 Y84.763 E23.58344
G1 X61.633 Y83.339 E23.65452
G1 X61.509 Y81.929 E23.72262
G1 X59.995 Y60.285 E24.76616
G1 X60.342 Y60.417 F7800.000
G1 X60.994 Y61.843
G1 F1200
G1 X61.551 Y61.285 E24.80430
G1 X62.100 Y61.285 E24.83081
G1 X61.192 Y62.193 E24.89287
G1 X61.228 Y62.705 E24.91771
G1 X62.648 Y61.285 E25.01481
G1 X63.196 Y61.285 E25.04132
G1 X61.264 Y63.218 E25.17346
G1 X61.299 Y63.730 E25.19830
G1 X63.744 Y61.285 E25.36548
G1 X64.293 Y61.285 E25.39199
G1 X61.335 Y64.243 E25.59421
G1 X61.371 Y64.755 E25.61904
G1 X64.841 Y61.285 E25.85630
G1 X65.389 Y61.285 E25.88281
G1 X61.407 Y65.268 E26.15511
G1 X61.443 Y65.780 E26.17995
G1 X65.937 Y61.285 E26.48729
G1 X66.486 Y61.285 E26.51380
G1 X61.479 Y66.292 E26.85617
G1 X61.514 Y66.805 E26.88101
G1 X67.034 Y61.285 E27.25843
G1 X67.582 Y61.285 E27.28494
G1 X61.550 Y67.317 E27.69740
G1 X61.586 Y67.830 E27.72223
G1 X68.130 Y61.285 E28.16973
G1 X68.679 Y61.285 E28.19624
G1 X61.622 Y68.342 E28.67878
G1 X61.658 Y68.854 E28.70361
G1 X69.227 Y61.285 E29.22119
G1 X69.775 Y61.285 E29.24770
G1 X61.694 Y69.367 E29.80031
G1 X61.729 Y69.879 E29.82515
G1 X70.323 Y61.285 E30.41280
G1 X70.872 Y61.285 E30.43931
G1 X61.765 Y70.392 E31.06201
G1 X61.801 Y70.904 E31.08684
G1 X71.420 Y61.285 E31.74458
G1 X71.968 Y61.285 E31.77109
G1 X61.837 Y71.417 E32.46386
G1 X61.873 Y71.929 E32.48870
G1 X72.516 Y61.285 E33.21651
G1 X73.065 Y61.285 E33.24302
G1 X61.909 Y72.441 E34.00587
G1 X61.944 Y72.954 E34.03071
G1 X73.613 Y61.285 E34.82860
G1 X74.161 Y61.285 E34.85511
G1 X61.980 Y73.466 E35.68804
G1 X62.016 Y73.979 E35.71288
G1 X74.709 Y61.285 E36.58085
G1 X75.258 Y61.285 E36.60736
G1 X62.052 Y74.491 E37.51037
G1 X62.088 Y75.003 E37.53521
G1 X75.806 Y61.285 E38.47326
G1 X76.354 Y61.285 E38.49976
G1 X62.124 Y75.516 E39.47285
G1 X62.159 Y76.028 E39.49769
G1 X76.902 Y61.285 E40.50582
G1 X77.451 Y61.285 E40.53233
G1 X62.033 Y76.703 E41.58662
G1 X69.006 Y82.888 F7800.000
G1 F1200
G1 X76.341 Y75.553 E42.08821
G1 X76.780 Y75.469 E42.10983
G1 X77.342 Y75.100 E42.14234
G1 X69.554 Y82.888 E42.67490
G1 X68.888 Y88.488 F7800.000
G1 F1200
