; generated by Slic3r Prusa Edition 1.41.0-beta+win64 on 2018-10-22 at 20:48:04

; 

; external perimeters extrusion width = 0.45mm
; perimeters extrusion width = 0.45mm
; infill extrusion width = 0.45mm
; solid infill extrusion width = 0.45mm
; top infill extrusion width = 0.40mm
; first layer extrusion width = 0.80mm

M107
M104 S210 ; set temperature
G28 ; home all axes
G1 Z5 F5000 ; lift nozzle
; Filament gcode
M109 S210 ; set temperature and wait for it to be reached
G21 ; set units to millimeters
G90 ; use absolute coordinates
M82 ; use absolute distances for extrusion
G92 E0
G1 Z0.400 F7800.000
G1 E-2.00000 F1800.00000
G92 E0
G1 X65.547 Y64.416 F7800.000
G1 E2.00000 F1800.00000
G1 X67.245 Y63.010 E2.26182
G1 X68.829 Y62.062 E2.48100
G1 X69.612 Y61.694 E2.58375
G1 X71.353 Y61.058 E2.80389
G1 X73.096 Y60.690 E3.01544
G1 X73.911 Y60.585 E3.11303
G1 X75.543 Y60.533 E3.30703
G1 X78.260 Y60.875 E3.63217
G1 X80.140 Y61.457 E3.86597
G1 X80.965 Y61.809 E3.97241
G1 X82.712 Y62.762 E4.20885
G1 X84.276 Y63.958 E4.44265
G1 X84.934 Y64.566 E4.54909
G1 X86.190 Y65.994 E4.77492
G1 X87.569 Y68.212 E5.08507
G1 X88.272 Y69.910 E5.30332
G1 X88.529 Y70.788 E5.41198
G1 X88.672 Y72.023 E5.55970
G1 X88.638 Y77.296 E6.18598
G1 X88.485 Y78.167 E6.29094
G1 X88.210 Y79.013 E6.39665
G1 X87.256 Y81.114 E6.67068
G1 X86.758 Y81.955 E6.78671
G1 X85.037 Y84.094 E7.11283
G1 X81.679 Y87.581 E7.68772
G1 X80.981 Y88.191 E7.79785
G1 X79.606 Y88.978 E7.98601
G1 X78.079 Y89.400 E8.17416
G1 X77.197 Y89.466 E8.27913
G1 X72.496 Y89.432 E8.83750
G1 X71.589 Y89.269 E8.94690
G1 X70.710 Y88.975 E9.05703
G1 X69.888 Y88.559 E9.16642
G1 X69.130 Y88.025 E9.27655
G1 X65.235 Y84.046 E9.93786
G1 X63.772 Y82.274 E10.21077
G1 X62.576 Y80.181 E10.49702
G1 X61.758 Y77.900 E10.78486
G1 X61.353 Y75.546 E11.06851
G1 X61.362 Y73.131 E11.35539
G1 X61.736 Y70.951 E11.61803
G1 X62.560 Y68.621 E11.91153
G1 X63.741 Y66.535 E12.19624
G1 X64.929 Y65.047 E12.42236
G1 X65.505 Y64.458 E12.52020
; PURGING FINISHED
G1 E10.52020
G92 E0
G1 X78.686 Y78.753 F7800.000
G1 E2.00000 F1800.00000
G1 X77.945 Y79.306 E2.10986
G1 X74.990 Y80.530 E2.48973
G1 X74.990 Y80.333 E2.51312
G1 X72.786 Y79.524 E2.79192
G1 X71.945 Y79.044 E2.90687
G1 X71.177 Y78.407 E3.02544
G1 X70.522 Y77.632 E3.14592
G1 X70.017 Y76.752 E3.26640
G1 X69.680 Y75.812 E3.38497
G1 X69.516 Y74.859 E3.49992
G1 X69.513 Y73.937 E3.60931
G1 X69.660 Y73.028 E3.71871
G1 X69.971 Y72.112 E3.83366
G1 X70.450 Y71.236 E3.95223
G1 X71.087 Y70.446 E4.07271
G1 X71.854 Y69.782 E4.19319
G1 X72.713 Y69.273 E4.31177
G1 X73.618 Y68.930 E4.42671
G1 X74.522 Y68.752 E4.53611
G1 X75.442 Y68.723 E4.64550
G1 X76.356 Y68.848 E4.75507
G1 X77.357 Y69.160 E4.87964
G1 X78.249 Y69.632 E4.99941
G1 X78.735 Y70.014 E5.07287
G1 X78.635 Y70.303 E5.10912
G1 X75.987 Y70.303 E5.42359
G1 X75.987 Y78.459 E6.39231
G1 X78.588 Y78.459 E6.70121
G1 X78.667 Y78.696 E6.73081
G1 E4.73081
G92 E0
G1 X79.095 Y78.454 F7800.000
G1 X76.816 Y79.091
G1 X75.190 Y79.029
G1 X73.737 Y77.477
G1 X72.864 Y75.437
G1 X72.751 Y74.577
G1 X72.852 Y73.378
G1 X73.142 Y72.431
G1 X73.848 Y71.131
G1 X76.816 Y71.131
G1 X76.702 Y71.017
G1 E2.00000 F1800.00000
G1 X76.702 Y77.745 E2.79909
G1 X80.573 Y77.745 E3.25882
G1 X79.591 Y78.968 E3.44501
G1 X78.301 Y79.932 E3.63635
G1 X76.047 Y80.865 E3.92601
G1 X76.047 Y81.995 E4.06027
G1 X74.275 Y81.995 E4.27069
G1 X74.275 Y80.831 E4.40891
G1 X72.483 Y80.174 E4.63560
G1 X71.537 Y79.634 E4.76502
G1 X70.672 Y78.916 E4.89853
G1 X69.935 Y78.043 E5.03418
G1 X69.366 Y77.053 E5.16983
G1 X68.987 Y75.995 E5.30334
G1 X68.802 Y74.921 E5.43277
G1 X68.799 Y73.881 E5.55622
G1 X68.964 Y72.855 E5.67966
G1 X69.315 Y71.823 E5.80909
G1 X69.854 Y70.837 E5.94260
G1 X70.571 Y69.948 E6.07825
G1 X71.435 Y69.201 E6.21390
G1 X72.402 Y68.627 E6.34741
G1 X73.421 Y68.241 E6.47684
G1 X74.441 Y68.040 E6.60028
G1 X75.480 Y68.007 E6.72373
G1 X76.512 Y68.148 E6.84750
G1 X77.633 Y68.498 E6.98701
G1 X78.640 Y69.031 E7.12223
G1 X79.538 Y69.737 E7.25788
G1 X80.285 Y70.577 E7.39139
G1 X80.557 Y71.017 E7.45286
G1 X76.762 Y71.017 E7.90361
G1 X77.416 Y71.731 F7800.000
G1 F1800
G1 X77.416 Y77.031 E8.53307
G1 X81.694 Y77.031 E9.04119
G1 X81.213 Y78.089 E9.17920
G1 X80.091 Y79.486 E9.39194
G1 X78.656 Y80.558 E9.60468
G1 X76.761 Y81.342 E9.84828
G1 X76.761 Y82.709 E10.01067
G1 X73.561 Y82.709 E10.39072
G1 X73.561 Y81.330 E10.55453
G1 X72.181 Y80.824 E10.72909
G1 X71.129 Y80.223 E10.87300
G1 X70.167 Y79.425 E11.02145
G1 X69.348 Y78.455 E11.17227
G1 X68.715 Y77.354 E11.32309
G1 X68.294 Y76.177 E11.47153
G1 X68.088 Y74.983 E11.61544
G1 X68.084 Y73.825 E11.75294
G1 X68.269 Y72.682 E11.89043
G1 X68.658 Y71.535 E12.03434
G1 X69.258 Y70.438 E12.18279
G1 X70.055 Y69.450 E12.33361
G1 X71.016 Y68.619 E12.48443
G1 X72.091 Y67.981 E12.63288
G1 X73.224 Y67.552 E12.77679
G1 X74.360 Y67.328 E12.91428
G1 X75.517 Y67.291 E13.05178
G1 X76.668 Y67.449 E13.18976
G1 X77.909 Y67.836 E13.34420
G1 X79.030 Y68.430 E13.49486
G1 X80.029 Y69.214 E13.64569
G1 X80.860 Y70.148 E13.79413
G1 X81.497 Y71.179 E13.93804
G1 X81.721 Y71.731 E14.00881
G1 X77.476 Y71.731 E14.51302
G1 X77.016 Y71.749 F7800.000
G1 X77.836 Y69.818
G1 F1800
G1 X77.016 Y69.693 E14.58464
G1 X76.196 Y69.568 E14.67589
G1 X75.630 Y69.529 E14.73822
G1 X75.773 Y70.745 F7800.000
G1 F1800
G1 X74.358 Y69.330 E14.98386
G1 X73.766 Y69.447 E15.05804
G1 X73.523 Y69.539 E15.08985
G1 X75.452 Y71.467 E15.42470
G1 X75.452 Y72.511 E15.55286
G1 X72.790 Y69.850 E16.01495
G1 X72.140 Y70.243 E16.10827
G1 X75.452 Y73.555 E16.68327
G1 X75.452 Y74.599 E16.81143
G1 X71.580 Y70.728 E17.48360
G1 X71.474 Y70.820 E17.50088
G1 X71.096 Y71.288 E17.57469
G1 X75.452 Y75.643 E18.33085
G1 X75.452 Y76.687 E18.45901
G1 X70.686 Y71.921 E19.28645
G1 X70.463 Y72.328 E19.34338
G1 X70.358 Y72.637 E19.38350
G1 X75.452 Y77.731 E20.26784
G1 X75.452 Y78.429 E20.35349
G1 X75.177 Y78.483 E20.38785
G1 X75.182 Y78.505 E20.39053
G1 X70.133 Y73.456 E21.26699
G1 X70.049 Y73.979 E21.33203
G1 X70.050 Y74.417 E21.38579
G1 X75.409 Y79.776 E22.31616
G1 X75.230 Y79.850 E22.33996
G1 X73.981 Y79.392 E22.50326
G1 X69.793 Y75.204 E23.23039
G1 X70.219 Y76.674 F7800.000
G1 F1800
G1 X72.871 Y79.327 E23.69083
G1 E21.69083
G92 E0
G1 X75.881 Y79.276 F7800.000
G1 E2.00000 F1800.00000
G1 X76.389 Y79.175 E2.05795
G1 X76.897 Y79.074 E2.10339
G1 X77.405 Y78.973 E2.13632
G1 X77.913 Y78.872 E2.15674
G1 Z0.700 F7800.000
M104 S200 ; set temperature
; PURGING FINISHED
G1 X76.820 Y71.135
G1 F3600
G1 X76.820 Y77.627 E2.46900
G1 X80.818 Y77.627 E2.66134
G1 X79.674 Y79.053 E2.74928
G1 X78.359 Y80.035 E2.82820
G1 X76.165 Y80.944 E2.94242
G1 X76.165 Y82.113 E2.99868
G1 X74.157 Y82.113 E3.09523
G1 X74.157 Y80.914 E3.15292
G1 X72.434 Y80.281 E3.24124
G1 X71.470 Y79.731 E3.29462
G1 X70.588 Y79.000 E3.34969
G1 X69.838 Y78.111 E3.40563
G1 X69.259 Y77.103 E3.46158
G1 X68.872 Y76.025 E3.51665
G1 X68.684 Y74.931 E3.57003
G1 X68.681 Y73.872 E3.62096
G1 X68.850 Y72.827 E3.67190
G1 X69.206 Y71.776 E3.72528
G1 X69.756 Y70.771 E3.78035
G1 X70.486 Y69.866 E3.83629
G1 X71.366 Y69.105 E3.89224
G1 X72.350 Y68.520 E3.94731
G1 X73.388 Y68.127 E4.00069
G1 X74.427 Y67.922 E4.05162
G1 X75.486 Y67.889 E4.10256
G1 X76.585 Y68.039 E4.15594
G1 X77.676 Y68.387 E4.21101
G1 X78.704 Y68.932 E4.26695
G1 X79.619 Y69.650 E4.32290
G1 X80.380 Y70.506 E4.37797
G1 X80.768 Y71.135 E4.41353
G1 X76.880 Y71.135 E4.60057
G1 X77.205 Y71.520 F7800.000
G1 F3600
G1 X77.205 Y77.242 E4.87574
G1 X81.367 Y77.242 E5.07591
G1 X81.032 Y77.977 E5.11479
G1 X79.944 Y79.333 E5.19838
G1 X78.551 Y80.373 E5.28198
G1 X76.551 Y81.201 E5.38613
G1 X76.551 Y82.499 E5.44854
G1 X73.772 Y82.499 E5.58219
G1 X73.772 Y81.183 E5.64547
G1 X72.270 Y80.632 E5.72239
G1 X71.249 Y80.049 E5.77894
G1 X70.316 Y79.275 E5.83727
G1 X69.521 Y78.333 E5.89654
G1 X68.907 Y77.265 E5.95580
G1 X68.498 Y76.123 E6.01414
G1 X68.299 Y74.965 E6.07068
G1 X68.295 Y73.842 E6.12469
G1 X68.474 Y72.733 E6.17869
G1 X68.852 Y71.620 E6.23524
G1 X69.434 Y70.556 E6.29357
G1 X70.208 Y69.597 E6.35284
G1 X71.139 Y68.790 E6.41211
G1 X72.182 Y68.172 E6.47044
G1 X73.282 Y67.755 E6.52699
G1 X74.384 Y67.538 E6.58099
G1 X75.506 Y67.502 E6.63500
G1 X76.671 Y67.661 E6.69155
G1 X77.826 Y68.031 E6.74988
G1 X78.915 Y68.607 E6.80915
G1 X79.884 Y69.369 E6.86841
G1 X80.690 Y70.275 E6.92674
G1 X81.308 Y71.275 E6.98329
G1 X81.408 Y71.520 E6.99605
G1 X77.265 Y71.520 E7.19531
G1 X77.591 Y71.906 F7800.000
G1 F1800
G1 X77.591 Y76.856 E7.43339
G1 X81.966 Y76.856 E7.64383
G1 X81.363 Y78.181 E7.71386
G1 X80.214 Y79.613 E7.80213
G1 X78.743 Y80.711 E7.89041
G1 X76.936 Y81.459 E7.98449
G1 X76.936 Y82.884 E8.05304
G1 X73.386 Y82.884 E8.22379
G1 X73.386 Y81.452 E8.29267
G1 X72.107 Y80.983 E8.35818
G1 X71.029 Y80.368 E8.41790
G1 X70.043 Y79.550 E8.47950
G1 X69.204 Y78.556 E8.54208
G1 X68.556 Y77.427 E8.60467
G1 X68.124 Y76.222 E8.66627
G1 X67.913 Y74.998 E8.72598
G1 X67.909 Y73.811 E8.78306
G1 X68.098 Y72.640 E8.84013
G1 X68.498 Y71.464 E8.89985
G1 X69.112 Y70.341 E8.96145
G1 X69.929 Y69.328 E9.02403
G1 X70.913 Y68.476 E9.08662
G1 X72.014 Y67.823 E9.14822
G1 X73.176 Y67.383 E9.20793
G1 X74.340 Y67.153 E9.26501
G1 X75.526 Y67.116 E9.32208
G1 X76.756 Y67.284 E9.38180
G1 X77.976 Y67.674 E9.44340
G1 X79.126 Y68.283 E9.50598
G1 X80.149 Y69.087 E9.56857
G1 X81.001 Y70.043 E9.63016
G1 X81.653 Y71.100 E9.68988
G1 X81.981 Y71.906 E9.73176
G1 X77.651 Y71.906 E9.94004
G1 X77.192 Y71.932 F7800.000
G1 X79.617 Y71.019
G1 F1200
G1 X80.057 Y70.579 E9.97018
G1 X79.799 Y70.288 E9.98897
G1 X79.242 Y70.846 E10.02709
G1 X78.693 Y70.846 E10.05363
G1 X79.541 Y69.998 E10.11161
G1 X79.420 Y69.862 E10.12043
G1 X79.257 Y69.734 E10.13046
G1 X78.145 Y70.846 E10.20652
G1 X77.596 Y70.846 E10.23306
G1 X78.950 Y69.492 E10.32563
G1 X78.642 Y69.251 E10.34453
G1 X77.048 Y70.846 E10.45362
G1 X76.530 Y70.846 E10.47866
G1 X76.530 Y71.363 E10.50370
G1 X70.030 Y77.864 E10.94844
G1 X70.076 Y77.945 E10.95294
G1 X70.269 Y78.173 E10.96741
G1 X76.530 Y71.912 E11.39578
G1 X76.530 Y72.460 E11.42232
G1 X70.520 Y78.471 E11.83352
G1 X70.771 Y78.768 E11.85235
G1 X76.530 Y73.009 E12.24638
G1 X76.530 Y73.557 E12.27292
G1 X71.067 Y79.021 E12.64672
G1 X71.366 Y79.270 E12.66557
G1 X76.530 Y74.106 E13.01886
G1 X76.530 Y74.654 E13.04540
G1 X71.671 Y79.513 E13.37782
G1 X72.021 Y79.713 E13.39727
G1 X76.530 Y75.203 E13.70580
G1 X76.530 Y75.751 E13.73234
G1 X72.370 Y79.912 E14.01698
G1 X72.556 Y80.018 E14.02735
G1 X72.743 Y80.087 E14.03701
G1 X76.530 Y76.300 E14.29610
G1 X76.530 Y76.848 E14.32263
G1 X73.145 Y80.234 E14.55427
G1 X73.546 Y80.381 E14.57495
G1 X76.530 Y77.397 E14.77913
G1 X76.530 Y77.916 E14.80426
G1 X76.559 Y77.916 E14.80566
G1 X73.947 Y80.529 E14.98437
G1 X74.349 Y80.676 E15.00505
G1 X77.108 Y77.916 E15.19384
G1 X77.656 Y77.916 E15.22037
G1 X74.447 Y81.126 E15.43997
G1 X74.447 Y81.675 E15.46650
G1 X78.205 Y77.916 E15.72363
G1 X78.753 Y77.916 E15.75016
G1 X74.672 Y81.998 E16.02937
G1 X75.221 Y81.998 F7800.000
G1 F1200
G1 X76.049 Y81.169 E16.08605
G1 X76.566 Y80.652 F7800.000
G1 F1200
G1 X79.302 Y77.916 E16.27323
G1 X79.851 Y77.916 E16.29977
G1 X77.502 Y80.265 E16.46044
G1 X69.702 Y77.643 F7800.000
G1 F1200
G1 X78.300 Y69.045 E17.04865
G1 X77.941 Y68.855 E17.06828
G1 X69.629 Y77.167 E17.63695
G1 X69.522 Y76.981 E17.64735
G1 X69.455 Y76.793 E17.65700
G1 X77.583 Y68.665 E18.21306
G1 X77.167 Y68.532 E18.23416
G1 X69.310 Y76.389 E18.77171
G1 X69.166 Y75.985 E18.79246
G1 X76.749 Y68.402 E19.31127
G1 X76.469 Y68.315 E19.32546
G1 X76.309 Y68.293 E19.33326
G1 X69.080 Y75.523 E19.82787
G1 X68.999 Y75.055 E19.85085
G1 X75.827 Y68.227 E20.31795
G1 X75.471 Y68.179 E20.33534
G1 X75.322 Y68.183 E20.34253
G1 X68.972 Y74.533 E20.77695
G1 X68.970 Y73.986 E20.80340
G1 X74.756 Y68.201 E21.19920
G1 X74.460 Y68.211 E21.21351
G1 X74.133 Y68.275 E21.22962
G1 X69.058 Y73.350 E21.57685
G1 X69.131 Y72.897 E21.59909
G1 X69.218 Y72.642 E21.61208
G1 X73.445 Y68.415 E21.90128
G1 X72.562 Y68.749 E21.94694
G1 X69.222 Y72.089 E22.17544
G1 X69.763 Y71.000 F7800.000
G1 F1200
G1 X71.754 Y69.009 E22.31169
G1 Z1.000 F7800.000
; PURGING FINISHED
G1 X76.820 Y71.135
G1 F3600
G1 X76.820 Y77.627 E22.62396
G1 X80.818 Y77.627 E22.81629
G1 X79.674 Y79.053 E22.90424
G1 X78.359 Y80.035 E22.98316
G1 X76.165 Y80.944 E23.09738
G1 X76.165 Y82.113 E23.15363
G1 X74.157 Y82.113 E23.25019
G1 X74.157 Y80.914 E23.30788
G1 X72.434 Y80.281 E23.39619
G1 X71.470 Y79.731 E23.44957
G1 X70.588 Y79.000 E23.50464
G1 X69.838 Y78.111 E23.56059
G1 X69.259 Y77.103 E23.61654
G1 X68.872 Y76.025 E23.67161
G1 X68.684 Y74.931 E23.72499
G1 X68.681 Y73.872 E23.77592
G1 X68.850 Y72.827 E23.82685
G1 X69.206 Y71.776 E23.88023
G1 X69.756 Y70.771 E23.93530
G1 X70.486 Y69.866 E23.99125
G1 X71.366 Y69.105 E24.04720
G1 X72.350 Y68.520 E24.10227
G1 X73.388 Y68.127 E24.15565
G1 X74.427 Y67.922 E24.20658
G1 X75.486 Y67.889 E24.25751
G1 X76.585 Y68.039 E24.31089
G1 X77.676 Y68.387 E24.36596
G1 X78.704 Y68.932 E24.42191
G1 X79.619 Y69.650 E24.47786
G1 X80.380 Y70.506 E24.53293
G1 X80.768 Y71.135 E24.56849
G1 X76.880 Y71.135 E24.75553
G1 X77.205 Y71.520 F7800.000
G1 F3600
G1 X77.205 Y77.242 E25.03070
G1 X81.367 Y77.242 E25.23086
G1 X81.032 Y77.977 E25.26974
G1 X79.944 Y79.333 E25.35334
G1 X78.551 Y80.373 E25.43694
G1 X76.551 Y81.201 E25.54109
G1 X76.551 Y82.499 E25.60349
G1 X73.772 Y82.499 E25.73714
G1 X73.772 Y81.183 E25.80043
G1 X72.270 Y80.632 E25.87734
G1 X71.249 Y80.049 E25.93389
G1 X70.316 Y79.275 E25.99223
G1 X69.521 Y78.333 E26.05149
G1 X68.907 Y77.265 E26.11076
G1 X68.498 Y76.123 E26.16909
G1 X68.299 Y74.965 E26.22564
G1 X68.295 Y73.842 E26.27965
G1 X68.474 Y72.733 E26.33365
G1 X68.852 Y71.620 E26.39020
G1 X69.434 Y70.556 E26.44853
G1 X70.208 Y69.597 E26.50780
G1 X71.139 Y68.790 E26.56706
G1 X72.182 Y68.172 E26.62540
G1 X73.282 Y67.755 E26.68195
G1 X74.384 Y67.538 E26.73595
G1 X75.506 Y67.502 E26.78995
G1 X76.671 Y67.661 E26.84650
G1 X77.826 Y68.031 E26.90484
G1 X78.915 Y68.607 E26.96410
G1 X79.884 Y69.369 E27.02337
G1 X80.690 Y70.275 E27.08170
G1 X81.308 Y71.275 E27.13825
G1 X81.408 Y71.520 E27.15100
G1 X77.265 Y71.520 E27.35027
G1 X77.591 Y71.906 F7800.000
G1 F1800
G1 X77.591 Y76.856 E27.58835
G1 X81.966 Y76.856 E27.79878
G1 X81.363 Y78.181 E27.86881
G1 X80.214 Y79.613 E27.95709
G1 X78.743 Y80.711 E28.04537
G1 X76.936 Y81.459 E28.13944
G1 X76.936 Y82.884 E28.20800
G1 X73.386 Y82.884 E28.37874
G1 X73.386 Y81.452 E28.44762
G1 X72.107 Y80.983 E28.51314
G1 X71.029 Y80.368 E28.57286
G1 X70.043 Y79.550 E28.63446
G1 X69.204 Y78.556 E28.69704
G1 X68.556 Y77.427 E28.75962
G1 X68.124 Y76.222 E28.82122
G1 X67.913 Y74.998 E28.88094
G1 X67.909 Y73.811 E28.93801
G1 X68.098 Y72.640 E28.99509
G1 X68.498 Y71.464 E29.05481
G1 X69.112 Y70.341 E29.11641
G1 X69.929 Y69.328 E29.17899
G1 X70.913 Y68.476 E29.24157
G1 X72.014 Y67.823 E29.30317
G1 X73.176 Y67.383 E29.36289
G1 X74.340 Y67.153 E29.41996
G1 X75.526 Y67.116 E29.47704
G1 X76.756 Y67.284 E29.53676
G1 X77.976 Y67.674 E29.59835
G1 X79.126 Y68.283 E29.66094
G1 X80.149 Y69.087 E29.72352
G1 X81.001 Y70.043 E29.78512
G1 X81.653 Y71.100 E29.84484
G1 X81.981 Y71.906 E29.88671
G1 X77.651 Y71.906 E30.09500
G1 X77.192 Y71.932 F7800.000
G1 X80.027 Y71.019
G1 F1200
G1 X77.776 Y68.768 E30.24908
G1 X77.563 Y68.655 E30.26072
G1 X76.904 Y68.444 E30.29421
G1 X79.305 Y70.846 E30.45854
G1 X78.757 Y70.846 E30.48509
G1 X76.188 Y68.277 E30.66090
G1 X75.552 Y68.190 E30.69193
G1 X78.208 Y70.846 E30.87368
G1 X77.659 Y70.846 E30.90023
G1 X75.007 Y68.193 E31.08174
G1 X74.475 Y68.210 E31.10749
G1 X77.111 Y70.846 E31.28786
G1 X76.562 Y70.846 E31.31441
G1 X74.015 Y68.298 E31.48873
G1 X73.556 Y68.389 E31.51133
G1 X76.530 Y71.363 E31.71485
G1 X76.530 Y71.911 E31.74140
G1 X73.147 Y68.528 E31.97295
G1 X72.749 Y68.679 E31.99354
G1 X76.530 Y72.460 E32.25232
G1 X76.530 Y73.009 E32.27887
G1 X72.368 Y68.846 E32.56374
G1 X72.023 Y69.051 E32.58311
G1 X76.530 Y73.557 E32.89154
G1 X76.530 Y74.106 E32.91809
G1 X71.679 Y69.255 E33.25008
G1 X71.535 Y69.340 E33.25816
G1 X71.364 Y69.488 E33.26914
G1 X76.530 Y74.655 E33.62269
G1 X76.530 Y75.203 E33.64925
G1 X71.070 Y69.743 E34.02293
G1 X70.776 Y69.997 E34.04176
G1 X76.530 Y75.752 E34.43558
G1 X76.530 Y76.301 E34.46213
G1 X70.517 Y70.288 E34.87363
