; generated by Slic3r Prusa Edition 1.39.1-alpha-prusa3d-win64 on 2018-04-15 at 22:04:27

; 

; external perimeters extrusion width = 0.45mm
; perimeters extrusion width = 0.45mm
; infill extrusion width = 0.45mm
; solid infill extrusion width = 0.45mm
; top infill extrusion width = 0.40mm
; first layer extrusion width = 0.80mm

M107
M104 S200 ; set temperature
G28 ; home all axes
G1 Z5 F5000 ; lift nozzle
; Filament gcode
M109 S200 ; set temperature and wait for it to be reached
G21 ; set units to millimeters
G90 ; use absolute coordinates
M82 ; use absolute distances for extrusion
G92 E0
G1 Z0.400 F7800.000
G1 E-2.00000 F1800.00000
G92 E0
G1 X57.843 Y64.700 F7800.000
G1 E2.00000 F1800.00000
G1 F1800
G1 X58.872 Y63.705 E2.16998
G1 X59.725 Y63.139 E2.29151
G1 X60.659 Y62.707 E2.41379
G1 X61.643 Y62.424 E2.53532
G1 X62.658 Y62.295 E2.65685
G1 X87.006 Y62.286 E5.54863
G1 X88.172 Y62.389 E5.68758
G1 X89.308 Y62.695 E5.82730
G1 X90.367 Y63.191 E5.96625
G1 X91.329 Y63.868 E6.10597
G1 X92.155 Y64.698 E6.24492
G1 X92.826 Y65.663 E6.38463
G1 X93.317 Y66.725 E6.52359
G1 X93.617 Y67.863 E6.66330
G1 X93.714 Y68.984 E6.79695
G1 X93.714 Y81.032 E8.22784
G1 X93.654 Y81.900 E8.33116
G1 X93.356 Y83.163 E8.48526
G1 X92.822 Y84.345 E8.63936
G1 X92.069 Y85.402 E8.79345
G1 X91.128 Y86.295 E8.94755
G1 X90.275 Y86.861 E9.06908
G1 X89.341 Y87.293 E9.19136
G1 X88.357 Y87.576 E9.31289
G1 X87.336 Y87.706 E9.43518
G1 X62.763 Y87.710 E12.35356
G1 X61.315 Y87.499 E12.52732
G1 X59.948 Y86.980 E12.70108
G1 X58.725 Y86.177 E12.87484
G1 X57.705 Y85.128 E13.04860
G1 X57.167 Y84.326 E13.16330
G1 X56.751 Y83.454 E13.27801
G1 X56.463 Y82.532 E13.39271
G1 X56.310 Y81.572 E13.50817
G1 X56.296 Y68.635 E15.04463
G1 X56.525 Y67.223 E15.21461
G1 X57.049 Y65.891 E15.38459
G1 X57.810 Y64.750 E15.54745
G1 E13.54745 F1800.00000
G92 E0
G1 X85.172 Y79.172 F7800.000
G1 E2.00000 F1800.00000
G1 F1800
G1 X64.828 Y79.172 E4.41608
G1 X64.828 Y70.828 E5.40698
G1 X85.172 Y70.828 E7.82307
G1 X85.172 Y79.112 E8.80684
G1 X85.886 Y79.886 F7800.000
G1 F1800
G1 X64.114 Y79.886 E11.39256
G1 X64.114 Y70.114 E12.55310
G1 X85.886 Y70.114 E15.13881
G1 X85.886 Y79.826 E16.29222
G1 X86.600 Y80.600 F7800.000
G1 F1800
G1 X63.400 Y80.600 E19.04757
G1 X63.400 Y69.400 E20.37774
G1 X86.600 Y69.400 E23.13310
G1 X86.600 Y80.540 E24.45614
G1 X86.204 Y80.540 F7800.000
G1 E22.45614 F1800.00000
G92 E0
G1 X84.957 Y72.525 F7800.000
G1 E2.00000 F1800.00000
G1 F1800
G1 X83.796 Y71.364 E2.20009
G1 X82.760 Y71.364 E2.32630
G1 X84.636 Y73.240 E2.64952
G1 X84.636 Y74.276 E2.77573
G1 X81.724 Y71.364 E3.27744
G1 X80.688 Y71.364 E3.40366
G1 X84.636 Y75.312 E4.08387
G1 X84.636 Y76.348 E4.21009
G1 X79.652 Y71.364 E5.06879
G1 X78.616 Y71.364 E5.19501
G1 X84.636 Y77.384 E6.23222
G1 X84.636 Y78.420 E6.35843
G1 X77.580 Y71.364 E7.57414
G1 X76.544 Y71.364 E7.70035
G1 X83.816 Y78.636 E8.95329
G1 X82.780 Y78.636 E9.07950
G1 X75.508 Y71.364 E10.33243
G1 X74.472 Y71.364 E10.45865
G1 X81.744 Y78.636 E11.71158
G1 X80.708 Y78.636 E11.83780
G1 X73.436 Y71.364 E13.09073
G1 X72.400 Y71.364 E13.21695
G1 X79.672 Y78.636 E14.46988
G1 X78.636 Y78.636 E14.59610
G1 X71.364 Y71.364 E15.84903
G1 X70.328 Y71.364 E15.97525
G1 X77.600 Y78.636 E17.22818
G1 X76.564 Y78.636 E17.35439
G1 X69.292 Y71.364 E18.60733
G1 X68.256 Y71.364 E18.73354
G1 X75.528 Y78.636 E19.98647
G1 X74.492 Y78.636 E20.11269
G1 X67.220 Y71.364 E21.36562
G1 X66.184 Y71.364 E21.49184
G1 X73.456 Y78.636 E22.74477
G1 X72.420 Y78.636 E22.87099
G1 X65.364 Y71.580 E24.08667
G1 X65.364 Y72.616 E24.21289
G1 X71.384 Y78.636 E25.25007
G1 X70.348 Y78.636 E25.37629
G1 X65.364 Y73.652 E26.23498
G1 X65.364 Y74.688 E26.36120
G1 X69.312 Y78.636 E27.04138
G1 X68.276 Y78.636 E27.16760
G1 X65.364 Y75.724 E27.66929
G1 X65.364 Y76.760 E27.79551
G1 X67.240 Y78.636 E28.11870
G1 X66.204 Y78.636 E28.24492
G1 X65.043 Y77.475 E28.44499
G1 Z0.700 F7800.000
G1 X86.004 Y80.004 F7800.000
G1 F3600
G1 X63.996 Y80.004 E29.50347
G1 X63.996 Y69.996 E29.98480
G1 X86.004 Y69.996 E31.04329
G1 X86.004 Y79.944 E31.52173
G1 X86.389 Y80.389 F7800.000
G1 F3600
G1 X63.611 Y80.389 E32.61731
G1 X63.611 Y69.611 E33.13573
G1 X86.389 Y69.611 E34.23131
G1 X86.389 Y80.329 E34.74685
G1 X86.775 Y80.775 F7800.000
G1 F1800
G1 X63.225 Y80.775 E35.87952
G1 X63.225 Y69.225 E36.43504
G1 X86.775 Y69.225 E37.56771
G1 X86.775 Y80.715 E38.12034
G1 X86.380 Y80.714 F7800.000
G1 X85.094 Y79.888 F7800.000
G1 F1200
G1 X85.715 Y79.268 E38.16328
G1 X85.715 Y78.713 E38.19043
G1 X84.713 Y79.715 E38.25976
G1 X84.158 Y79.715 E38.28692
G1 X85.715 Y78.158 E38.39465
G1 X85.715 Y77.603 E38.42181
G1 X83.603 Y79.715 E38.56795
G1 X83.048 Y79.715 E38.59511
G1 X85.715 Y77.048 E38.77965
G1 X85.715 Y76.493 E38.80681
G1 X82.493 Y79.715 E39.02976
G1 X81.938 Y79.715 E39.05692
G1 X85.715 Y75.938 E39.31827
G1 X85.715 Y75.383 E39.34543
G1 X81.383 Y79.715 E39.64519
G1 X80.829 Y79.715 E39.67235
G1 X85.715 Y74.829 E40.01051
G1 X85.715 Y74.274 E40.03767
G1 X80.274 Y79.715 E40.41424
G1 X79.719 Y79.715 E40.44140
G1 X85.715 Y73.719 E40.85637
G1 X85.715 Y73.164 E40.88353
G1 X79.164 Y79.715 E41.33691
G1 X78.609 Y79.715 E41.36407
G1 X85.715 Y72.609 E41.85586
G1 X85.715 Y72.054 E41.88301
G1 X78.054 Y79.715 E42.41321
G1 X77.499 Y79.715 E42.44036
G1 X85.715 Y71.499 E43.00896
G1 X85.715 Y70.944 E43.03612
G1 X76.944 Y79.715 E43.64312
G1 X76.389 Y79.715 E43.67028
G1 X85.715 Y70.389 E44.31568
G1 X85.715 Y70.285 E44.32077
G1 X85.264 Y70.285 E44.34284
G1 X75.834 Y79.715 E44.99544
G1 X75.279 Y79.715 E45.02260
G1 X84.709 Y70.285 E45.67519
G1 X84.154 Y70.285 E45.70235
G1 X74.725 Y79.715 E46.35495
G1 X74.170 Y79.715 E46.38210
G1 X83.599 Y70.285 E47.03470
G1 X83.044 Y70.285 E47.06186
G1 X73.615 Y79.715 E47.71446
G1 X73.060 Y79.715 E47.74161
G1 X82.489 Y70.285 E48.39421
G1 X81.934 Y70.285 E48.42137
G1 X72.505 Y79.715 E49.07396
G1 X71.950 Y79.715 E49.10112
G1 X81.379 Y70.285 E49.75372
G1 X80.824 Y70.285 E49.78088
G1 X71.395 Y79.715 E50.43347
G1 X70.840 Y79.715 E50.46063
G1 X80.269 Y70.285 E51.11323
G1 X79.715 Y70.285 E51.14038
G1 X70.285 Y79.715 E51.79298
G1 X69.730 Y79.715 E51.82014
G1 X79.160 Y70.285 E52.47274
G1 X78.605 Y70.285 E52.49989
G1 X69.176 Y79.715 E53.15249
G1 X68.621 Y79.715 E53.17965
G1 X78.050 Y70.285 E53.83224
G1 X77.495 Y70.285 E53.85940
G1 X68.066 Y79.715 E54.51200
G1 X67.511 Y79.715 E54.53916
G1 X76.940 Y70.285 E55.19175
G1 X76.385 Y70.285 E55.21891
G1 X66.956 Y79.715 E55.87151
G1 X66.401 Y79.715 E55.89867
G1 X75.830 Y70.285 E56.55126
G1 X75.275 Y70.285 E56.57842
G1 X65.846 Y79.715 E57.23102
G1 X65.291 Y79.715 E57.25817
G1 X74.720 Y70.285 E57.91077
G1 X74.165 Y70.285 E57.93793
G1 X64.736 Y79.715 E58.59053
G1 X64.285 Y79.715 E58.61259
G1 X64.285 Y79.611 E58.61768
G1 X73.611 Y70.285 E59.26308
G1 X73.056 Y70.285 E59.29024
G1 X64.285 Y79.056 E59.89723
G1 X64.285 Y78.501 E59.92439
G1 X72.501 Y70.285 E60.49298
G1 X71.946 Y70.285 E60.52013
G1 X64.285 Y77.946 E61.05032
G1 X64.285 Y77.391 E61.07747
G1 X71.391 Y70.285 E61.56925
G1 X70.836 Y70.285 E61.59641
G1 X64.285 Y76.836 E62.04978
G1 X64.285 Y76.281 E62.07694
G1 X70.281 Y70.285 E62.49191
G1 X69.726 Y70.285 E62.51906
G1 X64.285 Y75.726 E62.89562
G1 X64.285 Y75.171 E62.92278
G1 X69.171 Y70.285 E63.26094
G1 X68.616 Y70.285 E63.28810
G1 X64.285 Y74.616 E63.58785
G1 X64.285 Y74.062 E63.61500
G1 X68.062 Y70.285 E63.87635
G1 X67.507 Y70.285 E63.90351
G1 X64.285 Y73.507 E64.12645
G1 X64.285 Y72.952 E64.15361
G1 X66.952 Y70.285 E64.33814
G1 X66.397 Y70.285 E64.36530
G1 X64.285 Y72.397 E64.51143
G1 X64.285 Y71.842 E64.53859
G1 X65.842 Y70.285 E64.64631
G1 X65.287 Y70.285 E64.67347
G1 X64.285 Y71.287 E64.74279
G1 X64.285 Y70.732 E64.76995
G1 X64.906 Y70.112 E64.81288
G1 Z1.000 F7800.000
G1 E62.81288 F1800.00000
G92 E0
G1 X86.004 Y80.004 F7800.000
G1 E2.00000 F1800.00000
G1 F3600
G1 X63.996 Y80.004 E3.05849
G1 X63.996 Y69.996 E3.53981
G1 X86.004 Y69.996 E4.59830
G1 X86.004 Y79.944 E5.07674
G1 X86.389 Y80.389 F7800.000
G1 F3600
G1 X63.611 Y80.389 E6.17232
G1 X63.611 Y69.611 E6.69075
G1 X86.389 Y69.611 E7.78633
G1 X86.389 Y80.329 E8.30186
G1 X86.775 Y80.775 F7800.000
G1 F1800
G1 X63.225 Y80.775 E9.43454
G1 X63.225 Y69.225 E9.99005
G1 X86.775 Y69.225 E11.12273
G1 X86.775 Y80.715 E11.67536
G1 X86.380 Y80.714 F7800.000
G1 E9.67536 F1800.00000
G92 E0
G1 X85.891 Y70.795 F7800.000
G1 E2.00000 F1800.00000
G1 F900
G1 X85.356 Y70.260 E2.03194
G1 X84.877 Y70.260 E2.05219
G1 X85.740 Y71.123 E2.10375
G1 X85.740 Y71.602 E2.12401
G1 X84.398 Y70.260 E2.20421
G1 X83.919 Y70.260 E2.22446
G1 X85.740 Y72.081 E2.33331
G1 X85.740 Y72.561 E2.35356
G1 X83.439 Y70.260 E2.49106
G1 X82.960 Y70.260 E2.51131
G1 X85.740 Y73.040 E2.67745
G1 X85.740 Y73.519 E2.69770
G1 X82.481 Y70.260 E2.89249
G1 X82.002 Y70.260 E2.91274
G1 X85.740 Y73.998 E3.13617
G1 X85.740 Y74.478 E3.15642
G1 X81.522 Y70.260 E3.40850
G1 X81.043 Y70.260 E3.42875
G1 X85.740 Y74.957 E3.70947
G1 X85.740 Y75.436 E3.72972
G1 X80.564 Y70.260 E4.03909
G1 X80.085 Y70.260 E4.05934
G1 X85.740 Y75.915 E4.39735
G1 X85.740 Y76.395 E4.41761
G1 X79.605 Y70.260 E4.78426
G1 X79.126 Y70.260 E4.80451
G1 X85.740 Y76.874 E5.19981
G1 X85.740 Y77.353 E5.22007
G1 X78.647 Y70.260 E5.64401
G1 X78.168 Y70.260 E5.66427
G1 X85.740 Y77.832 E6.11686
G1 X85.740 Y78.311 E6.13711
G1 X77.689 Y70.260 E6.61834
G1 X77.209 Y70.260 E6.63860
G1 X85.740 Y78.791 E7.14848
G1 X85.740 Y79.270 E7.16873
G1 X76.730 Y70.260 E7.70726
G1 X76.251 Y70.260 E7.72751
G1 X85.730 Y79.740 E8.29411
G1 X85.251 Y79.740 E8.31436
G1 X75.772 Y70.260 E8.88096
G1 X75.292 Y70.260 E8.90121
G1 X84.771 Y79.740 E9.46781
G1 X84.292 Y79.740 E9.48806
G1 X74.813 Y70.260 E10.05466
G1 X74.334 Y70.260 E10.07491
G1 X83.813 Y79.740 E10.64151
G1 X83.334 Y79.740 E10.66176
G1 X73.855 Y70.260 E11.22836
G1 X73.375 Y70.260 E11.24861
G1 X82.855 Y79.740 E11.81521
G1 X82.375 Y79.740 E11.83546
G1 X72.896 Y70.260 E12.40205
G1 X72.417 Y70.260 E12.42231
G1 X81.896 Y79.740 E12.98890
G1 X81.417 Y79.740 E13.00916
G1 X71.938 Y70.260 E13.57575
G1 X71.458 Y70.260 E13.59601
G1 X80.938 Y79.740 E14.16260
G1 X80.458 Y79.740 E14.18286
G1 X70.979 Y70.260 E14.74945
G1 X70.500 Y70.260 E14.76971
G1 X79.979 Y79.740 E15.33630
G1 X79.500 Y79.740 E15.35656
G1 X70.021 Y70.260 E15.92315
G1 X69.542 Y70.260 E15.94341
G1 X79.021 Y79.740 E16.51000
G1 X78.541 Y79.740 E16.53026
G1 X69.062 Y70.260 E17.09685
G1 X68.583 Y70.260 E17.11711
G1 X78.062 Y79.740 E17.68370
G1 X77.583 Y79.740 E17.70396
G1 X68.104 Y70.260 E18.27055
G1 X67.625 Y70.260 E18.29080
G1 X77.104 Y79.740 E18.85740
G1 X76.624 Y79.740 E18.87765
G1 X67.145 Y70.260 E19.44425
G1 X66.666 Y70.260 E19.46450
G1 X76.145 Y79.740 E20.03110
G1 X75.666 Y79.740 E20.05135
G1 X66.187 Y70.260 E20.61795
G1 X65.708 Y70.260 E20.63820
G1 X75.187 Y79.740 E21.20480
G1 X74.708 Y79.740 E21.22505
G1 X65.228 Y70.260 E21.79165
G1 X64.749 Y70.260 E21.81190
G1 X74.228 Y79.740 E22.37850
G1 X73.749 Y79.740 E22.39875
G1 X64.260 Y70.260 E22.96563
G1 X64.260 Y70.730 E22.98548
G1 X73.270 Y79.740 E23.52400
G1 X72.791 Y79.740 E23.54426
G1 X64.260 Y71.209 E24.05413
G1 X64.260 Y71.689 E24.07438
G1 X72.311 Y79.740 E24.55561
G1 X71.832 Y79.740 E24.57587
G1 X64.260 Y72.168 E25.02845
G1 X64.260 Y72.647 E25.04870
G1 X71.353 Y79.740 E25.47264
G1 X70.874 Y79.740 E25.49290
G1 X64.260 Y73.126 E25.88819
G1 X64.260 Y73.606 E25.90844
G1 X70.394 Y79.740 E26.27509
G1 X69.915 Y79.740 E26.29535
G1 X64.260 Y74.085 E26.63335
G1 X64.260 Y74.564 E26.65360
G1 X69.436 Y79.740 E26.96296
G1 X68.957 Y79.740 E26.98321
G1 X64.260 Y75.043 E27.26392
G1 X64.260 Y75.522 E27.28418
G1 X68.478 Y79.740 E27.53625
G1 X67.998 Y79.740 E27.55650
G1 X64.260 Y76.002 E27.77992
G1 X64.260 Y76.481 E27.80018
G1 X67.519 Y79.740 E27.99495
G1 X67.040 Y79.740 E28.01521
G1 X64.260 Y76.960 E28.18134
G1 X64.260 Y77.439 E28.20159
G1 X66.561 Y79.740 E28.33908
G1 X66.081 Y79.740 E28.35933
G1 X64.260 Y77.919 E28.46817
G1 X64.260 Y78.398 E28.48843
G1 X65.602 Y79.740 E28.56862
G1 X65.123 Y79.740 E28.58888
G1 X64.260 Y78.877 E28.64043
G1 X64.260 Y79.356 E28.66068
G1 X64.795 Y79.891 E28.69262
M106 S255
G1 Z1.300 F7800.000
G1 X64.389 Y79.389 F7800.000
G1 F900
G1 X63.611 Y79.389 E28.73007
G1 X63.611 Y76.611 E28.86372
G1 X64.389 Y76.611 E28.90118
G1 X64.389 Y79.329 E29.03194
G1 E27.03194 F1800.00000
G92 E0
G1 X85.611 Y79.389 F7800.000
G1 E2.00000 F1800.00000
G1 F900
G1 X85.611 Y76.611 E2.13365
G1 X86.389 Y76.611 E2.17110
G1 X86.389 Y79.389 E2.30475
G1 X85.671 Y79.389 E2.33932
G1 X86.225 Y79.775 F7800.000
G1 F1800
G1 X84.225 Y79.775 E2.43552
G1 X84.225 Y79.225 E2.46197
G1 X85.225 Y79.225 E2.51007
G1 X85.225 Y76.775 E2.62790
G1 X84.225 Y76.775 E2.67600
G1 X84.225 Y76.225 E2.70245
G1 X86.225 Y76.225 E2.79865
G1 X86.225 Y69.775 E3.10887
G1 X63.775 Y69.775 E4.18864
G1 X63.775 Y76.225 E4.49886
G1 X65.775 Y76.225 E4.59505
G1 X65.775 Y76.775 E4.62151
G1 X64.775 Y76.775 E4.66960
G1 X64.775 Y79.225 E4.78744
G1 X65.775 Y79.225 E4.83554
G1 X65.775 Y79.775 E4.86199
G1 X63.775 Y79.775 E4.95818
G1 X63.775 Y80.775 E5.00628
G1 X63.225 Y80.775 E5.03273
G1 X63.225 Y69.225 E5.58825
G1 X86.775 Y69.225 E6.72092
G1 X86.775 Y80.775 E7.27644
G1 X86.225 Y80.775 E7.30289
G1 X86.225 Y79.835 E7.34810
G1 X86.158 Y79.381 F7800.000
G1 X86.500 Y79.582 F7800.000
G1 F1200
G1 X86.500 Y80.582 E7.36057
G1 X86.000 Y79.197 F7800.000
G1 F1200
G1 X86.000 Y76.803 E7.45871
G1 X86.500 Y76.418 F7800.000
G1 F1200
G1 X86.500 Y69.582 E7.54396
G1 X86.486 Y69.514 E7.54483
G1 X86.418 Y69.500 E7.54570
G1 X63.582 Y69.500 E7.83052
G1 X63.514 Y69.514 E7.83139
G1 X63.500 Y69.582 E7.83226
G1 X63.500 Y76.418 E7.91752
G1 X64.000 Y76.803 F7800.000
G1 F1200
G1 X64.000 Y79.197 E8.01565
G1 X63.500 Y79.582 F7800.000
G1 F1200
G1 X63.500 Y80.582 E8.02812
G1 X64.582 Y79.500 F7800.000
G1 F1200
G1 X65.582 Y79.500 E8.04059
G1 E6.04059 F1800.00000
G92 E0
G1 X65.582 Y76.500 F7800.000
G1 E2.00000 F1800.00000
G1 F1200
G1 X64.582 Y76.500 E2.01247
G1 E0.01247 F1800.00000
G92 E0
G1 X84.418 Y76.500 F7800.000
G1 E2.00000 F1800.00000
G1 F1200
G1 X85.418 Y76.500 E2.01247
G1 X85.418 Y79.500 F7800.000
G1 F1200
G1 X84.418 Y79.500 E2.02495
G1 Z1.600 F7800.000
G1 E0.02495 F1800.00000
G92 E0
G1 X64.389 Y79.389 F7800.000
G1 E2.00000 F1800.00000
G1 F900
G1 X63.611 Y79.389 E2.03746
G1 X63.611 Y76.611 E2.17110
G1 X64.389 Y76.611 E2.20856
G1 X64.389 Y79.329 E2.33932
G1 E0.33932 F1800.00000
G92 E0
G1 X85.611 Y79.389 F7800.000
G1 E2.00000 F1800.00000
G1 F900
G1 X85.611 Y76.611 E2.13365
G1 X86.389 Y76.611 E2.17110
G1 X86.389 Y79.389 E2.30475
G1 X85.671 Y79.389 E2.33932
G1 X86.225 Y79.775 F7800.000
G1 F1800
G1 X84.225 Y79.775 E2.43552
G1 X84.225 Y79.225 E2.46197
G1 X85.225 Y79.225 E2.51007
G1 X85.225 Y76.775 E2.62790
G1 X84.225 Y76.775 E2.67600
G1 X84.225 Y76.225 E2.70245
G1 X86.225 Y76.225 E2.79865
G1 X86.225 Y69.775 E3.10887
G1 X63.775 Y69.775 E4.18864
G1 X63.775 Y76.225 E4.49886
G1 X65.775 Y76.225 E4.59505
G1 X65.775 Y76.775 E4.62151
G1 X64.775 Y76.775 E4.66960
G1 X64.775 Y79.225 E4.78744
G1 X65.775 Y79.225 E4.83554
G1 X65.775 Y79.775 E4.86199
G1 X63.775 Y79.775 E4.95818
G1 X63.775 Y80.775 E5.00628
G1 X63.225 Y80.775 E5.03273
G1 X63.225 Y69.225 E5.58825
G1 X86.775 Y69.225 E6.72092
G1 X86.775 Y80.775 E7.27644
G1 X86.225 Y80.775 E7.30289
G1 X86.225 Y79.835 E7.34810
G1 X86.158 Y79.381 F7800.000
G1 X86.500 Y79.582 F7800.000
G1 F1200
G1 X86.500 Y80.582 E7.36057
G1 X86.000 Y79.197 F7800.000
G1 F1200
G1 X86.000 Y76.803 E7.45871
G1 X86.500 Y76.418 F7800.000
G1 F1200
G1 X86.500 Y69.582 E7.54396
G1 X86.486 Y69.514 E7.54483
G1 X86.418 Y69.500 E7.54570
G1 X63.582 Y69.500 E7.83052
G1 X63.514 Y69.514 E7.83139
G1 X63.500 Y69.582 E7.83226
G1 X63.500 Y76.418 E7.91752
G1 X64.000 Y76.803 F7800.000
G1 F1200
G1 X64.000 Y79.197 E8.01565
G1 X63.500 Y79.582 F7800.000
G1 F1200
G1 X63.500 Y80.582 E8.02812
G1 X64.582 Y79.500 F7800.000
G1 F1200
G1 X65.582 Y79.500 E8.04059
G1 E6.04059 F1800.00000
G92 E0
G1 X65.582 Y76.500 F7800.000
G1 E2.00000 F1800.00000
G1 F1200
G1 X64.582 Y76.500 E2.01247
G1 E0.01247 F1800.00000
G92 E0
G1 X84.418 Y76.500 F7800.000
G1 E2.00000 F1800.00000
G1 F1200
G1 X85.418 Y76.500 E2.01247
G1 X85.418 Y79.500 F7800.000
G1 F1200
G1 X84.418 Y79.500 E2.02495
G1 Z1.900 F7800.000
G1 E0.02495 F1800.00000
G92 E0
