; generated by Slic3r Prusa Edition 1.41.0-beta+win64 on 2018-09-30 at 17:48:27

; 

; external perimeters extrusion width = 0.45mm
; perimeters extrusion width = 0.45mm
; infill extrusion width = 0.45mm
; solid infill extrusion width = 0.45mm
; top infill extrusion width = 0.40mm
; first layer extrusion width = 0.80mm

M107
M104 S210 ; set temperature
G28 ; home all axes
G1 Z5 F5000 ; lift nozzle
; Filament gcode
M109 S210 ; set temperature and wait for it to be reached
G21 ; set units to millimeters
G90 ; use absolute coordinates
M82 ; use absolute distances for extrusion
G92 E0
G1 Z0.400 F7800.000
G1 E-2.00000 F1800.00000
G92 E0
G1 X67.333 Y66.820 F7800.000
G1 E2.00000 F1800.00000
G1 X68.282 Y66.075 E2.14330
G1 X69.355 Y65.523 E2.28661
G1 X70.519 Y65.182 E2.43065
G1 X71.720 Y65.069 E2.57395
G1 X72.540 Y65.123 E2.67153
G1 X81.765 Y66.389 E3.77741
G1 X82.733 Y66.731 E3.89935
G1 X83.639 Y67.227 E4.02202
G1 X84.453 Y67.863 E4.14469
G1 X85.152 Y68.623 E4.26736
G1 X87.964 Y73.267 E4.91211
G1 X88.397 Y74.420 E5.05836
G1 X88.601 Y75.641 E5.20534
G1 X88.607 Y78.921 E5.59493
G1 X88.338 Y80.432 E5.77721
G1 X87.984 Y81.336 E5.89250
G1 X87.496 Y82.175 E6.00780
G1 X86.887 Y82.931 E6.12309
G1 X86.169 Y83.585 E6.23839
G1 X85.393 Y84.103 E6.34926
G1 X84.543 Y84.505 E6.46086
G1 X83.644 Y84.777 E6.57247
G1 X82.714 Y84.913 E6.68408
G1 X67.505 Y84.922 E8.49033
G1 X66.154 Y84.711 E8.65277
G1 X64.879 Y84.216 E8.81521
G1 X63.744 Y83.464 E8.97691
G1 X62.792 Y82.482 E9.13935
G1 X62.276 Y81.711 E9.24948
G1 X61.878 Y80.874 E9.35961
G1 X61.607 Y79.987 E9.46974
G1 X61.466 Y79.064 E9.58061
G1 X61.508 Y76.197 E9.92123
G1 X61.742 Y75.159 E10.04758
G1 X62.146 Y74.175 E10.17394
G1 X66.520 Y67.761 E11.09596
G1 X67.294 Y66.865 E11.23656
; PURGING FINISHED
G1 E9.23656
G92 E0
G1 X81.859 Y78.172 F7800.000
G1 E2.00000 F1800.00000
G1 X77.386 Y78.172 E2.53122
G1 X77.357 Y77.528 E2.60778
G1 X76.654 Y76.615 E2.74466
G1 X75.554 Y76.269 E2.88155
G1 X74.455 Y76.615 E3.01843
G1 X73.752 Y77.528 E3.15532
G1 X73.722 Y78.172 E3.23188
G1 X68.204 Y78.172 E3.88723
G1 X68.204 Y77.472 E3.97036
G1 X73.051 Y77.472 E4.54595
G1 X73.530 Y76.521 E4.67248
G1 X74.092 Y75.953 E4.76742
G1 X74.806 Y75.593 E4.86235
G1 X75.554 Y75.477 E4.95227
G1 X76.302 Y75.593 E5.04220
G1 X77.016 Y75.953 E5.13713
G1 X77.579 Y76.521 E5.23207
G1 X78.058 Y77.472 E5.35860
G1 X80.325 Y77.472 E5.62793
G1 X79.269 Y73.530 E6.11266
G1 X72.299 Y72.612 E6.94758
G1 X71.367 Y74.227 E7.16908
G1 X70.761 Y73.877 E7.25221
G1 X71.927 Y71.857 E7.52926
G1 X79.824 Y72.897 E8.47528
G1 X80.782 Y76.473 E8.91497
G1 X81.859 Y76.473 E9.04284
G1 X81.859 Y78.112 E9.23753
G1 X81.481 Y78.041 F7800.000
G1 E7.23753 F1800.00000
G92 E0
G1 X80.840 Y77.073 F7800.000
G1 X76.522 Y76.153
G1 E2.00000 F1800.00000
G1 X76.346 Y76.081 E2.00391
G1 X76.169 Y76.009 E2.00867
G1 X75.971 Y75.963 E2.01374
G1 X75.774 Y75.917 E2.01789
G1 X75.335 Y75.917 F7800.000
G1 F1800
G1 X75.137 Y75.963 E2.02205
G1 X74.940 Y76.009 E2.02711
G1 X74.763 Y76.081 E2.03188
G1 X74.586 Y76.153 E2.03579
G1 Z0.700 F7800.000
M104 S200 ; set temperature
; PURGING FINISHED
G1 E0.03579 F1800.00000
G92 E0
G1 X80.840 Y77.073 F7800.000
G1 X81.263 Y77.576
G1 E2.00000 F1800.00000
G1 F900
G1 X80.971 Y77.576 E2.01406
G1 X80.835 Y77.069 E2.03929
G1 X81.263 Y77.069 E2.05988
G1 X81.263 Y77.516 E2.08137
G1 X80.621 Y76.684 F7800.000
G1 F1659
G1 X81.648 Y76.684 E2.13079
G1 X81.648 Y77.962 E2.19226
G1 X77.587 Y77.962 E2.38759
G1 X77.564 Y77.452 E2.41211
G1 X76.780 Y76.434 E2.47392
G1 X75.554 Y76.048 E2.53573
G1 X74.328 Y76.434 E2.59754
G1 X73.545 Y77.452 E2.65935
G1 X73.521 Y77.962 E2.68387
G1 X68.415 Y77.962 E2.92947
G1 X68.415 Y77.683 E2.94288
G1 X73.180 Y77.683 E3.17208
G1 X73.703 Y76.645 E3.22796
G1 X74.218 Y76.125 E3.26315
G1 X74.871 Y75.796 E3.29835
G1 X75.554 Y75.690 E3.33159
G1 X76.237 Y75.796 E3.36484
G1 X76.891 Y76.125 E3.40003
G1 X77.406 Y76.645 E3.43523
G1 X77.928 Y77.683 E3.49110
G1 X80.600 Y77.683 E3.61962
G1 X79.436 Y73.339 E3.83589
G1 X72.187 Y72.385 E4.18755
G1 X71.290 Y73.940 E4.27389
G1 X71.048 Y73.800 E4.28729
G1 X72.039 Y72.084 E4.38259
G1 X79.657 Y73.087 E4.75217
G1 X80.605 Y76.626 E4.92835
G1 X80.917 Y76.298 F7800.000
G1 F1659
G1 X82.034 Y76.298 E4.98209
G1 X82.034 Y78.347 E5.08065
G1 X77.219 Y78.347 E5.31224
G1 X77.184 Y77.591 E5.34863
G1 X76.549 Y76.765 E5.39877
G1 X75.554 Y76.452 E5.44890
G1 X74.560 Y76.765 E5.49904
G1 X73.924 Y77.591 E5.54917
G1 X73.889 Y78.347 E5.58557
G1 X68.029 Y78.347 E5.86742
G1 X68.029 Y77.297 E5.91792
G1 X72.943 Y77.297 E6.15425
G1 X73.386 Y76.417 E6.20164
G1 X73.988 Y75.809 E6.24279
G1 X74.752 Y75.424 E6.28394
G1 X75.554 Y75.300 E6.32299
G1 X76.357 Y75.424 E6.36204
G1 X77.120 Y75.809 E6.40319
G1 X77.723 Y76.417 E6.44433
G1 X78.166 Y77.297 E6.49172
G1 X80.097 Y77.297 E6.58464
G1 X79.130 Y73.688 E6.76435
G1 X72.392 Y72.801 E7.09122
G1 X71.431 Y74.466 E7.18371
G1 X70.522 Y73.941 E7.23422
G1 X71.834 Y71.668 E7.36045
G1 X79.963 Y72.739 E7.75481
G1 X80.901 Y76.240 E7.92915
G1 X81.060 Y76.671 F7800.000
G1 Z1.000 F7800.000
; PURGING FINISHED
G1 X80.917 Y77.069
G1 F900
G1 X81.263 Y77.069 E7.94580
G1 X81.263 Y77.576 E7.97018
G1 X80.971 Y77.576 E7.98423
G1 X80.835 Y77.069 E8.00947
G1 X80.857 Y77.069 E8.01052
G1 X80.621 Y76.684 F7800.000
G1 F1610
G1 X81.648 Y76.684 E8.05995
G1 X81.648 Y77.962 E8.12142
G1 X77.587 Y77.962 E8.31674
G1 X77.564 Y77.452 E8.34126
G1 X76.794 Y76.452 E8.40196
G1 X75.558 Y76.047 E8.46453
G1 X74.328 Y76.434 E8.52654
G1 X73.545 Y77.452 E8.58835
G1 X73.521 Y77.962 E8.61287
G1 X68.415 Y77.962 E8.85846
G1 X68.415 Y77.683 E8.87187
G1 X73.180 Y77.683 E9.10108
G1 X73.703 Y76.645 E9.15695
G1 X74.218 Y76.125 E9.19215
G1 X74.871 Y75.796 E9.22734
G1 X75.554 Y75.690 E9.26059
G1 X76.237 Y75.796 E9.29383
G1 X76.891 Y76.125 E9.32903
G1 X77.406 Y76.645 E9.36422
G1 X77.928 Y77.683 E9.42010
G1 X80.600 Y77.683 E9.54861
G1 X79.436 Y73.339 E9.76488
G1 X72.187 Y72.385 E10.11654
G1 X71.290 Y73.940 E10.20288
G1 X71.048 Y73.800 E10.21629
G1 X72.039 Y72.084 E10.31159
G1 X79.657 Y73.087 E10.68116
G1 X80.605 Y76.626 E10.85734
G1 X80.917 Y76.298 F7800.000
G1 F1610
G1 X82.034 Y76.298 E10.91108
G1 X82.034 Y78.347 E11.00965
G1 X77.219 Y78.347 E11.24123
G1 X77.184 Y77.591 E11.27762
G1 X76.561 Y76.782 E11.32677
G1 X75.556 Y76.452 E11.37766
G1 X74.560 Y76.765 E11.42787
G1 X73.924 Y77.591 E11.47800
G1 X73.889 Y78.347 E11.51440
G1 X68.029 Y78.347 E11.79625
G1 X68.029 Y77.297 E11.84675
G1 X72.943 Y77.297 E12.08308
G1 X73.386 Y76.417 E12.13047
G1 X73.988 Y75.809 E12.17162
G1 X74.752 Y75.424 E12.21277
G1 X75.554 Y75.300 E12.25182
G1 X76.357 Y75.424 E12.29087
G1 X77.120 Y75.809 E12.33202
G1 X77.723 Y76.417 E12.37317
G1 X78.166 Y77.297 E12.42055
G1 X80.097 Y77.297 E12.51347
G1 X79.130 Y73.688 E12.69318
G1 X72.392 Y72.801 E13.02005
G1 X71.431 Y74.466 E13.11255
G1 X70.522 Y73.941 E13.16305
G1 X71.834 Y71.668 E13.28928
G1 X79.963 Y72.739 E13.68364
G1 X80.901 Y76.240 E13.85799
G1 X81.060 Y76.671 F7800.000
G1 E11.85799 F1800.00000
G92 E0
G1 X80.840 Y77.073 F7800.000
G1 X76.242 Y76.042
G1 E2.00000 F1800.00000
G1 F1200
G1 X76.168 Y76.011 E2.00062
G1 X76.094 Y75.994 E2.00121
M106 S255
G1 Z1.300 F7800.000
; PURGING FINISHED
G1 E0.00121 F1800.00000
G92 E0
G1 X80.917 Y77.069 F7800.000
G1 E2.00000 F1800.00000
G1 F900
G1 X81.263 Y77.069 E2.01665
G1 X81.263 Y77.576 E2.04102
G1 X80.971 Y77.576 E2.05508
G1 X80.835 Y77.069 E2.08031
G1 X80.857 Y77.069 E2.08137
G1 X80.621 Y76.684 F7800.000
G1 F1654
G1 X81.648 Y76.684 E2.13079
G1 X81.648 Y77.962 E2.19226
G1 X77.587 Y77.962 E2.38759
G1 X77.564 Y77.452 E2.41211
G1 X76.780 Y76.434 E2.47392
G1 X75.554 Y76.048 E2.53573
G1 X74.328 Y76.434 E2.59754
G1 X73.545 Y77.452 E2.65935
G1 X73.521 Y77.962 E2.68387
G1 X68.415 Y77.962 E2.92947
G1 X68.415 Y77.683 E2.94288
G1 X73.180 Y77.683 E3.17208
G1 X73.703 Y76.645 E3.22796
G1 X74.218 Y76.125 E3.26315
G1 X74.871 Y75.796 E3.29835
G1 X75.554 Y75.690 E3.33159
G1 X76.237 Y75.796 E3.36484
G1 X76.891 Y76.125 E3.40003
G1 X77.406 Y76.645 E3.43523
G1 X77.928 Y77.683 E3.49110
G1 X80.600 Y77.683 E3.61962
G1 X79.436 Y73.339 E3.83589
G1 X72.187 Y72.385 E4.18755
G1 X71.290 Y73.940 E4.27389
G1 X71.048 Y73.800 E4.28730
G1 X72.039 Y72.084 E4.38259
G1 X79.657 Y73.087 E4.75217
G1 X80.605 Y76.626 E4.92835
G1 X80.917 Y76.298 F7800.000
G1 F1654
G1 X82.034 Y76.298 E4.98209
G1 X82.034 Y78.347 E5.08065
G1 X77.219 Y78.347 E5.31224
G1 X77.184 Y77.591 E5.34863
G1 X76.549 Y76.765 E5.39877
G1 X75.554 Y76.452 E5.44890
G1 X74.560 Y76.765 E5.49904
G1 X73.924 Y77.591 E5.54917
G1 X73.889 Y78.347 E5.58557
G1 X68.029 Y78.347 E5.86742
G1 X68.029 Y77.297 E5.91792
G1 X72.943 Y77.297 E6.15425
G1 X73.386 Y76.417 E6.20164
G1 X73.988 Y75.809 E6.24279
G1 X74.752 Y75.424 E6.28394
G1 X75.554 Y75.300 E6.32299
G1 X76.357 Y75.424 E6.36204
G1 X77.120 Y75.809 E6.40319
G1 X77.723 Y76.417 E6.44433
G1 X78.166 Y77.297 E6.49172
G1 X80.097 Y77.297 E6.58464
G1 X79.130 Y73.688 E6.76435
G1 X72.392 Y72.801 E7.09122
G1 X71.431 Y74.466 E7.18371
G1 X70.522 Y73.941 E7.23422
G1 X71.834 Y71.668 E7.36045
G1 X79.963 Y72.739 E7.75481
G1 X80.901 Y76.240 E7.92915
G1 X81.060 Y76.671 F7800.000
G1 Z1.600 F7800.000
; PURGING FINISHED
G1 X80.917 Y77.069
G1 F900
G1 X81.263 Y77.069 E7.94580
G1 X81.263 Y77.576 E7.97018
G1 X80.971 Y77.576 E7.98423
G1 X80.835 Y77.069 E8.00947
G1 X80.857 Y77.069 E8.01052
G1 X80.621 Y76.684 F7800.000
G1 F1617
G1 X81.648 Y76.684 E8.05995
G1 X81.648 Y77.962 E8.12142
G1 X77.587 Y77.962 E8.31674
G1 X77.564 Y77.452 E8.34126
G1 X76.780 Y76.434 E8.40307
G1 X75.554 Y76.048 E8.46489
G1 X74.328 Y76.434 E8.52670
G1 X73.545 Y77.452 E8.58851
G1 X73.521 Y77.962 E8.61303
G1 X68.415 Y77.962 E8.85862
G1 X68.415 Y77.683 E8.87203
G1 X73.180 Y77.683 E9.10124
G1 X73.703 Y76.645 E9.15711
G1 X74.218 Y76.125 E9.19231
G1 X74.871 Y75.796 E9.22750
G1 X75.554 Y75.690 E9.26075
G1 X76.237 Y75.796 E9.29399
G1 X76.891 Y76.125 E9.32919
G1 X77.406 Y76.645 E9.36438
G1 X77.928 Y77.683 E9.42026
G1 X80.600 Y77.683 E9.54877
G1 X79.436 Y73.339 E9.76505
G1 X72.187 Y72.385 E10.11670
G1 X71.290 Y73.940 E10.20304
G1 X71.048 Y73.800 E10.21645
G1 X72.039 Y72.084 E10.31175
G1 X79.657 Y73.087 E10.68132
G1 X80.605 Y76.626 E10.85750
G1 X80.917 Y76.298 F7800.000
G1 F1617
G1 X82.034 Y76.298 E10.91124
G1 X82.034 Y78.347 E11.00981
G1 X77.219 Y78.347 E11.24139
G1 X77.184 Y77.591 E11.27778
G1 X76.549 Y76.765 E11.32792
G1 X75.554 Y76.452 E11.37806
G1 X74.560 Y76.765 E11.42819
G1 X73.924 Y77.591 E11.47833
G1 X73.889 Y78.347 E11.51472
G1 X68.029 Y78.347 E11.79657
G1 X68.029 Y77.297 E11.84707
G1 X72.943 Y77.297 E12.08340
G1 X73.386 Y76.417 E12.13079
G1 X73.988 Y75.809 E12.17194
G1 X74.752 Y75.424 E12.21309
G1 X75.554 Y75.300 E12.25214
G1 X76.357 Y75.424 E12.29119
G1 X77.120 Y75.809 E12.33234
G1 X77.723 Y76.417 E12.37349
G1 X78.166 Y77.297 E12.42088
G1 X80.097 Y77.297 E12.51379
G1 X79.130 Y73.688 E12.69350
G1 X72.392 Y72.801 E13.02038
G1 X71.431 Y74.466 E13.11287
G1 X70.522 Y73.941 E13.16337
G1 X71.834 Y71.668 E13.28961
G1 X79.963 Y72.739 E13.68397
G1 X80.901 Y76.240 E13.85831
G1 X81.060 Y76.671 F7800.000
G1 Z1.900 F7800.000
; PURGING FINISHED
G1 X80.917 Y77.069
G1 F900
G1 X81.263 Y77.069 E13.87496
G1 X81.263 Y77.576 E13.89933
G1 X80.971 Y77.576 E13.91339
G1 X80.835 Y77.069 E13.93862
G1 X80.857 Y77.069 E13.93968
G1 X80.621 Y76.684 F7800.000
G1 F1617
G1 X81.648 Y76.684 E13.98910
G1 X81.648 Y77.962 E14.05057
G1 X77.587 Y77.962 E14.24590
G1 X77.564 Y77.452 E14.27042
G1 X76.780 Y76.434 E14.33223
G1 X75.554 Y76.048 E14.39404
G1 X74.328 Y76.434 E14.45585
G1 X73.545 Y77.452 E14.51766
G1 X73.521 Y77.962 E14.54218
G1 X68.415 Y77.962 E14.78778
G1 X68.415 Y77.683 E14.80118
G1 X73.180 Y77.683 E15.03039
G1 X73.703 Y76.645 E15.08627
G1 X74.218 Y76.125 E15.12146
G1 X74.871 Y75.796 E15.15666
G1 X75.554 Y75.690 E15.18990
G1 X76.237 Y75.796 E15.22315
G1 X76.891 Y76.125 E15.25834
G1 X77.406 Y76.645 E15.29354
G1 X77.928 Y77.683 E15.34941
G1 X80.600 Y77.683 E15.47793
G1 X79.436 Y73.339 E15.69420
G1 X72.187 Y72.385 E16.04586
G1 X71.290 Y73.940 E16.13220
G1 X71.048 Y73.800 E16.14560
G1 X72.039 Y72.084 E16.24090
G1 X79.657 Y73.087 E16.61048
G1 X80.605 Y76.626 E16.78666
G1 X80.917 Y76.298 F7800.000
G1 F1617
G1 X82.034 Y76.298 E16.84040
G1 X82.034 Y78.347 E16.93896
G1 X77.219 Y78.347 E17.17054
G1 X77.184 Y77.591 E17.20694
G1 X76.549 Y76.765 E17.25707
G1 X75.554 Y76.452 E17.30721
G1 X74.560 Y76.765 E17.35735
G1 X73.924 Y77.591 E17.40748
G1 X73.889 Y78.347 E17.44388
G1 X68.029 Y78.347 E17.72573
G1 X68.029 Y77.297 E17.77623
G1 X72.943 Y77.297 E18.01256
G1 X73.386 Y76.417 E18.05995
G1 X73.988 Y75.809 E18.10110
G1 X74.752 Y75.424 E18.14224
G1 X75.554 Y75.300 E18.18129
G1 X76.357 Y75.424 E18.22035
G1 X77.120 Y75.809 E18.26149
G1 X77.723 Y76.417 E18.30264
G1 X78.166 Y77.297 E18.35003
G1 X80.097 Y77.297 E18.44295
G1 X79.130 Y73.688 E18.62266
G1 X72.392 Y72.801 E18.94953
G1 X71.431 Y74.466 E19.04202
G1 X70.522 Y73.941 E19.09252
G1 X71.834 Y71.668 E19.21876
G1 X79.963 Y72.739 E19.61312
G1 X80.901 Y76.240 E19.78746
G1 X81.060 Y76.671 F7800.000
G1 Z2.200 F7800.000
; PURGING FINISHED
G1 X80.917 Y77.069
G1 F900
G1 X81.263 Y77.069 E19.80411
G1 X81.263 Y77.576 E19.82849
G1 X80.971 Y77.576 E19.84254
G1 X80.835 Y77.069 E19.86778
G1 X80.857 Y77.069 E19.86883
G1 X80.621 Y76.684 F7800.000
G1 F1617
G1 X81.648 Y76.684 E19.91826
G1 X81.648 Y77.962 E19.97973
G1 X77.587 Y77.962 E20.17505
G1 X77.564 Y77.452 E20.19957
G1 X76.780 Y76.434 E20.26138
G1 X75.554 Y76.048 E20.32320
G1 X74.328 Y76.434 E20.38501
G1 X73.545 Y77.452 E20.44682
G1 X73.521 Y77.962 E20.47134
G1 X68.415 Y77.962 E20.71693
G1 X68.415 Y77.683 E20.73034
G1 X73.180 Y77.683 E20.95955
G1 X73.703 Y76.645 E21.01542
G1 X74.218 Y76.125 E21.05062
G1 X74.871 Y75.796 E21.08581
G1 X75.554 Y75.690 E21.11906
G1 X76.237 Y75.796 E21.15230
G1 X76.891 Y76.125 E21.18750
G1 X77.406 Y76.645 E21.22269
G1 X77.928 Y77.683 E21.27857
G1 X80.600 Y77.683 E21.40708
G1 X79.436 Y73.339 E21.62336
G1 X72.187 Y72.385 E21.97501
G1 X71.290 Y73.940 E22.06135
G1 X71.048 Y73.800 E22.07476
G1 X72.039 Y72.084 E22.17006
G1 X79.657 Y73.087 E22.53963
G1 X80.605 Y76.626 E22.71581
G1 X80.917 Y76.298 F7800.000
G1 F1617
G1 X82.034 Y76.298 E22.76955
G1 X82.034 Y78.347 E22.86812
G1 X77.219 Y78.347 E23.09970
G1 X77.184 Y77.591 E23.13609
G1 X76.549 Y76.765 E23.18623
G1 X75.554 Y76.452 E23.23636
G1 X74.560 Y76.765 E23.28650
G1 X73.924 Y77.591 E23.33664
G1 X73.889 Y78.347 E23.37303
G1 X68.029 Y78.347 E23.65488
G1 X68.029 Y77.297 E23.70538
G1 X72.943 Y77.297 E23.94171
G1 X73.386 Y76.417 E23.98910
G1 X73.988 Y75.809 E24.03025
G1 X74.752 Y75.424 E24.07140
G1 X75.554 Y75.300 E24.11045
G1 X76.357 Y75.424 E24.14950
G1 X77.120 Y75.809 E24.19065
G1 X77.723 Y76.417 E24.23180
G1 X78.166 Y77.297 E24.27919
G1 X80.097 Y77.297 E24.37210
G1 X79.130 Y73.688 E24.55181
G1 X72.392 Y72.801 E24.87868
G1 X71.431 Y74.466 E24.97118
G1 X70.522 Y73.941 E25.02168
G1 X71.834 Y71.668 E25.14792
G1 X79.963 Y72.739 E25.54228
G1 X80.901 Y76.240 E25.71662
G1 X81.060 Y76.671 F7800.000
G1 Z2.500 F7800.000
; PURGING FINISHED
G1 X80.917 Y77.069
G1 F900
G1 X81.263 Y77.069 E25.73326
G1 X81.263 Y77.576 E25.75764
G1 X80.971 Y77.576 E25.77170
G1 X80.835 Y77.069 E25.79693
G1 X80.857 Y77.069 E25.79799
G1 X80.621 Y76.684 F7800.000
G1 F1617
G1 X81.648 Y76.684 E25.84741
G1 X81.648 Y77.962 E25.90888
G1 X77.587 Y77.962 E26.10421
G1 X77.564 Y77.452 E26.12873
G1 X76.780 Y76.434 E26.19054
G1 X75.554 Y76.048 E26.25235
G1 X74.328 Y76.434 E26.31416
G1 X73.545 Y77.452 E26.37597
G1 X73.521 Y77.962 E26.40049
G1 X68.415 Y77.962 E26.64609
G1 X68.415 Y77.683 E26.65949
G1 X73.180 Y77.683 E26.88870
G1 X73.703 Y76.645 E26.94458
G1 X74.218 Y76.125 E26.97977
G1 X74.871 Y75.796 E27.01497
G1 X75.554 Y75.690 E27.04821
G1 X76.237 Y75.796 E27.08146
G1 X76.891 Y76.125 E27.11665
G1 X77.406 Y76.645 E27.15185
G1 X77.928 Y77.683 E27.20772
G1 X80.600 Y77.683 E27.33624
G1 X79.436 Y73.339 E27.55251
G1 X72.187 Y72.385 E27.90417
G1 X71.290 Y73.940 E27.99051
G1 X71.048 Y73.800 E28.00391
G1 X72.039 Y72.084 E28.09921
G1 X79.657 Y73.087 E28.46878
G1 X80.605 Y76.626 E28.64497
G1 X80.917 Y76.298 F7800.000
G1 F1617
G1 X82.034 Y76.298 E28.69871
G1 X82.034 Y78.347 E28.79727
G1 X77.219 Y78.347 E29.02885
