; generated by Slic3r Prusa Edition 1.41.0-beta+win64 on 2018-09-30 at 17:16:57

; 

; external perimeters extrusion width = 0.45mm
; perimeters extrusion width = 0.45mm
; infill extrusion width = 0.45mm
; solid infill extrusion width = 0.45mm
; top infill extrusion width = 0.40mm
; first layer extrusion width = 0.80mm

M107
M104 S210 ; set temperature
G28 ; home all axes
G1 Z5 F5000 ; lift nozzle
; Filament gcode
M109 S210 ; set temperature and wait for it to be reached
G21 ; set units to millimeters
G90 ; use absolute coordinates
M82 ; use absolute distances for extrusion
G92 E0
G1 Z0.400 F7800.000
G1 E-2.00000 F1800.00000
G92 E0
G1 X57.596 Y66.686 F7800.000
G1 E2.00000 F1800.00000
G1 X58.629 Y65.877 E2.15582
G1 X59.352 Y65.486 E2.25340
G1 X60.125 Y65.190 E2.35172
G1 X60.930 Y64.997 E2.45005
G1 X61.753 Y64.909 E2.54837
G1 X83.016 Y64.904 E5.07358
G1 X84.094 Y64.998 E5.20215
G1 X85.141 Y65.272 E5.33072
G1 X86.126 Y65.721 E5.45928
G1 X87.026 Y66.334 E5.58859
G1 X93.625 Y72.863 E6.69102
G1 X94.234 Y73.611 E6.80558
G1 X94.725 Y74.448 E6.92087
G1 X95.145 Y75.559 E7.06196
G1 X95.350 Y76.723 E7.20232
G1 X95.365 Y79.019 E7.47499
G1 X95.194 Y80.226 E7.61976
G1 X94.794 Y81.384 E7.76528
G1 X94.176 Y82.449 E7.91153
G1 X93.368 Y83.370 E8.05704
G1 X92.393 Y84.123 E8.20329
G1 X91.654 Y84.521 E8.30308
G1 X90.868 Y84.819 E8.40288
G1 X90.050 Y85.011 E8.50268
G1 X89.207 Y85.093 E8.60322
G1 X60.644 Y85.086 E11.99555
G1 X59.150 Y84.825 E12.17563
G1 X57.761 Y84.217 E12.35571
G1 X56.556 Y83.297 E12.53579
G1 X55.602 Y82.118 E12.71587
G1 X55.076 Y81.081 E12.85402
G1 X54.749 Y79.965 E12.99216
G1 X54.635 Y79.007 E13.10672
G1 X54.630 Y77.158 E13.32636
G1 X54.709 Y76.234 E13.43649
G1 X55.760 Y70.097 E14.17591
G1 X56.132 Y68.839 E14.33173
G1 X56.751 Y67.689 E14.48681
G1 X57.557 Y66.732 E14.63550
; PURGING FINISHED
G1 E12.63550
G92 E0
G1 X88.614 Y78.339 F7800.000
G1 E2.00000 F1800.00000
G1 X75.166 Y78.339 E3.59707
G1 X71.226 Y74.817 E4.22470
G1 X70.787 Y74.719 E4.27816
G1 X70.356 Y74.842 E4.33133
G1 X70.051 Y75.142 E4.38208
G1 X68.727 Y78.339 E4.79306
G1 X61.386 Y78.339 E5.66488
G1 X61.386 Y77.639 E5.74801
G1 X61.853 Y77.639 E5.80342
G1 X62.376 Y71.661 E6.51601
G1 X82.844 Y71.661 E8.94687
G1 X85.626 Y74.443 E9.41413
G1 X85.131 Y74.938 E9.49727
G1 X82.554 Y72.361 E9.93009
G1 X63.017 Y72.361 E12.25033
G1 X62.556 Y77.639 E12.87947
G1 X68.259 Y77.639 E13.55688
G1 X69.460 Y74.741 E13.92943
G1 X69.848 Y74.252 E14.00349
G1 X70.375 Y73.977 E14.07413
G1 X70.969 Y73.940 E14.14477
G1 X71.535 Y74.150 E14.21651
G1 X75.434 Y77.639 E14.83782
G1 X88.614 Y77.639 E16.40315
G1 X88.614 Y78.279 E16.47916
G1 X88.214 Y78.332 F7800.000
G1 Z0.700 F7800.000
M104 S200 ; set temperature
; PURGING FINISHED
G1 X88.403 Y78.128
G1 F3600
G1 X75.247 Y78.128 E17.11193
G1 X71.325 Y74.624 E17.36488
G1 X70.780 Y74.502 E17.39174
G1 X70.247 Y74.654 E17.41842
G1 X69.873 Y75.021 E17.44362
G1 X68.586 Y78.128 E17.60535
G1 X61.597 Y78.128 E17.94151
G1 X61.597 Y77.849 E17.95492
G1 X62.046 Y77.849 E17.97651
G1 X62.569 Y71.872 E18.26509
G1 X82.756 Y71.872 E19.23604
G1 X85.328 Y74.443 E19.41094
G1 X85.131 Y74.641 E19.42435
G1 X82.641 Y72.151 E19.59370
G1 X62.824 Y72.151 E20.54681
G1 X62.326 Y77.849 E20.82193
G1 X68.400 Y77.849 E21.11409
G1 X69.643 Y74.848 E21.27030
G1 X69.985 Y74.418 E21.29673
G1 X70.433 Y74.185 E21.32103
G1 X70.937 Y74.153 E21.34533
G1 X71.424 Y74.334 E21.37032
G1 X75.353 Y77.849 E21.62389
G1 X88.403 Y77.849 E22.25154
G1 X88.403 Y78.068 E22.26207
G1 E20.26207 F1800.00000
G92 E0
G1 X63.178 Y72.536 F7800.000
G1 E2.00000 F1800.00000
G1 X62.747 Y77.464 E2.23789
G1 X68.142 Y77.464 E2.49741
G1 X69.307 Y74.651 E2.64384
G1 X69.734 Y74.114 E2.67680
G1 X70.327 Y73.805 E2.70898
G1 X70.995 Y73.763 E2.74116
G1 X71.627 Y73.998 E2.77359
G1 X75.500 Y77.464 E3.02358
G1 X88.789 Y77.464 E3.66270
G1 X88.789 Y78.514 E3.71320
G1 X75.100 Y78.514 E4.37160
G1 X71.143 Y74.978 E4.62679
G1 X70.792 Y74.900 E4.64411
G1 X70.447 Y74.998 E4.66136
G1 X70.199 Y75.241 E4.67806
G1 X68.844 Y78.514 E4.84840
G1 X61.211 Y78.514 E5.21551
G1 X61.211 Y77.464 E5.26601
G1 X61.693 Y77.464 E5.28915
G1 X62.215 Y71.486 E5.57773
G1 X82.916 Y71.486 E6.57336
G1 X85.873 Y74.443 E6.77449
G1 X85.131 Y75.186 E6.82499
G1 X82.481 Y72.536 E7.00520
G1 X63.238 Y72.536 E7.93075
G1 X62.780 Y72.497 F7800.000
G1 Z1.000 F7800.000
; PURGING FINISHED
G1 X62.824 Y72.151
G1 F3600
G1 X62.326 Y77.849 E8.20587
G1 X68.400 Y77.849 E8.49803
G1 X69.643 Y74.848 E8.65425
G1 X69.985 Y74.418 E8.68067
G1 X70.433 Y74.185 E8.70498
G1 X70.937 Y74.153 E8.72928
G1 X71.424 Y74.334 E8.75426
G1 X75.353 Y77.849 E9.00783
G1 X88.403 Y77.849 E9.63549
G1 X88.403 Y78.128 E9.64890
G1 X75.247 Y78.128 E10.28167
G1 X71.325 Y74.624 E10.53461
G1 X70.780 Y74.502 E10.56148
G1 X70.247 Y74.654 E10.58816
G1 X69.873 Y75.021 E10.61335
G1 X68.586 Y78.128 E10.77508
G1 X61.597 Y78.128 E11.11124
G1 X61.597 Y77.849 E11.12465
G1 X62.046 Y77.849 E11.14624
G1 X62.569 Y71.872 E11.43482
G1 X82.756 Y71.872 E12.40577
G1 X85.328 Y74.443 E12.58068
G1 X85.131 Y74.641 E12.59408
G1 X82.641 Y72.151 E12.76343
G1 X62.884 Y72.151 E13.71366
G1 X63.178 Y72.536 F7800.000
G1 F1800
G1 X62.747 Y77.464 E13.95154
G1 X68.142 Y77.464 E14.21107
G1 X69.307 Y74.651 E14.35749
G1 X69.734 Y74.114 E14.39045
G1 X70.327 Y73.805 E14.42263
G1 X70.995 Y73.763 E14.45482
G1 X71.627 Y73.998 E14.48725
G1 X75.500 Y77.464 E14.73724
G1 X88.789 Y77.464 E15.37635
G1 X88.789 Y78.514 E15.42686
G1 X75.100 Y78.514 E16.08526
G1 X71.143 Y74.978 E16.34045
G1 X70.792 Y74.900 E16.35777
G1 X70.447 Y74.998 E16.37502
G1 X70.199 Y75.241 E16.39172
G1 X68.844 Y78.514 E16.56206
G1 X61.211 Y78.514 E16.92916
G1 X61.211 Y77.464 E16.97967
G1 X61.693 Y77.464 E17.00281
G1 X62.215 Y71.486 E17.29139
G1 X82.916 Y71.486 E18.28702
G1 X85.873 Y74.443 E18.48815
G1 X85.131 Y75.186 E18.53865
G1 X82.481 Y72.536 E18.71886
G1 X63.238 Y72.536 E19.64441
G1 X62.780 Y72.497 F7800.000
M106 S255
G1 Z1.300 F7800.000
; PURGING FINISHED
G1 X62.824 Y72.151
G1 F3600
G1 X62.326 Y77.849 E19.91953
G1 X68.400 Y77.849 E20.21169
G1 X69.643 Y74.848 E20.36791
G1 X69.985 Y74.418 E20.39433
G1 X70.433 Y74.185 E20.41863
G1 X70.937 Y74.153 E20.44294
G1 X71.424 Y74.334 E20.46792
G1 X75.353 Y77.849 E20.72149
G1 X88.403 Y77.849 E21.34915
G1 X88.403 Y78.128 E21.36255
G1 X75.247 Y78.128 E21.99533
G1 X71.325 Y74.624 E22.24827
G1 X70.780 Y74.502 E22.27513
G1 X70.247 Y74.654 E22.30182
G1 X69.873 Y75.021 E22.32701
G1 X68.586 Y78.128 E22.48874
G1 X61.597 Y78.128 E22.82490
G1 X61.597 Y77.849 E22.83831
G1 X62.046 Y77.849 E22.85990
G1 X62.569 Y71.872 E23.14848
G1 X82.756 Y71.872 E24.11943
G1 X85.328 Y74.443 E24.29433
G1 X85.131 Y74.641 E24.30774
G1 X82.641 Y72.151 E24.47709
G1 X62.884 Y72.151 E25.42731
G1 X63.178 Y72.536 F7800.000
G1 F1800
G1 X62.747 Y77.464 E25.66520
G1 X68.142 Y77.464 E25.92472
G1 X69.307 Y74.651 E26.07115
G1 X69.734 Y74.114 E26.10411
G1 X70.327 Y73.805 E26.13629
G1 X70.995 Y73.763 E26.16847
G1 X71.627 Y73.998 E26.20090
G1 X75.500 Y77.464 E26.45089
G1 X88.789 Y77.464 E27.09001
G1 X88.789 Y78.514 E27.14051
G1 X75.100 Y78.514 E27.79891
G1 X71.143 Y74.978 E28.05411
G1 X70.792 Y74.900 E28.07142
G1 X70.447 Y74.998 E28.08867
G1 X70.199 Y75.241 E28.10537
G1 X68.844 Y78.514 E28.27572
G1 X61.211 Y78.514 E28.64282
G1 X61.211 Y77.464 E28.69332
G1 X61.693 Y77.464 E28.71647
G1 X62.215 Y71.486 E29.00504
G1 X82.916 Y71.486 E30.00067
G1 X85.873 Y74.443 E30.20180
G1 X85.131 Y75.186 E30.25231
G1 X82.481 Y72.536 E30.43252
G1 X63.238 Y72.536 E31.35807
G1 X62.780 Y72.497 F7800.000
G1 Z1.600 F7800.000
; PURGING FINISHED
G1 X62.824 Y72.151
G1 F3600
G1 X62.326 Y77.849 E31.63319
G1 X68.400 Y77.849 E31.92534
G1 X69.643 Y74.848 E32.08156
G1 X69.985 Y74.418 E32.10798
G1 X70.433 Y74.185 E32.13229
G1 X70.937 Y74.153 E32.15659
G1 X71.424 Y74.334 E32.18158
G1 X75.353 Y77.849 E32.43515
G1 X88.403 Y77.849 E33.06280
G1 X88.403 Y78.128 E33.07621
G1 X75.247 Y78.128 E33.70898
G1 X71.325 Y74.624 E33.96193
G1 X70.780 Y74.502 E33.98879
G1 X70.247 Y74.654 E34.01547
G1 X69.873 Y75.021 E34.04067
G1 X68.586 Y78.128 E34.20240
G1 X61.597 Y78.128 E34.53856
G1 X61.597 Y77.849 E34.55197
G1 X62.046 Y77.849 E34.57356
G1 X62.569 Y71.872 E34.86214
G1 X82.756 Y71.872 E35.83309
G1 X85.328 Y74.443 E36.00799
G1 X85.131 Y74.641 E36.02140
G1 X82.641 Y72.151 E36.19074
G1 X62.884 Y72.151 E37.14097
G1 X63.178 Y72.536 F7800.000
G1 F1800
G1 X62.747 Y77.464 E37.37886
G1 X68.142 Y77.464 E37.63838
G1 X69.307 Y74.651 E37.78481
G1 X69.734 Y74.114 E37.81777
G1 X70.327 Y73.805 E37.84995
G1 X70.995 Y73.763 E37.88213
G1 X71.627 Y73.998 E37.91456
G1 X75.500 Y77.464 E38.16455
G1 X88.789 Y77.464 E38.80367
G1 X88.789 Y78.514 E38.85417
G1 X75.100 Y78.514 E39.51257
G1 X71.143 Y74.978 E39.76776
G1 X70.792 Y74.900 E39.78508
G1 X70.447 Y74.998 E39.80233
G1 X70.199 Y75.241 E39.81903
G1 X68.844 Y78.514 E39.98938
G1 X61.211 Y78.514 E40.35648
G1 X61.211 Y77.464 E40.40698
G1 X61.693 Y77.464 E40.43012
G1 X62.215 Y71.486 E40.71870
G1 X82.916 Y71.486 E41.71433
G1 X85.873 Y74.443 E41.91546
G1 X85.131 Y75.186 E41.96596
G1 X82.481 Y72.536 E42.14617
G1 X63.238 Y72.536 E43.07172
G1 X62.780 Y72.497 F7800.000
G1 Z1.900 F7800.000
; PURGING FINISHED
G1 X62.824 Y72.151
G1 F3600
G1 X62.326 Y77.849 E43.34685
G1 X68.400 Y77.849 E43.63900
G1 X69.643 Y74.848 E43.79522
G1 X69.985 Y74.418 E43.82164
G1 X70.433 Y74.185 E43.84595
G1 X70.937 Y74.153 E43.87025
G1 X71.424 Y74.334 E43.89524
G1 X75.353 Y77.849 E44.14880
G1 X88.403 Y77.849 E44.77646
G1 X88.403 Y78.128 E44.78987
G1 X75.247 Y78.128 E45.42264
G1 X71.325 Y74.624 E45.67558
G1 X70.780 Y74.502 E45.70245
G1 X70.247 Y74.654 E45.72913
G1 X69.873 Y75.021 E45.75432
G1 X68.586 Y78.128 E45.91605
G1 X61.597 Y78.128 E46.25222
G1 X61.597 Y77.849 E46.26562
G1 X62.046 Y77.849 E46.28721
G1 X62.569 Y71.872 E46.57579
G1 X82.756 Y71.872 E47.54675
G1 X85.328 Y74.443 E47.72165
G1 X85.131 Y74.641 E47.73505
G1 X82.641 Y72.151 E47.90440
G1 X62.884 Y72.151 E48.85463
G1 X63.178 Y72.536 F7800.000
G1 F1800
G1 X62.747 Y77.464 E49.09251
G1 X68.142 Y77.464 E49.35204
G1 X69.307 Y74.651 E49.49846
G1 X69.734 Y74.114 E49.53143
G1 X70.327 Y73.805 E49.56361
G1 X70.995 Y73.763 E49.59579
G1 X71.627 Y73.998 E49.62822
G1 X75.500 Y77.464 E49.87821
G1 X88.789 Y77.464 E50.51733
G1 X88.789 Y78.514 E50.56783
G1 X75.100 Y78.514 E51.22623
G1 X71.143 Y74.978 E51.48142
G1 X70.792 Y74.900 E51.49874
G1 X70.447 Y74.998 E51.51599
G1 X70.199 Y75.241 E51.53269
G1 X68.844 Y78.514 E51.70303
G1 X61.211 Y78.514 E52.07014
G1 X61.211 Y77.464 E52.12064
G1 X61.693 Y77.464 E52.14378
G1 X62.215 Y71.486 E52.43236
G1 X82.916 Y71.486 E53.42799
G1 X85.873 Y74.443 E53.62912
G1 X85.131 Y75.186 E53.67962
G1 X82.481 Y72.536 E53.85983
G1 X63.238 Y72.536 E54.78538
G1 X62.780 Y72.497 F7800.000
G1 Z2.200 F7800.000
; PURGING FINISHED
G1 X62.824 Y72.151
G1 F3600
G1 X62.326 Y77.849 E55.06050
G1 X68.400 Y77.849 E55.35266
G1 X69.643 Y74.848 E55.50888
G1 X69.985 Y74.418 E55.53530
G1 X70.433 Y74.185 E55.55960
G1 X70.937 Y74.153 E55.58391
G1 X71.424 Y74.334 E55.60889
G1 X75.353 Y77.849 E55.86246
G1 X88.403 Y77.849 E56.49012
G1 X88.403 Y78.128 E56.50352
G1 X75.247 Y78.128 E57.13630
G1 X71.325 Y74.624 E57.38924
G1 X70.780 Y74.502 E57.41611
G1 X70.247 Y74.654 E57.44279
G1 X69.873 Y75.021 E57.46798
G1 X68.586 Y78.128 E57.62971
G1 X61.597 Y78.128 E57.96587
G1 X61.597 Y77.849 E57.97928
G1 X62.046 Y77.849 E58.00087
G1 X62.569 Y71.872 E58.28945
G1 X82.756 Y71.872 E59.26040
G1 X85.328 Y74.443 E59.43530
G1 X85.131 Y74.641 E59.44871
G1 X82.641 Y72.151 E59.61806
G1 X62.884 Y72.151 E60.56829
G1 X63.178 Y72.536 F7800.000
G1 F1800
G1 X62.747 Y77.464 E60.80617
G1 X68.142 Y77.464 E61.06569
G1 X69.307 Y74.651 E61.21212
G1 X69.734 Y74.114 E61.24508
G1 X70.327 Y73.805 E61.27726
G1 X70.995 Y73.763 E61.30944
G1 X71.627 Y73.998 E61.34188
G1 X75.500 Y77.464 E61.59187
G1 X88.789 Y77.464 E62.23098
G1 X88.789 Y78.514 E62.28148
G1 X75.100 Y78.514 E62.93988
G1 X71.143 Y74.978 E63.19508
G1 X70.792 Y74.900 E63.21239
G1 X70.447 Y74.998 E63.22964
G1 X70.199 Y75.241 E63.24634
G1 X68.844 Y78.514 E63.41669
G1 X61.211 Y78.514 E63.78379
G1 X61.211 Y77.464 E63.83429
G1 X61.693 Y77.464 E63.85744
G1 X62.215 Y71.486 E64.14602
G1 X82.916 Y71.486 E65.14165
G1 X85.873 Y74.443 E65.34278
G1 X85.131 Y75.186 E65.39328
G1 X82.481 Y72.536 E65.57349
G1 X63.238 Y72.536 E66.49904
G1 X62.780 Y72.497 F7800.000
G1 Z2.500 F7800.000
; PURGING FINISHED
G1 X62.824 Y72.151
G1 F3600
G1 X62.326 Y77.849 E66.77416
G1 X68.400 Y77.849 E67.06632
G1 X69.643 Y74.848 E67.22253
G1 X69.985 Y74.418 E67.24896
G1 X70.433 Y74.185 E67.27326
G1 X70.937 Y74.153 E67.29756
G1 X71.424 Y74.334 E67.32255
G1 X75.353 Y77.849 E67.57612
G1 X88.403 Y77.849 E68.20377
G1 X88.403 Y78.128 E68.21718
G1 X75.247 Y78.128 E68.84995
G1 X71.325 Y74.624 E69.10290
G1 X70.780 Y74.502 E69.12976
G1 X70.247 Y74.654 E69.15644
G1 X69.873 Y75.021 E69.18164
G1 X68.586 Y78.128 E69.34337
G1 X61.597 Y78.128 E69.67953
G1 X61.597 Y77.849 E69.69294
G1 X62.046 Y77.849 E69.71453
G1 X62.569 Y71.872 E70.00311
G1 X82.756 Y71.872 E70.97406
G1 X85.328 Y74.443 E71.14896
G1 X85.131 Y74.641 E71.16237
G1 X82.641 Y72.151 E71.33172
G1 X62.884 Y72.151 E72.28194
G1 X63.178 Y72.536 F7800.000
G1 F1800
G1 X62.747 Y77.464 E72.51983
G1 X68.142 Y77.464 E72.77935
G1 X69.307 Y74.651 E72.92578
G1 X69.734 Y74.114 E72.95874
G1 X70.327 Y73.805 E72.99092
G1 X70.995 Y73.763 E73.02310
G1 X71.627 Y73.998 E73.05553
G1 X75.500 Y77.464 E73.30552
G1 X88.789 Y77.464 E73.94464
G1 X88.789 Y78.514 E73.99514
G1 X75.100 Y78.514 E74.65354
G1 X71.143 Y74.978 E74.90873
G1 X70.792 Y74.900 E74.92605
G1 X70.447 Y74.998 E74.94330
G1 X70.199 Y75.241 E74.96000
G1 X68.844 Y78.514 E75.13035
G1 X61.211 Y78.514 E75.49745
G1 X61.211 Y77.464 E75.54795
G1 X61.693 Y77.464 E75.57109
G1 X62.215 Y71.486 E75.85967
G1 X82.916 Y71.486 E76.85530
G1 X85.873 Y74.443 E77.05643
G1 X85.131 Y75.186 E77.10693
G1 X82.481 Y72.536 E77.28715
G1 X63.238 Y72.536 E78.21270
G1 X62.780 Y72.497 F7800.000
G1 Z2.800 F7800.000
; PURGING FINISHED
G1 X62.824 Y72.151
G1 F3600
G1 X62.326 Y77.849 E78.48782
G1 X68.400 Y77.849 E78.77997
G1 X69.643 Y74.848 E78.93619
G1 X69.985 Y74.418 E78.96261
G1 X70.433 Y74.185 E78.98692
G1 X70.937 Y74.153 E79.01122
G1 X71.424 Y74.334 E79.03621
G1 X75.353 Y77.849 E79.28977
G1 X88.403 Y77.849 E79.91743
G1 X88.403 Y78.128 E79.93084
G1 X75.247 Y78.128 E80.56361
G1 X71.325 Y74.624 E80.81656
G1 X70.780 Y74.502 E80.84342
G1 X70.247 Y74.654 E80.87010
G1 X69.873 Y75.021 E80.89530
G1 X68.586 Y78.128 E81.05702
G1 X61.597 Y78.128 E81.39319
G1 X61.597 Y77.849 E81.40659
G1 X62.046 Y77.849 E81.42819
G1 X62.569 Y71.872 E81.71677
G1 X82.756 Y71.872 E82.68772
G1 X85.328 Y74.443 E82.86262
G1 X85.131 Y74.641 E82.87603
G1 X82.641 Y72.151 E83.04537
G1 X62.884 Y72.151 E83.99560
G1 X63.178 Y72.536 F7800.000
G1 F1800
G1 X62.747 Y77.464 E84.23348
G1 X68.142 Y77.464 E84.49301
G1 X69.307 Y74.651 E84.63944
G1 X69.734 Y74.114 E84.67240
G1 X70.327 Y73.805 E84.70458
G1 X70.995 Y73.763 E84.73676
G1 X71.627 Y73.998 E84.76919
G1 X75.500 Y77.464 E85.01918
G1 X88.789 Y77.464 E85.65830
G1 X88.789 Y78.514 E85.70880
G1 X75.100 Y78.514 E86.36720
G1 X71.143 Y74.978 E86.62239
G1 X70.792 Y74.900 E86.63971
G1 X70.447 Y74.998 E86.65696
G1 X70.199 Y75.241 E86.67366
G1 X68.844 Y78.514 E86.84400
G1 X61.211 Y78.514 E87.21111
G1 X61.211 Y77.464 E87.26161
G1 X61.693 Y77.464 E87.28475
G1 X62.215 Y71.486 E87.57333
G1 X82.916 Y71.486 E88.56896
G1 X85.873 Y74.443 E88.77009
G1 X85.131 Y75.186 E88.82059
G1 X82.481 Y72.536 E89.00080
G1 X63.238 Y72.536 E89.92635
G1 X62.780 Y72.497 F7800.000
G1 Z3.100 F7800.000
; PURGING FINISHED
G1 X62.824 Y72.151
G1 F3600
G1 X62.326 Y77.849 E90.20147
G1 X68.400 Y77.849 E90.49363
G1 X69.643 Y74.848 E90.64985
G1 X69.985 Y74.418 E90.67627
G1 X70.433 Y74.185 E90.70057
G1 X70.937 Y74.153 E90.72488
G1 X71.424 Y74.334 E90.74986
G1 X75.353 Y77.849 E91.00343
G1 X88.403 Y77.849 E91.63109
G1 X88.403 Y78.128 E91.64450
G1 X75.247 Y78.128 E92.27727
G1 X71.325 Y74.624 E92.53021
G1 X70.780 Y74.502 E92.55708
G1 X70.247 Y74.654 E92.58376
G1 X69.873 Y75.021 E92.60895
G1 X68.586 Y78.128 E92.77068
G1 X61.597 Y78.128 E93.10684
G1 X61.597 Y77.849 E93.12025
G1 X62.046 Y77.849 E93.14184
G1 X62.569 Y71.872 E93.43042
