; generated by Slic3r Prusa Edition 1.39.1-alpha-prusa3d-win64 on 2018-02-06 at 17:58:22

; 

; external perimeters extrusion width = 0.45mm
; perimeters extrusion width = 0.45mm
; infill extrusion width = 0.45mm
; solid infill extrusion width = 0.45mm
; top infill extrusion width = 0.40mm
; first layer extrusion width = 0.80mm

M107
M104 S205 ; set temperature
G28 ; home all axes
G1 Z5 F5000 ; lift nozzle
; Filament gcode
M109 S205 ; set temperature and wait for it to be reached
G21 ; set units to millimeters
G90 ; use absolute coordinates
M82 ; use absolute distances for extrusion
G92 E0
G1 Z0.400 F7800.000
G1 E-2.00000 F2400.00000
G92 E0
G1 X66.950 Y61.844 F7800.000
G1 E2.00000 F2400.00000
G1 F1800
G1 X67.771 Y61.109 E2.13084
G1 X68.653 Y60.459 E2.26092
G1 X69.689 Y59.846 E2.40394
G1 X70.671 Y59.390 E2.53250
G1 X71.673 Y59.035 E2.65878
G1 X72.729 Y58.769 E2.78810
G1 X73.908 Y58.594 E2.92960
G1 X75.008 Y58.542 E3.06044
G1 X76.096 Y58.594 E3.18976
G1 X77.287 Y58.773 E3.33279
G1 X78.348 Y59.042 E3.46287
G1 X79.373 Y59.410 E3.59218
G1 X80.460 Y59.927 E3.73520
G1 X81.392 Y60.491 E3.86452
G1 X82.271 Y61.145 E3.99461
G1 X83.151 Y61.948 E4.13612
G1 X83.891 Y62.773 E4.26770
G1 X84.536 Y63.649 E4.39702
G1 X85.150 Y64.686 E4.54006
G1 X85.607 Y65.667 E4.66861
G1 X85.965 Y66.675 E4.79565
G1 X86.230 Y67.731 E4.92498
G1 X86.405 Y68.910 E5.06648
G1 X86.458 Y70.004 E5.19655
G1 X86.406 Y71.091 E5.32587
G1 X86.228 Y72.282 E5.46891
G1 X85.959 Y73.344 E5.59897
G1 X85.590 Y74.375 E5.72905
G1 X85.072 Y75.462 E5.87207
G1 X84.508 Y76.394 E6.00140
G1 X83.854 Y77.273 E6.13147
G1 X83.051 Y78.153 E6.27297
G1 X82.227 Y78.893 E6.40457
G1 X81.350 Y79.538 E6.53389
G1 X80.314 Y80.152 E6.67692
G1 X79.332 Y80.609 E6.80547
G1 X78.330 Y80.965 E6.93176
G1 X77.268 Y81.232 E7.06184
G1 X76.090 Y81.408 E7.20335
G1 X74.996 Y81.460 E7.33341
G1 X73.902 Y81.407 E7.46350
G1 X72.717 Y81.230 E7.60577
G1 X71.655 Y80.961 E7.73583
G1 X70.624 Y80.592 E7.86592
G1 X69.537 Y80.074 E8.00894
G1 X68.605 Y79.510 E8.13826
G1 X67.727 Y78.856 E8.26834
G1 X66.846 Y78.053 E8.40985
G1 X66.107 Y77.229 E8.54144
G1 X65.461 Y76.352 E8.67076
G1 X64.847 Y75.316 E8.81379
G1 X64.391 Y74.334 E8.94235
G1 X64.033 Y73.326 E9.06938
G1 X63.767 Y72.270 E9.19870
G1 X63.592 Y71.092 E9.34021
G1 X63.540 Y69.998 E9.47028
G1 X63.592 Y68.904 E9.60036
G1 X63.769 Y67.719 E9.74263
G1 X64.038 Y66.657 E9.87270
G1 X64.408 Y65.626 E10.00279
G1 X64.925 Y64.539 E10.14581
G1 X65.492 Y63.602 E10.27589
G1 X66.147 Y62.724 E10.40596
G1 X66.910 Y61.888 E10.54034
G1 E8.54034 F2400.00000
G92 E0
G1 X77.060 Y72.056 F7800.000
G1 E2.00000 F2400.00000
G1 F1800
G1 X76.835 Y72.264 E2.03645
G1 X76.627 Y72.418 E2.06722
G1 X76.417 Y72.546 E2.09638
G1 X76.081 Y72.706 E2.14060
G1 X75.857 Y72.786 E2.16890
G1 X75.561 Y72.860 E2.20510
G1 X75.249 Y72.904 E2.24251
G1 X74.999 Y72.915 E2.27229
G1 X74.483 Y72.869 E2.33377
G1 X74.244 Y72.815 E2.36293
G1 X73.891 Y72.696 E2.40715
G1 X73.674 Y72.597 E2.43545
G1 X73.411 Y72.444 E2.47165
G1 X73.156 Y72.259 E2.50905
G1 X72.968 Y72.092 E2.53884
G1 X72.796 Y71.909 E2.56875
G1 X72.609 Y71.668 E2.60495
G1 X72.442 Y71.400 E2.64236
G1 X72.331 Y71.176 E2.67214
G1 X72.242 Y70.947 E2.70130
G1 X72.144 Y70.588 E2.74552
G1 X72.107 Y70.359 E2.77307
G1 X72.084 Y69.987 E2.81729
G1 X72.095 Y69.755 E2.84483
G1 X72.149 Y69.394 E2.88820
G1 X72.223 Y69.113 E2.92278
G1 X72.335 Y68.818 E2.96019
G1 X72.581 Y68.372 E3.02069
G1 X72.727 Y68.175 E3.04984
G1 X72.978 Y67.900 E3.09407
G1 X73.370 Y67.583 E3.15393
G1 X73.580 Y67.455 E3.18309
G1 X73.909 Y67.298 E3.22645
G1 X74.185 Y67.203 E3.26104
G1 X74.491 Y67.131 E3.29845
G1 X74.733 Y67.098 E3.32737
G1 X75.037 Y67.087 E3.36357
G1 X75.352 Y67.108 E3.40098
G1 X75.592 Y67.147 E3.42991
G1 X75.886 Y67.226 E3.46611
G1 X76.181 Y67.337 E3.50351
G1 X76.621 Y67.579 E3.56315
G1 X76.864 Y67.763 E3.59935
G1 X77.096 Y67.977 E3.63676
G1 X77.416 Y68.372 E3.69725
G1 X77.544 Y68.582 E3.72641
G1 X77.704 Y68.918 E3.77063
G1 X77.784 Y69.143 E3.79893
G1 X77.858 Y69.438 E3.83513
G1 X77.902 Y69.750 E3.87254
G1 X77.913 Y69.987 E3.90071
G1 X77.891 Y70.359 E3.94493
G1 X77.851 Y70.601 E3.97409
G1 X77.788 Y70.845 E4.00400
G1 X77.684 Y71.131 E4.04020
G1 X77.547 Y71.415 E4.07761
G1 X77.416 Y71.629 E4.10739
G1 X77.270 Y71.826 E4.13655
G1 X77.101 Y72.011 E4.16632
G1 X77.587 Y72.538 F7800.000
G1 F1800
G1 X77.286 Y72.819 E4.21533
G1 X77.026 Y73.011 E4.25365
G1 X76.758 Y73.175 E4.29098
G1 X76.355 Y73.367 E4.34401
G1 X76.063 Y73.471 E4.38082
G1 X75.698 Y73.561 E4.42544
G1 X75.316 Y73.616 E4.47132
G1 X74.999 Y73.630 E4.50904
G1 X74.676 Y73.616 E4.54735
G1 X74.357 Y73.573 E4.58567
G1 X74.050 Y73.504 E4.62300
G1 X73.627 Y73.361 E4.67603
G1 X73.345 Y73.232 E4.71284
G1 X73.020 Y73.043 E4.75746
G1 X72.708 Y72.816 E4.80334
G1 X72.470 Y72.605 E4.84105
G1 X72.252 Y72.373 E4.87885
G1 X72.022 Y72.076 E4.92347
G1 X71.818 Y71.749 E4.96935
G1 X71.677 Y71.464 E5.00706
G1 X71.563 Y71.171 E5.04439
G1 X71.445 Y70.740 E5.09742
G1 X71.396 Y70.438 E5.13377
G1 X71.369 Y69.992 E5.18680
G1 X71.383 Y69.687 E5.22315
G1 X71.448 Y69.249 E5.27566
G1 X71.543 Y68.894 E5.31930
G1 X71.679 Y68.533 E5.36517
G1 X71.820 Y68.248 E5.40289
G1 X71.988 Y67.973 E5.44121
G1 X72.175 Y67.720 E5.47854
G1 X72.477 Y67.391 E5.53157
G1 X72.712 Y67.182 E5.56890
G1 X72.971 Y66.990 E5.60722
G1 X73.239 Y66.826 E5.64455
G1 X73.638 Y66.636 E5.69706
G1 X73.986 Y66.516 E5.74069
G1 X74.362 Y66.428 E5.78657
G1 X74.672 Y66.386 E5.82376
G1 X75.047 Y66.372 E5.86839
G1 X75.433 Y66.397 E5.91426
G1 X75.742 Y66.448 E5.95146
G1 X76.105 Y66.545 E5.99608
G1 X76.466 Y66.681 E6.04196
G1 X76.751 Y66.822 E6.07967
G1 X77.023 Y66.988 E6.11746
G1 X77.323 Y67.214 E6.16209
G1 X77.606 Y67.476 E6.20796
G1 X77.817 Y67.714 E6.24568
G1 X78.009 Y67.973 E6.28399
G1 X78.173 Y68.241 E6.32133
G1 X78.365 Y68.644 E6.37436
G1 X78.469 Y68.936 E6.41117
G1 X78.559 Y69.301 E6.45579
G1 X78.614 Y69.683 E6.50167
G1 X78.628 Y69.992 E6.53840
G1 X78.601 Y70.438 E6.59143
G1 X78.550 Y70.748 E6.62876
G1 X78.471 Y71.056 E6.66655
G1 X78.343 Y71.410 E6.71118
G1 X78.175 Y71.757 E6.75705
G1 X78.009 Y72.028 E6.79477
G1 X77.822 Y72.281 E6.83210
G1 X77.628 Y72.493 E6.86627
G1 X78.114 Y73.020 F7800.000
G1 F1800
G1 X77.736 Y73.374 E6.92785
G1 X77.426 Y73.604 E6.97371
G1 X77.099 Y73.804 E7.01922
G1 X76.629 Y74.028 E7.08106
G1 X76.269 Y74.155 E7.12638
G1 X75.836 Y74.263 E7.17942
G1 X75.383 Y74.328 E7.23377
G1 X74.999 Y74.345 E7.27942
G1 X74.613 Y74.328 E7.32528
G1 X74.230 Y74.277 E7.37114
G1 X73.856 Y74.192 E7.41665
G1 X73.363 Y74.025 E7.47849
G1 X73.016 Y73.866 E7.52381
G1 X72.630 Y73.642 E7.57685
G1 X72.260 Y73.373 E7.63120
G1 X71.972 Y73.118 E7.67685
G1 X71.709 Y72.838 E7.72252
G1 X71.435 Y72.485 E7.77556
G1 X71.193 Y72.097 E7.82991
G1 X71.023 Y71.752 E7.87556
G1 X70.884 Y71.395 E7.92107
G1 X70.747 Y70.893 E7.98290
G1 X70.685 Y70.517 E8.02806
G1 X70.654 Y69.998 E8.08989
G1 X70.671 Y69.618 E8.13505
G1 X70.748 Y69.104 E8.19670
G1 X70.862 Y68.676 E8.24939
G1 X71.024 Y68.248 E8.30374
G1 X71.194 Y67.903 E8.34938
G1 X71.395 Y67.574 E8.39525
G1 X71.623 Y67.266 E8.44075
G1 X71.975 Y66.881 E8.50259
G1 X72.261 Y66.627 E8.54810
G1 X72.572 Y66.397 E8.59396
G1 X72.899 Y66.198 E8.63947
G1 X73.367 Y65.974 E8.70112
G1 X73.787 Y65.829 E8.75381
G1 X74.232 Y65.724 E8.80816
G1 X74.611 Y65.674 E8.85361
G1 X75.058 Y65.657 E8.90666
G1 X75.514 Y65.687 E8.96101
G1 X75.892 Y65.749 E9.00646
G1 X76.324 Y65.864 E9.05951
G1 X76.752 Y66.026 E9.11386
G1 X77.096 Y66.196 E9.15950
G1 X77.424 Y66.397 E9.20518
G1 X77.781 Y66.665 E9.25822
G1 X78.117 Y66.976 E9.31257
G1 X78.372 Y67.263 E9.35822
G1 X78.602 Y67.574 E9.40408
G1 X78.802 Y67.901 E9.44959
G1 X79.026 Y68.371 E9.51142
G1 X79.153 Y68.730 E9.55674
G1 X79.261 Y69.164 E9.60979
G1 X79.326 Y69.617 E9.66413
G1 X79.343 Y69.998 E9.70943
G1 X79.312 Y70.517 E9.77126
G1 X79.250 Y70.896 E9.81677
G1 X79.154 Y71.268 E9.86245
G1 X79.002 Y71.688 E9.91549
G1 X78.802 Y72.100 E9.96984
G1 X78.602 Y72.428 E10.01548
G1 X78.374 Y72.736 E10.06099
G1 X78.155 Y72.975 E10.09957
G1 X77.727 Y72.920 F7800.000
G1 E8.09957 F2400.00000
G92 E0
G1 X77.598 Y69.284 F7800.000
G1 E2.00000 F2400.00000
G1 F1800
G1 X76.391 Y68.077 E2.22167
G1 X76.147 Y67.918 E2.25945
G1 X75.723 Y67.736 E2.31937
G1 X75.479 Y67.672 E2.35203
G1 X75.030 Y67.623 E2.41074
G1 X74.841 Y67.630 E2.43527
G1 X77.366 Y70.156 E2.89885
G1 X77.358 Y70.287 E2.91594
G1 X77.272 Y70.697 E2.97035
G1 X77.138 Y71.031 E3.01702
G1 X73.969 Y67.863 E3.59858
G1 X73.846 Y67.921 E3.61628
G1 X73.491 Y68.161 E3.67191
G1 X73.322 Y68.319 E3.70195
G1 X76.680 Y71.678 E4.31849
G1 X76.506 Y71.840 E4.34942
G1 X76.151 Y72.080 E4.40504
G1 X76.034 Y72.135 E4.42180
G1 X72.861 Y68.962 E5.00428
G1 X72.734 Y69.277 E5.04831
G1 X72.674 Y69.503 E5.07869
G1 X72.627 Y69.832 E5.12186
G1 X75.164 Y72.369 E5.58745
G1 X74.787 Y72.368 E5.63630
G1 X74.377 Y72.295 E5.69040
G1 X74.089 Y72.198 E5.72992
G1 X73.703 Y71.994 E5.78647
G1 X72.399 Y70.708 E6.02428
G1 Z0.700 F7800.000
M104 S200 ; set temperature
G1 X77.363 Y72.332 F7800.000
G1 F900
G1 X77.094 Y72.582 E6.04197
G1 X76.856 Y72.758 E6.05618
G1 X76.610 Y72.908 E6.07004
G1 X76.245 Y73.082 E6.08948
G1 X75.921 Y73.194 E6.10595
G1 X75.583 Y73.274 E6.12269
G1 X75.301 Y73.311 E6.13635
G1 X74.893 Y73.323 E6.15600
G1 X74.605 Y73.302 E6.16986
G1 X74.318 Y73.255 E6.18387
G1 X73.980 Y73.165 E6.20069
G1 X73.655 Y73.042 E6.21743
G1 X73.400 Y72.916 E6.23109
G1 X73.055 Y72.697 E6.25074
G1 X72.834 Y72.524 E6.26424
G1 X72.541 Y72.239 E6.28390
G1 X72.356 Y72.018 E6.29775
G1 X72.187 Y71.776 E6.31197
G1 X72.044 Y71.525 E6.32583
G1 X71.880 Y71.151 E6.34548
G1 X71.791 Y70.877 E6.35934
G1 X71.727 Y70.593 E6.37335
G1 X71.684 Y70.246 E6.39017
G1 X71.676 Y69.898 E6.40691
G1 X71.697 Y69.607 E6.42092
G1 X71.744 Y69.320 E6.43493
G1 X71.835 Y68.982 E6.45175
G1 X71.958 Y68.657 E6.46849
G1 X72.087 Y68.395 E6.48250
G1 X72.239 Y68.147 E6.49651
G1 X72.449 Y67.868 E6.51333
G1 X72.686 Y67.612 E6.53007
G1 X72.904 Y67.419 E6.54409
G1 X73.141 Y67.243 E6.55830
G1 X73.387 Y67.093 E6.57216
G1 X73.752 Y66.919 E6.59160
G1 X74.076 Y66.807 E6.60807
G1 X74.415 Y66.728 E6.62481
G1 X74.699 Y66.690 E6.63862
G1 X75.049 Y66.677 E6.65544
G1 X75.396 Y66.700 E6.67218
G1 X75.679 Y66.746 E6.68599
G1 X76.017 Y66.837 E6.70281
G1 X76.343 Y66.960 E6.71955
G1 X76.604 Y67.089 E6.73356
G1 X76.856 Y67.243 E6.74777
G1 X77.088 Y67.414 E6.76163
G1 X77.384 Y67.685 E6.78093
G1 X77.646 Y67.989 E6.80023
G1 X77.810 Y68.226 E6.81409
G1 X77.954 Y68.479 E6.82809
G1 X78.097 Y68.798 E6.84492
G1 X78.207 Y69.128 E6.86166
G1 X78.269 Y69.405 E6.87531
G1 X78.318 Y69.811 E6.89497
G1 X78.322 Y70.099 E6.90883
G1 X78.300 Y70.390 E6.92283
G1 X78.241 Y70.734 E6.93966
G1 X78.147 Y71.069 E6.95640
G1 X78.041 Y71.341 E6.97041
G1 X77.910 Y71.606 E6.98462
G1 X77.756 Y71.858 E6.99883
G1 X77.585 Y72.090 E7.01269
G1 X77.403 Y72.288 E7.02562
G1 X77.647 Y72.593 F7800.000
G1 F900
G1 X77.337 Y72.882 E7.04605
G1 X77.072 Y73.078 E7.06191
G1 X76.794 Y73.248 E7.07756
G1 X76.391 Y73.440 E7.09901
G1 X76.029 Y73.565 E7.11747
G1 X75.653 Y73.653 E7.13605
G1 X75.333 Y73.696 E7.15157
G1 X74.884 Y73.710 E7.17315
G1 X74.560 Y73.685 E7.18880
G1 X74.237 Y73.632 E7.20454
G1 X73.862 Y73.532 E7.22321
G1 X73.500 Y73.395 E7.24179
G1 X73.211 Y73.252 E7.25731
G1 X72.832 Y73.013 E7.27889
G1 X72.580 Y72.814 E7.29432
G1 X72.258 Y72.502 E7.31590
G1 X72.049 Y72.252 E7.33155
G1 X71.861 Y71.982 E7.34741
G1 X71.700 Y71.699 E7.36306
G1 X71.519 Y71.288 E7.38464
G1 X71.419 Y70.979 E7.40028
G1 X71.347 Y70.660 E7.41602
G1 X71.299 Y70.274 E7.43469
G1 X71.290 Y69.888 E7.45328
G1 X71.314 Y69.562 E7.46902
G1 X71.367 Y69.239 E7.48475
G1 X71.467 Y68.864 E7.50343
G1 X71.604 Y68.502 E7.52201
G1 X71.749 Y68.209 E7.53775
G1 X71.920 Y67.930 E7.55349
G1 X72.153 Y67.620 E7.57216
G1 X72.416 Y67.336 E7.59074
G1 X72.660 Y67.119 E7.60648
G1 X72.926 Y66.923 E7.62235
G1 X73.203 Y66.753 E7.63799
G1 X73.606 Y66.562 E7.65945
G1 X73.969 Y66.436 E7.67790
G1 X74.345 Y66.348 E7.69648
G1 X74.667 Y66.305 E7.71210
G1 X75.054 Y66.291 E7.73077
G1 X75.440 Y66.316 E7.74936
G1 X75.760 Y66.369 E7.76497
G1 X76.136 Y66.469 E7.78364
G1 X76.497 Y66.606 E7.80223
G1 X76.790 Y66.751 E7.81797
G1 X77.072 Y66.923 E7.83383
G1 X77.333 Y67.116 E7.84948
G1 X77.661 Y67.416 E7.87084
G1 X77.951 Y67.753 E7.89220
G1 X78.136 Y68.020 E7.90784
G1 X78.299 Y68.304 E7.92358
G1 X78.457 Y68.658 E7.94225
G1 X78.579 Y69.025 E7.96084
G1 X78.650 Y69.340 E7.97636
G1 X78.703 Y69.785 E7.99794
G1 X78.708 Y70.111 E8.01359
G1 X78.684 Y70.437 E8.02932
G1 X78.617 Y70.819 E8.04800
G1 X78.513 Y71.192 E8.06658
G1 X78.395 Y71.497 E8.08232
G1 X78.248 Y71.792 E8.09818
G1 X78.076 Y72.074 E8.11405
G1 X77.883 Y72.335 E8.12969
G1 X77.688 Y72.548 E8.14358
G1 X77.932 Y72.853 F7800.000
G1 F900
G1 X77.580 Y73.182 E8.16676
G1 X77.287 Y73.399 E8.18427
G1 X76.978 Y73.588 E8.20171
G1 X76.538 Y73.797 E8.22517
G1 X76.136 Y73.936 E8.24561
G1 X75.722 Y74.033 E8.26604
G1 X75.364 Y74.081 E8.28342
G1 X74.876 Y74.096 E8.30693
G1 X74.514 Y74.069 E8.32436
G1 X74.156 Y74.010 E8.34183
G1 X73.743 Y73.900 E8.36235
G1 X73.346 Y73.749 E8.38278
G1 X73.022 Y73.589 E8.40017
G1 X72.609 Y73.328 E8.42367
G1 X72.325 Y73.105 E8.44103
G1 X71.975 Y72.765 E8.46453
G1 X71.742 Y72.487 E8.48197
G1 X71.534 Y72.188 E8.49948
G1 X71.355 Y71.873 E8.51691
G1 X71.158 Y71.426 E8.54042
G1 X71.047 Y71.081 E8.55785
G1 X70.967 Y70.726 E8.57532
G1 X70.914 Y70.303 E8.59584
G1 X70.904 Y69.878 E8.61627
G1 X70.931 Y69.516 E8.63374
G1 X70.990 Y69.158 E8.65121
G1 X71.099 Y68.746 E8.67173
G1 X71.250 Y68.348 E8.69216
G1 X71.411 Y68.023 E8.70962
G1 X71.600 Y67.713 E8.72709
G1 X71.857 Y67.372 E8.74761
G1 X72.146 Y67.061 E8.76804
G1 X72.417 Y66.819 E8.78551
G1 X72.710 Y66.603 E8.80302
G1 X73.019 Y66.414 E8.82046
G1 X73.460 Y66.204 E8.84392
G1 X73.861 Y66.065 E8.86436
G1 X74.275 Y65.968 E8.88478
G1 X74.634 Y65.920 E8.90221
G1 X75.060 Y65.905 E8.92273
G1 X75.484 Y65.933 E8.94316
G1 X75.842 Y65.992 E8.96058
G1 X76.254 Y66.101 E8.98110
G1 X76.651 Y66.252 E9.00153
G1 X76.977 Y66.413 E9.01900
G1 X77.287 Y66.603 E9.03651
G1 X77.579 Y66.818 E9.05394
G1 X77.938 Y67.147 E9.07737
G1 X78.256 Y67.516 E9.10079
G1 X78.463 Y67.814 E9.11823
G1 X78.643 Y68.129 E9.13569
G1 X78.817 Y68.518 E9.15622
G1 X78.951 Y68.922 E9.17664
G1 X79.030 Y69.274 E9.19403
G1 X79.088 Y69.760 E9.21754
G1 X79.094 Y70.122 E9.23497
G1 X79.067 Y70.484 E9.25244
G1 X78.994 Y70.905 E9.27296
G1 X78.879 Y71.314 E9.29339
G1 X78.748 Y71.652 E9.31086
G1 X78.586 Y71.979 E9.32837
G1 X78.397 Y72.289 E9.34589
G1 X78.181 Y72.581 E9.36332
G1 X77.972 Y72.809 E9.37817
G1 X77.545 Y72.753 F7800.000
G1 X77.888 Y71.391 F7800.000
G1 F1200
G1 X76.396 Y72.882 E9.48434
G1 X75.546 Y73.162 F7800.000
G1 F1200
G1 X77.927 Y70.780 E9.65382
G1 X78.013 Y70.354 E9.67569
G1 X78.032 Y70.106 E9.68822
G1 X75.109 Y73.028 E9.89617
G1 X74.899 Y73.034 E9.90676
G1 X74.564 Y73.002 E9.92368
G1 X77.998 Y69.569 E10.16801
G1 X77.894 Y69.102 E10.19206
G1 X74.099 Y72.897 E10.46211
G1 X73.689 Y72.736 E10.48425
G1 X77.733 Y68.692 E10.77202
G1 X77.528 Y68.327 E10.79311
G1 X73.327 Y72.528 E11.09205
G1 X73.001 Y72.283 E11.11256
G1 X77.278 Y68.006 E11.41694
G1 X77.176 Y67.887 E11.42484
G1 X76.993 Y67.720 E11.43727
G1 X72.716 Y71.998 E11.74168
G1 X72.469 Y71.674 E11.76216
G1 X76.673 Y67.470 E12.06134
G1 X76.308 Y67.265 E12.08243
G1 X72.265 Y71.308 E12.37014
G1 X72.102 Y70.900 E12.39225
G1 X75.898 Y67.104 E12.66236
G1 X75.433 Y66.999 E12.68637
G1 X71.999 Y70.433 E12.93074
G1 X71.972 Y70.225 E12.94132
G1 X71.966 Y69.895 E12.95789
G1 X74.889 Y66.972 E13.16591
G1 X74.467 Y67.013 E13.18723
G1 X74.220 Y67.071 E13.20000
G1 X71.840 Y69.450 E13.36935
G1 X72.110 Y68.610 F7800.000
G1 F1200
G1 X73.601 Y67.119 E13.47542
G1 Z1.000 F7800.000
G1 X77.144 Y72.084 F7800.000
G1 F900
G1 X76.742 Y72.430 E13.50097
G1 X76.525 Y72.571 E13.51339
G1 X76.197 Y72.740 E13.53114
G1 X75.963 Y72.831 E13.54321
G1 X75.607 Y72.928 E13.56096
G1 X75.360 Y72.969 E13.57303
G1 X74.991 Y72.991 E13.59078
G1 X74.470 Y72.944 E13.61597
G1 X74.218 Y72.887 E13.62839
G1 X73.868 Y72.769 E13.64614
G1 X73.402 Y72.529 E13.67133
G1 X73.190 Y72.382 E13.68376
G1 X72.913 Y72.143 E13.70135
G1 X72.714 Y71.929 E13.71539
G1 X72.516 Y71.667 E13.73122
G1 X72.382 Y71.447 E13.74360
