; generated by Slic3r Prusa Edition 1.39.1-alpha-prusa3d-win64 on 2018-02-21 at 17:01:48

; 

; external perimeters extrusion width = 0.45mm
; perimeters extrusion width = 0.45mm
; infill extrusion width = 0.45mm
; solid infill extrusion width = 0.45mm
; top infill extrusion width = 0.40mm
; first layer extrusion width = 0.80mm

M107
M104 S200 ; set temperature
G28 ; home all axes
G1 Z5 F5000 ; lift nozzle
; Filament gcode
M109 S200 ; set temperature and wait for it to be reached
G21 ; set units to millimeters
G90 ; use absolute coordinates
M82 ; use absolute distances for extrusion
G92 E0
G1 Z0.400 F7800.000
G1 E-2.00000 F1800.00000
G92 E0
G1 X56.543 Y53.611 F7800.000
G1 E2.00000 F1800.00000
G1 F1800
G1 X57.707 Y52.775 E2.17018
G1 X59.010 Y52.182 E2.34021
G1 X60.434 Y51.850 E2.51384
G1 X61.352 Y51.787 E2.62321
G1 X78.621 Y51.786 E4.67409
G1 X79.564 Y51.848 E4.78632
G1 X80.418 Y52.012 E4.88964
G1 X81.307 Y52.297 E5.00054
G1 X82.191 Y52.716 E5.11671
G1 X82.991 Y53.232 E5.22978
G1 X83.658 Y53.791 E5.33310
G1 X84.302 Y54.480 E5.44505
G1 X84.863 Y55.266 E5.55981
G1 X85.318 Y56.126 E5.67531
G1 X95.365 Y78.227 E8.55869
G1 X95.736 Y79.263 E8.68931
G1 X95.907 Y80.122 E8.79340
G1 X95.964 Y80.990 E8.89672
G1 X95.963 Y91.615 E10.15858
G1 X95.759 Y93.147 E10.34216
G1 X95.484 Y93.993 E10.44776
G1 X95.100 Y94.795 E10.55336
G1 X94.613 Y95.539 E10.65896
G1 X94.033 Y96.212 E10.76457
G1 X93.368 Y96.803 E10.87017
G1 X92.631 Y97.301 E10.97577
G1 X91.829 Y97.699 E11.08213
G1 X90.987 Y97.986 E11.18773
G1 X89.381 Y98.213 E11.38037
G1 X79.148 Y98.213 E12.59577
G1 X77.971 Y98.091 E12.73624
G1 X76.840 Y97.767 E12.87596
G1 X57.550 Y88.306 E15.42771
G1 X56.457 Y87.488 E15.58982
G1 X55.503 Y86.440 E15.75810
G1 X54.784 Y85.261 E15.92210
G1 X54.273 Y83.878 E16.09721
G1 X54.104 Y83.031 E16.19978
G1 X54.036 Y82.094 E16.31141
G1 X54.042 Y58.841 E19.07305
G1 X54.171 Y57.741 E19.20454
G1 X54.475 Y56.639 E19.34036
G1 X54.945 Y55.600 E19.47573
G1 X55.549 Y54.675 E19.60696
G1 X56.502 Y53.654 E19.77281
G1 E17.77281 F1800.00000
G92 E0
G1 X77.900 Y81.232 F7800.000
G1 E2.00000 F1800.00000
G1 F1800
G1 X62.100 Y81.232 E3.87649
G1 X62.100 Y59.932 E6.40619
G1 X77.900 Y59.932 E8.28268
G1 X77.900 Y81.172 E10.80525
G1 X77.984 Y81.623 F7800.000
G1 X79.328 Y80.848 F7800.000
G1 F1800
G1 X79.328 Y78.788 E11.04984
G1 X79.627 Y78.693 E11.08702
G1 X79.814 Y78.957 E11.12544
G1 X80.652 Y79.871 E11.27274
G1 X81.573 Y80.651 E11.41604
G1 X82.602 Y81.325 E11.56215
G1 X83.735 Y81.881 E11.71203
G1 X84.964 Y82.314 E11.86684
G1 X86.298 Y82.621 E12.02941
G1 X87.422 Y82.757 E12.16380
G1 X87.422 Y89.672 E12.98506
G1 X81.078 Y89.672 E13.73843
G1 X81.078 Y80.848 E14.78641
G1 X79.388 Y80.848 E14.98712
G1 X80.364 Y81.562 F7800.000
G1 F1800
G1 X78.614 Y81.562 E15.19496
G1 X78.614 Y76.128 E15.84028
G1 X78.961 Y76.061 E15.88226
G1 X79.172 Y76.584 E15.94919
G1 X79.717 Y77.587 E16.08479
G1 X80.370 Y78.507 E16.21882
G1 X81.148 Y79.355 E16.35550
G1 X82.001 Y80.078 E16.48821
G1 X82.956 Y80.703 E16.62384
G1 X84.012 Y81.222 E16.76351
G1 X85.164 Y81.627 E16.90853
G1 X86.422 Y81.916 E17.06184
G1 X87.798 Y82.083 E17.22646
G1 X88.136 Y82.090 E17.26663
G1 X88.136 Y90.386 E18.25187
G1 X80.364 Y90.386 E19.17488
G1 X80.364 Y81.622 E20.21573
G1 X79.650 Y82.276 F7800.000
G1 F1800
G1 X61.427 Y82.276 E22.37996
G1 X61.312 Y82.255 E22.39390
G1 X61.222 Y82.204 E22.40617
G1 X61.170 Y82.114 E22.41850
G1 X61.150 Y81.998 E22.43248
G1 X61.150 Y59.172 E25.14341
G1 X61.171 Y59.060 E25.15693
G1 X61.211 Y58.990 E25.16653
G1 X61.274 Y58.938 E25.17621
G1 X61.407 Y58.900 E25.19261
G1 X78.649 Y58.909 E27.24038
G1 X78.759 Y58.948 E27.25421
G1 X78.828 Y59.047 E27.26860
G1 X78.850 Y59.169 E27.28333
G1 X78.847 Y71.835 E28.78755
G1 X78.917 Y73.026 E28.92928
G1 X79.107 Y74.177 E29.06781
G1 X79.408 Y75.259 E29.20125
G1 X79.819 Y76.279 E29.33182
G1 X80.324 Y77.208 E29.45744
G1 X80.927 Y78.057 E29.58111
G1 X81.644 Y78.840 E29.70716
G1 X82.429 Y79.504 E29.82927
G1 X83.311 Y80.081 E29.95445
G1 X84.289 Y80.562 E30.08390
G1 X85.363 Y80.940 E30.21913
G1 X86.545 Y81.212 E30.36317
G1 X87.848 Y81.370 E30.51912
G1 X88.850 Y81.391 E30.63810
G1 X88.850 Y91.100 E31.79114
G1 X79.650 Y91.100 E32.88378
G1 X79.650 Y82.336 E33.92463
G1 X79.544 Y81.890 F7800.000
G1 X78.257 Y81.754 F7800.000
G1 F1800
G1 X61.743 Y81.754 E34.53137
G1 X61.678 Y81.748 E34.53376
G1 X61.643 Y81.642 E34.53785
G1 F1800
G1 X61.625 Y81.589 E34.53924
G1 X61.625 Y59.575 E35.08839
G1 F1800
G1 X61.674 Y59.424 E35.09476
G1 X61.743 Y59.416 E35.09754
G1 X78.257 Y59.421 E35.75837
G1 X78.330 Y59.429 E35.76129
G1 X78.352 Y59.502 E35.76435
G1 F1800
G1 X78.375 Y59.575 E35.76623
G1 X78.374 Y71.852 E36.06751
G1 F1800
G1 X78.410 Y73.074 E36.11214
G1 F1800
G1 X78.435 Y73.392 E36.12645
G1 F1800
G1 X78.485 Y73.994 E36.16357
G1 F1800
G1 X78.512 Y74.322 E36.18684
G1 F1800
G1 X78.577 Y74.797 E36.22816
G1 F1800
G1 X78.642 Y75.272 E36.27696
G1 F1800
G1 X78.707 Y75.747 E36.33324
G1 X78.984 Y77.111 F7800.000
G1 F1800
G1 X79.355 Y78.405 E36.42310
G1 X79.685 Y80.049 F7800.000
G1 F1800
G1 X80.780 Y80.491 E36.49101
G1 E34.49101 F1800.00000
G92 E0
G1 X87.207 Y84.450 F7800.000
G1 E2.00000 F1800.00000
G1 F1800
G1 X85.818 Y83.060 E2.24202
G1 X84.815 Y82.829 E2.36869
G1 X84.390 Y82.680 E2.42411
G1 X86.886 Y85.176 E2.85868
G1 X86.886 Y86.223 E2.98760
G1 X82.568 Y81.905 E3.73946
G1 X82.337 Y81.791 E3.77123
G1 X81.614 Y81.318 E3.87754
G1 X81.614 Y81.997 E3.96115
G1 X86.886 Y87.270 E4.87917
G1 X86.886 Y88.317 E5.00808
G1 X81.614 Y83.044 E5.92610
G1 X81.614 Y84.092 E6.05501
G1 X86.658 Y89.136 E6.93339
G1 X85.611 Y89.136 E7.06231
G1 X81.614 Y85.139 E7.75837
G1 X81.614 Y86.186 E7.88729
G1 X84.564 Y89.136 E8.40103
G1 X83.517 Y89.136 E8.52995
G1 X81.614 Y87.233 E8.86138
G1 X81.614 Y88.280 E8.99030
G1 X82.792 Y89.457 E9.19537
G1 Z0.700 F7800.000
G1 E7.19537 F1800.00000
G92 E0
G1 X78.111 Y81.443 F7800.000
G1 E2.00000 F1800.00000
G1 F3600
G1 X61.889 Y81.443 E2.78019
G1 X61.889 Y59.722 E3.82490
G1 X78.111 Y59.722 E4.60509
G1 X78.111 Y81.383 E5.64692
G1 X77.725 Y81.057 F7800.000
G1 F1800
G1 X62.275 Y81.057 E6.39001
G1 X62.275 Y60.107 E7.39764
G1 X77.725 Y60.107 E8.14073
G1 X77.725 Y80.997 E9.14547
G1 X77.809 Y81.448 F7800.000
G1 X80.246 Y81.680 F7800.000
G1 F3600
G1 X78.496 Y81.680 E9.22964
G1 X78.496 Y74.952 E9.55322
G1 X78.696 Y74.925 E9.56294
G1 X78.841 Y75.444 E9.58886
G1 X79.281 Y76.538 E9.64559
G1 X79.816 Y77.523 E9.69949
G1 X80.463 Y78.433 E9.75320
G1 X81.240 Y79.279 E9.80846
G1 X82.071 Y79.983 E9.86085
G1 X83.013 Y80.599 E9.91496
G1 X84.058 Y81.113 E9.97096
G1 X85.188 Y81.511 E10.02858
G1 X86.429 Y81.798 E10.08985
G1 X87.807 Y81.965 E10.15663
G1 X88.254 Y81.975 E10.17811
G1 X88.254 Y90.504 E10.58833
G1 X80.246 Y90.504 E10.97346
G1 X80.246 Y81.740 E11.39498
G1 X79.861 Y82.065 F7800.000
G1 F3600
G1 X61.361 Y82.065 E12.28477
G1 X61.361 Y59.111 E13.38881
G1 X78.639 Y59.118 E14.21986
G1 X78.637 Y71.845 E14.83195
G1 X78.708 Y73.053 E14.89018
G1 X78.902 Y74.225 E14.94730
G1 X79.206 Y75.320 E15.00197
G1 X79.630 Y76.374 E15.05659
G1 X80.144 Y77.318 E15.10831
G1 X80.763 Y78.190 E15.15974
G1 X81.508 Y79.000 E15.21267
G1 X82.302 Y79.674 E15.26276
G1 X83.204 Y80.263 E15.31459
G1 X84.207 Y80.757 E15.36835
G1 X85.295 Y81.140 E15.42383
G1 X86.496 Y81.417 E15.48309
G1 X87.835 Y81.580 E15.54796
G1 X88.639 Y81.597 E15.58667
G1 X88.639 Y90.889 E16.03358
G1 X79.861 Y90.889 E16.45581
G1 X79.861 Y82.125 E16.87733
G1 X79.475 Y82.451 F7800.000
G1 F1800
G1 X61.412 Y82.451 E17.74611
G1 X61.251 Y82.422 E17.75398
G1 X61.080 Y82.307 E17.76388
G1 X61.003 Y82.174 E17.77125
G1 X60.975 Y82.013 E17.77913
G1 X60.975 Y59.156 E18.87849
G1 X61.004 Y58.998 E18.88620
G1 X61.075 Y58.876 E18.89302
G1 X61.185 Y58.784 E18.89988
G1 X61.310 Y58.736 E18.90635
G1 X61.399 Y58.725 E18.91065
G1 X78.668 Y58.733 E19.74121
G1 X78.820 Y58.784 E19.74894
G1 X78.926 Y58.873 E19.75560
G1 X78.997 Y58.995 E19.76238
G1 X79.025 Y59.154 E19.77011
G1 X79.022 Y71.833 E20.37996
G1 X79.092 Y73.010 E20.43667
G1 X79.279 Y74.141 E20.49182
G1 X79.572 Y75.196 E20.54447
G1 X79.980 Y76.209 E20.59697
G1 X80.472 Y77.114 E20.64652
G1 X81.063 Y77.947 E20.69567
G1 X81.775 Y78.722 E20.74627
G1 X82.533 Y79.364 E20.79406
G1 X83.395 Y79.928 E20.84360
G1 X84.357 Y80.400 E20.89513
G1 X85.403 Y80.769 E20.94848
G1 X86.563 Y81.037 E21.00571
G1 X87.862 Y81.195 E21.06868
G1 X89.025 Y81.220 E21.12462
G1 X89.025 Y91.275 E21.60822
G1 X79.475 Y91.275 E22.06754
G1 X79.475 Y82.511 E22.48906
G1 X79.366 Y82.066 F7800.000
G1 X78.303 Y81.754 F7800.000
G1 F1200
G1 X61.697 Y81.754 E22.85108
G1 X61.673 Y81.753 E22.85160
G1 X61.649 Y81.694 E22.85298
G1 F1200
G1 X61.625 Y81.636 E22.85360
G1 X61.625 Y59.529 E23.07078
G1 F1200
G1 X61.668 Y59.418 E23.07312
G1 X61.697 Y59.416 E23.07369
G1 X78.303 Y59.420 E23.40119
G1 X78.335 Y59.422 E23.40182
G1 X78.355 Y59.476 E23.40295
G1 F1200
G1 X78.375 Y59.529 E23.40349
G1 X78.374 Y71.854 E23.52083
G1 F1200
G1 X78.410 Y73.081 E23.54361
G1 F1200
G1 X78.435 Y73.394 E23.55143
G1 F1200
G1 X78.485 Y73.998 E23.57403
G1 F1200
G1 X78.512 Y74.322 E23.58837
G1 F1200
G1 X78.570 Y74.747 E23.61007
G1 X78.711 Y75.697 F7800.000
G1 F1200
G1 X78.741 Y75.850 E23.61079
G1 F1200
G1 X78.800 Y76.156 E23.61591
G1 F1200
G1 X78.859 Y76.462 E23.62471
G1 F1200
G1 X78.918 Y76.769 E23.63720
G1 X78.612 Y77.733 F7800.000
G1 F1200
G1 X79.253 Y77.092 E23.68106
G1 X79.446 Y77.448 E23.70063
G1 X78.785 Y78.109 E23.74585
G1 X78.785 Y78.657 E23.77240
G1 X79.652 Y77.791 E23.83168
G1 X79.880 Y78.112 E23.85072
G1 X78.785 Y79.206 E23.92559
G1 X78.785 Y79.754 E23.95214
G1 X80.107 Y78.433 E24.04260
G1 X80.350 Y78.738 E24.06149
G1 X78.785 Y80.303 E24.16856
G1 X78.785 Y80.852 E24.19511
G1 X80.613 Y79.024 E24.32016
G1 X80.876 Y79.310 E24.33895
G1 X78.795 Y81.391 E24.48132
G1 X79.344 Y81.391 E24.50786
G1 X81.151 Y79.583 E24.63156
G1 X81.448 Y79.835 E24.65039
G1 X79.892 Y81.391 E24.75687
G1 X80.441 Y81.391 E24.78341
G1 X81.745 Y80.086 E24.87267
G1 X82.059 Y80.321 E24.89164
G1 X80.535 Y81.845 E24.99591
G1 X80.535 Y82.393 E25.02246
G1 X82.391 Y80.538 E25.14943
G1 X82.723 Y80.755 E25.16860
G1 X80.535 Y82.942 E25.31827
G1 X80.535 Y83.491 E25.34482
G1 X83.075 Y80.952 E25.51857
G1 X83.442 Y81.132 E25.53840
G1 X80.535 Y84.039 E25.73731
G1 X80.535 Y84.588 E25.76385
G1 X83.810 Y81.313 E25.98794
G1 X84.202 Y81.470 E26.00835
G1 X80.535 Y85.137 E26.25924
G1 X80.535 Y85.685 E26.28578
G1 X84.608 Y81.613 E26.56443
G1 X85.013 Y81.756 E26.58524
G1 X80.535 Y86.234 E26.89165
G1 X80.535 Y86.782 E26.91819
G1 X85.450 Y81.868 E27.25446
G1 X85.895 Y81.971 E27.27659
G1 X80.535 Y87.331 E27.64336
G1 X80.535 Y87.880 E27.66991
G1 X86.341 Y82.074 E28.06717
G1 X86.827 Y82.137 E28.09086
G1 X80.535 Y88.428 E28.52134
G1 X80.535 Y88.977 E28.54789
G1 X87.316 Y82.197 E29.01185
G1 X87.807 Y82.254 E29.03577
G1 X80.535 Y89.526 E29.53332
G1 X80.535 Y90.074 E29.55986
G1 X87.965 Y82.645 E30.06822
G1 X87.965 Y83.194 E30.09477
G1 X80.944 Y90.215 E30.57519
G1 X81.492 Y90.215 E30.60173
G1 X87.965 Y83.742 E31.04461
G1 X87.965 Y84.291 E31.07116
G1 X82.041 Y90.215 E31.47650
G1 X82.590 Y90.215 E31.50304
G1 X87.965 Y84.840 E31.87084
G1 X87.965 Y85.388 E31.89739
G1 X83.138 Y90.215 E32.22764
G1 X83.687 Y90.215 E32.25419
G1 X87.965 Y85.937 E32.54691
G1 X87.965 Y86.485 E32.57345
G1 X84.235 Y90.215 E32.82863
G1 X84.784 Y90.215 E32.85517
G1 X87.965 Y87.034 E33.07281
G1 X87.965 Y87.583 E33.09935
G1 X85.333 Y90.215 E33.27945
G1 X85.881 Y90.215 E33.30599
G1 X87.965 Y88.131 E33.44854
G1 X87.965 Y88.680 E33.47509
G1 X86.430 Y90.215 E33.58010
G1 X86.979 Y90.215 E33.60665
G1 X87.965 Y89.229 E33.67412
G1 X87.965 Y89.777 E33.70066
G1 X87.354 Y90.388 E33.74246
G1 Z1.000 F7800.000
G1 X78.111 Y81.443 F7800.000
G1 F3600
G1 X61.889 Y81.443 E34.52265
G1 X61.889 Y59.722 E35.56737
G1 X78.111 Y59.722 E36.34755
G1 X78.111 Y81.383 E37.38939
G1 X77.725 Y81.057 F7800.000
G1 F1800
G1 X62.275 Y81.057 E38.13248
G1 X62.275 Y60.107 E39.14010
G1 X77.725 Y60.107 E39.88319
G1 X77.725 Y80.997 E40.88793
G1 X77.809 Y81.448 F7800.000
G1 X80.246 Y81.680 F7800.000
G1 F3600
G1 X78.496 Y81.680 E40.97210
G1 X78.496 Y74.953 E41.29566
G1 X78.696 Y74.925 E41.30537
G1 X78.839 Y75.438 E41.33097
G1 X79.283 Y76.542 E41.38821
G1 X79.816 Y77.522 E41.44184
G1 X80.463 Y78.434 E41.49563
G1 X81.249 Y79.287 E41.55140
G1 X82.071 Y79.983 E41.60326
G1 X83.012 Y80.598 E41.65729
G1 X84.058 Y81.113 E41.71335
G1 X85.180 Y81.508 E41.77059
G1 X86.418 Y81.795 E41.83171
G1 X87.808 Y81.965 E41.89907
G1 X88.254 Y81.975 E41.92051
G1 X88.254 Y90.504 E42.33073
G1 X80.246 Y90.504 E42.71586
G1 X80.246 Y81.740 E43.13738
G1 X79.861 Y82.065 F7800.000
G1 F3600
G1 X61.361 Y82.065 E44.02716
G1 X61.361 Y59.111 E45.13121
G1 X78.639 Y59.117 E45.96226
G1 X78.637 Y71.847 E46.57453
G1 X78.709 Y73.057 E46.63279
G1 X78.903 Y74.227 E46.68985
G1 X79.205 Y75.314 E46.74412
G1 X79.632 Y76.378 E46.79924
G1 X80.143 Y77.317 E46.85069
G1 X80.763 Y78.190 E46.90220
G1 X81.516 Y79.008 E46.95564
G1 X82.302 Y79.674 E47.00520
G1 X83.203 Y80.263 E47.05696
G1 X84.207 Y80.757 E47.11079
G1 X85.288 Y81.138 E47.16590
G1 X86.485 Y81.415 E47.22500
G1 X87.836 Y81.580 E47.29044
G1 X88.639 Y81.597 E47.32911
G1 X88.639 Y90.889 E47.77602
G1 X79.861 Y90.889 E48.19825
G1 X79.861 Y82.125 E48.61976
G1 X79.475 Y82.451 F7800.000
G1 F1800
G1 X61.412 Y82.451 E49.48855
G1 X61.251 Y82.422 E49.49641
G1 X61.126 Y82.350 E49.50333
G1 X61.027 Y82.232 E49.51073
G1 X60.975 Y82.013 E49.52157
G1 X60.975 Y59.156 E50.62092
G1 X61.004 Y58.998 E50.62864
G1 X61.075 Y58.876 E50.63545
G1 X61.185 Y58.783 E50.64235
G1 X61.302 Y58.738 E50.64836
G1 X61.400 Y58.725 E50.65315
G1 X78.668 Y58.732 E51.48368
G1 X78.810 Y58.776 E51.49083
G1 X78.926 Y58.873 E51.49809
G1 X78.997 Y58.995 E51.50488
G1 X79.025 Y59.154 E51.51261
G1 X79.022 Y71.836 E52.12259
G1 X79.092 Y73.014 E52.17933
G1 X79.280 Y74.144 E52.23442
G1 X79.570 Y75.190 E52.28667
G1 X79.981 Y76.213 E52.33968
G1 X80.471 Y77.113 E52.38895
G1 X81.063 Y77.947 E52.43817
G1 X81.783 Y78.729 E52.48929
G1 X82.533 Y79.364 E52.53655
G1 X83.394 Y79.927 E52.58602
G1 X84.357 Y80.400 E52.63762
G1 X85.396 Y80.767 E52.69060
G1 X86.552 Y81.035 E52.74769
G1 X87.863 Y81.195 E52.81122
G1 X89.025 Y81.220 E52.86711
G1 X89.025 Y91.275 E53.35071
G1 X79.475 Y91.275 E53.81003
G1 X79.475 Y82.511 E54.23155
G1 X79.366 Y82.066 F7800.000
G1 X80.133 Y81.564 F7800.000
G1 F1200
G1 X78.785 Y80.217 E54.32516
G1 X78.785 Y80.774 E54.35252
G1 X79.402 Y81.391 E54.39538
G1 X78.845 Y81.391 E54.42274
G1 X78.612 Y81.157 E54.43896
G1 X78.303 Y81.754 F7800.000
G1 F1200
G1 X61.697 Y81.754 E54.80098
G1 X61.673 Y81.753 E54.80149
G1 X61.649 Y81.694 E54.80287
G1 F1200
G1 X61.625 Y81.636 E54.80350
G1 X61.625 Y59.529 E55.02067
G1 F1200
G1 X61.668 Y59.418 E55.02303
G1 X61.697 Y59.416 E55.02360
G1 X78.303 Y59.420 E55.35277
G1 X78.335 Y59.422 E55.35339
G1 X78.355 Y59.475 E55.35452
G1 F1200
G1 X78.375 Y59.529 E55.35507
G1 X78.374 Y71.857 E55.47250
G1 F1200
G1 X78.410 Y73.084 E55.49536
G1 F1200
G1 X78.436 Y73.397 E55.50319
G1 F1200
G1 X78.485 Y74.001 E55.52581
G1 F1200
G1 X78.513 Y74.325 E55.54015
G1 F1200
G1 X78.570 Y74.748 E55.56177
G1 X78.711 Y75.696 F7800.000
G1 F1200
G1 X78.741 Y75.849 E55.56249
G1 F1200
G1 X78.800 Y76.156 E55.56762
G1 F1200
G1 X78.859 Y76.462 E55.57645
G1 F1200
G1 X78.919 Y76.769 E55.58896
G1 X79.551 Y77.640 F7800.000
G1 F1200
G1 X78.965 Y77.054 E55.62965
G1 X78.785 Y77.089 E55.63864
G1 X78.785 Y77.432 E55.65546
G1 X87.965 Y86.611 E56.29316
G1 X87.965 Y87.168 E56.32052
G1 X78.785 Y77.989 E56.95821
G1 X78.785 Y78.546 E56.98558
G1 X87.965 Y87.725 E57.62327
G1 X87.965 Y88.282 E57.65063
G1 X78.785 Y79.103 E58.28832
G1 X78.785 Y79.660 E58.31569
G1 X87.965 Y88.839 E58.95338
G1 X87.965 Y89.396 E58.98074
G1 X80.535 Y81.967 E59.49686
G1 X80.535 Y82.524 E59.52422
G1 X87.965 Y89.953 E60.04034
G1 X87.965 Y90.215 E60.05319
G1 X87.669 Y90.215 E60.06770
G1 X80.535 Y83.081 E60.56330
G1 X80.535 Y83.638 E60.59066
G1 X87.112 Y90.215 E61.04757
G1 X86.555 Y90.215 E61.07493
G1 X80.535 Y84.195 E61.49314
G1 X80.535 Y84.752 E61.52050
G1 X85.998 Y90.215 E61.90002
G1 X85.441 Y90.215 E61.92738
G1 X80.535 Y85.309 E62.26820
G1 X80.535 Y85.866 E62.29556
G1 X84.884 Y90.215 E62.59768
G1 X84.327 Y90.215 E62.62504
