; generated by Slic3r Prusa Edition 1.39.1-alpha-prusa3d-win64 on 2018-03-31 at 14:22:44

; 

; external perimeters extrusion width = 0.45mm
; perimeters extrusion width = 0.45mm
; infill extrusion width = 0.45mm
; solid infill extrusion width = 0.45mm
; top infill extrusion width = 0.40mm
; first layer extrusion width = 0.80mm

M107
M104 S200 ; set temperature
G28 ; home all axes
G1 Z5 F5000 ; lift nozzle
; Filament gcode
M109 S200 ; set temperature and wait for it to be reached
G21 ; set units to millimeters
G90 ; use absolute coordinates
M82 ; use absolute distances for extrusion
G92 E0
G1 Z0.400 F7800.000
G1 E-2.00000 F1800.00000
G92 E0
G1 X52.782 Y50.385 F7800.000
G1 E2.00000 F1800.00000
G1 F1800
G1 X53.731 Y49.391 E2.16317
G1 X54.862 Y48.611 E2.32635
G1 X56.135 Y48.076 E2.49028
G1 X57.483 Y47.813 E2.65346
G1 X81.669 Y47.786 E5.52586
G1 X82.619 Y47.854 E5.63904
G1 X83.551 Y48.057 E5.75223
G1 X84.444 Y48.389 E5.86542
G1 X85.276 Y48.841 E5.97785
G1 X86.036 Y49.405 E6.09027
G1 X86.713 Y50.076 E6.20346
G1 X87.285 Y50.830 E6.31589
G1 X87.748 Y51.663 E6.42908
G1 X98.478 Y83.843 E10.45773
G1 X98.626 Y85.164 E10.61561
G1 X98.626 Y95.551 E11.84927
G1 X98.559 Y96.451 E11.95639
G1 X98.373 Y97.327 E12.06275
G1 X98.068 Y98.182 E12.17063
G1 X97.649 Y98.988 E12.27850
G1 X97.126 Y99.731 E12.38638
G1 X96.507 Y100.396 E12.49426
G1 X95.804 Y100.971 E12.60214
G1 X95.030 Y101.446 E12.71002
G1 X94.199 Y101.813 E12.81789
G1 X93.320 Y102.065 E12.92653
G1 X91.999 Y102.214 E13.08441
G1 X81.534 Y102.213 E14.32722
G1 X80.421 Y102.098 E14.46012
G1 X79.343 Y101.801 E14.59301
G1 X54.881 Y91.149 E17.76166
G1 X53.699 Y90.331 E17.93239
G1 X52.714 Y89.276 E18.10388
G1 X51.978 Y88.033 E18.27538
G1 X51.524 Y86.663 E18.44687
G1 X51.373 Y85.284 E18.61156
G1 X51.377 Y54.270 E22.29501
G1 X51.495 Y53.227 E22.41957
G1 X51.774 Y52.216 E22.54413
G1 X52.206 Y51.261 E22.66869
G1 X52.750 Y50.435 E22.78612
G1 E20.78612 F1800.00000
G92 E0
G1 X80.525 Y84.112 F7800.000
G1 E2.00000 F1800.00000
G1 F1800
G1 X59.225 Y84.112 E4.52970
G1 X59.225 Y55.637 E7.91154
G1 X80.525 Y55.637 E10.44123
G1 X80.525 Y84.052 E13.81595
G1 X80.610 Y84.503 F7800.000
G1 X81.953 Y83.422 F7800.000
G1 F1800
G1 X81.953 Y81.433 E14.05208
G1 X83.568 Y83.344 E14.34921
G1 X85.358 Y84.857 E14.62755
G1 X87.378 Y86.036 E14.90531
G1 X89.583 Y86.811 E15.18294
G1 X90.084 Y86.871 E15.24285
G1 X90.084 Y93.672 E16.05049
G1 X83.491 Y93.672 E16.83355
G1 X83.491 Y83.422 E18.05089
G1 X82.013 Y83.422 E18.22637
G1 X82.777 Y84.136 F7800.000
G1 F1800
G1 X81.239 Y84.136 E18.40897
G1 X81.239 Y79.368 E18.97528
G1 X81.556 Y79.282 E19.01423
G1 X82.641 Y81.141 E19.26986
G1 X84.075 Y82.837 E19.53372
G1 X85.772 Y84.272 E19.79757
G1 X87.679 Y85.385 E20.05986
G1 X89.746 Y86.111 E20.32010
G1 X90.798 Y86.238 E20.44594
G1 X90.798 Y94.386 E21.41361
G1 X82.777 Y94.386 E22.36631
G1 X82.777 Y84.196 E23.57653
G1 X82.062 Y84.850 F7800.000
G1 F1800
G1 X58.487 Y84.850 E26.37642
G1 X58.487 Y54.900 E29.93343
G1 X81.262 Y54.900 E32.63831
G1 X81.262 Y75.024 E35.02834
G1 X81.501 Y77.003 E35.26509
G1 X82.179 Y78.932 E35.50794
G1 X83.226 Y80.727 E35.75476
G1 X84.582 Y82.331 E36.00413
G1 X86.185 Y83.686 E36.25350
G1 X87.980 Y84.734 E36.50032
G1 X89.909 Y85.412 E36.74317
G1 X91.512 Y85.605 E36.93494
G1 X91.512 Y95.100 E38.06265
G1 X82.062 Y95.100 E39.18498
G1 X82.062 Y84.910 E40.39520
G1 X81.964 Y84.462 F7800.000
G1 E38.39520 F1800.00000
G92 E0
G1 X85.303 Y85.073 F7800.000
G1 E2.00000 F1800.00000
G1 F1800
G1 X89.870 Y89.640 E2.80378
G1 X89.870 Y90.698 F7800.000
G1 F1800
G1 X84.026 Y84.855 E3.83224
G1 X84.026 Y85.913 E3.96395
G1 X89.549 Y91.435 E4.93584
G1 X89.549 Y92.493 E5.06755
G1 X84.026 Y86.971 E6.03945
G1 X84.026 Y88.030 E6.17115
G1 X89.133 Y93.136 E7.06990
G1 X88.075 Y93.136 E7.20160
G1 X84.026 Y89.088 E7.91408
G1 X84.026 Y90.146 E8.04579
G1 X87.016 Y93.136 E8.57201
G1 X85.958 Y93.136 E8.70372
G1 X84.026 Y91.205 E9.04367
G1 X84.026 Y92.263 E9.17538
G1 X85.221 Y93.457 E9.38563
G1 E7.38563 F1800.00000
G92 E0
G1 X89.870 Y88.582 F7800.000
G1 E2.00000 F1800.00000
G1 F1800
G1 X87.646 Y86.357 E2.39145
G1 E0.39145 F1800.00000
G92 E0
G1 X82.056 Y80.933 F7800.000
G1 E2.00000 F1800.00000
G1 F1800
G1 X81.749 Y80.500 E2.00384
G1 F1800
G1 X81.596 Y80.283 E2.00871
G1 X81.334 Y78.972 F7800.000
G1 F1800
G1 X81.272 Y78.604 E2.05147
G1 F1800
G1 X81.209 Y78.235 E2.08805
G1 F1800
G1 X81.146 Y77.867 E2.11844
G1 F1800
G1 X81.083 Y77.499 E2.14266
G1 F1800
G1 X81.020 Y77.131 E2.16070
G1 F1800
G1 X80.995 Y76.727 E2.17355
G1 F1800
G1 X80.950 Y75.978 E2.19108
G1 F1800
G1 X80.927 Y75.604 E2.19442
G1 Z0.700 F7800.000
G1 X80.736 Y84.323 F7800.000
G1 F3600
G1 X59.014 Y84.323 E3.23914
G1 X59.014 Y55.427 E4.62895
G1 X80.736 Y55.427 E5.67367
G1 X80.736 Y84.263 E7.06059
G1 X80.350 Y83.937 F7800.000
G1 F1800
G1 X59.400 Y83.937 E8.06822
G1 X59.400 Y55.812 E9.42093
G1 X80.350 Y55.812 E10.42856
G1 X80.350 Y83.877 E11.77839
G1 X80.435 Y84.328 F7800.000
G1 X82.659 Y84.254 F7800.000
G1 F3600
G1 X81.121 Y84.254 E11.85234
G1 X81.121 Y78.302 E12.13859
G1 X81.314 Y78.269 E12.14798
G1 X81.635 Y79.184 E12.19460
G1 X82.738 Y81.072 E12.29979
G1 X84.159 Y82.754 E12.40567
G1 X85.840 Y84.175 E12.51156
G1 X87.729 Y85.277 E12.61674
G1 X89.773 Y85.996 E12.72097
G1 X90.916 Y86.133 E12.77634
G1 X90.916 Y94.504 E13.17892
G1 X82.659 Y94.504 E13.57608
G1 X82.659 Y84.314 E14.06618
G1 X82.273 Y84.639 F7800.000
G1 F3600
G1 X58.698 Y84.639 E15.20006
G1 X58.698 Y55.111 E16.62029
G1 X81.052 Y55.111 E17.69543
G1 X81.052 Y75.037 E18.65381
G1 X81.294 Y77.051 E18.75140
G1 X81.987 Y79.021 E18.85183
G1 X83.054 Y80.849 E18.95363
G1 X84.432 Y82.480 E19.05635
G1 X86.063 Y83.859 E19.15906
G1 X87.891 Y84.926 E19.26087
G1 X89.861 Y85.618 E19.36129
G1 X91.302 Y85.791 E19.43108
G1 X91.302 Y94.889 E19.86866
G1 X82.273 Y94.889 E20.30291
G1 X82.273 Y84.699 E20.79301
G1 X81.887 Y85.025 F7800.000
G1 F1800
G1 X58.312 Y85.025 E21.92689
G1 X58.312 Y54.725 E23.38422
G1 X81.437 Y54.725 E24.49645
G1 X81.437 Y75.013 E25.47226
G1 X81.672 Y76.963 E25.56671
G1 X82.338 Y78.859 E25.66333
G1 X83.370 Y80.626 E25.76175
G1 X84.706 Y82.207 E25.86130
G1 X86.287 Y83.543 E25.96085
G1 X88.054 Y84.574 E26.05927
G1 X89.949 Y85.240 E26.15589
G1 X91.687 Y85.450 E26.24010
G1 X91.687 Y95.275 E26.71267
G1 X81.887 Y95.275 E27.18401
G1 X81.887 Y85.085 E27.67412
G1 X81.787 Y84.638 F7800.000
G1 X82.017 Y80.067 F7800.000
G1 F1200
G1 X81.410 Y80.674 E27.71631
G1 X81.410 Y81.232 E27.74374
G1 X82.096 Y80.546 E27.79140
G1 X82.301 Y80.899 E27.81145
G1 X81.410 Y81.789 E27.87341
G1 X81.410 Y82.347 E27.90084
G1 X82.508 Y81.249 E27.97720
G1 X82.764 Y81.551 E27.99666
G1 X81.410 Y82.905 E28.09079
G1 X81.410 Y83.462 E28.11822
G1 X83.019 Y81.854 E28.23012
G1 X83.275 Y82.156 E28.24958
G1 X81.466 Y83.965 E28.37539
G1 X82.023 Y83.965 E28.40281
G1 X83.530 Y82.458 E28.50760
G1 X83.785 Y82.760 E28.52706
G1 X82.581 Y83.965 E28.61083
G1 X82.948 Y83.965 E28.62887
G1 X82.948 Y84.155 E28.63826
G1 X84.057 Y83.046 E28.71539
G1 X84.359 Y83.302 E28.73485
G1 X82.948 Y84.713 E28.83301
G1 X82.948 Y85.271 E28.86044
G1 X84.661 Y83.557 E28.97962
G1 X84.964 Y83.813 E28.99908
G1 X82.948 Y85.828 E29.13928
G1 X82.948 Y86.386 E29.16670
G1 X85.266 Y84.068 E29.32792
G1 X85.568 Y84.324 E29.34738
G1 X82.948 Y86.944 E29.52963
G1 X82.948 Y87.501 E29.55705
G1 X85.903 Y84.546 E29.76258
G1 X86.255 Y84.752 E29.78263
G1 X82.948 Y88.059 E30.01266
G1 X82.948 Y88.617 E30.04008
G1 X86.607 Y84.958 E30.29459
G1 X86.959 Y85.163 E30.31464
G1 X82.948 Y89.174 E30.59364
G1 X82.948 Y89.732 E30.62107
G1 X87.311 Y85.369 E30.92456
G1 X87.673 Y85.564 E30.94479
G1 X82.948 Y90.290 E31.27345
G1 X82.948 Y90.847 E31.30088
G1 X88.086 Y85.709 E31.65823
G1 X88.498 Y85.854 E31.67975
G1 X82.948 Y91.405 E32.06581
G1 X82.948 Y91.963 E32.09323
G1 X88.911 Y85.999 E32.50800
G1 X89.324 Y86.144 E32.52951
G1 X82.948 Y92.520 E32.97297
G1 X82.948 Y93.078 E33.00040
G1 X89.742 Y86.283 E33.47299
G1 X90.240 Y86.343 E33.49764
G1 X82.948 Y93.636 E34.00485
G1 X82.948 Y94.193 E34.03227
G1 X90.627 Y86.514 E34.56639
G1 X90.627 Y87.072 E34.59381
G1 X83.484 Y94.215 E35.09062
G1 X84.042 Y94.215 E35.11805
G1 X90.627 Y87.629 E35.57607
G1 X90.627 Y88.187 E35.60350
G1 X84.600 Y94.215 E36.02273
G1 X85.157 Y94.215 E36.05016
G1 X90.627 Y88.745 E36.43061
G1 X90.627 Y89.302 E36.45803
G1 X85.715 Y94.215 E36.79970
G1 X86.273 Y94.215 E36.82712
G1 X90.627 Y89.860 E37.13000
G1 X90.627 Y90.418 E37.15742
G1 X86.830 Y94.215 E37.42151
G1 X87.388 Y94.215 E37.44894
G1 X90.627 Y90.975 E37.67424
G1 X90.627 Y91.533 E37.70166
G1 X87.946 Y94.215 E37.88818
G1 X88.503 Y94.215 E37.91560
G1 X90.627 Y92.091 E38.06333
G1 X90.627 Y92.648 E38.09075
G1 X89.061 Y94.215 E38.19969
G1 X89.618 Y94.215 E38.22712
G1 X90.627 Y93.206 E38.29727
G1 X90.627 Y93.764 E38.32470
G1 X90.003 Y94.388 E38.36813
G1 X81.516 Y79.866 F7800.000
G1 F1200
G1 X81.363 Y79.137 E38.37663
G1 F1200
G1 X81.337 Y78.984 E38.37735
G1 X81.185 Y78.096 F7800.000
G1 F1200
G1 X81.130 Y77.772 E38.39269
G1 F1200
G1 X81.075 Y77.449 E38.40453
G1 F1200
G1 X81.020 Y77.125 E38.41286
G1 F1200
G1 X80.975 Y76.400 E38.42355
G1 F1200
G1 X80.954 Y76.047 E38.42491
G1 Z1.000 F7800.000
G1 X80.736 Y84.323 F7800.000
G1 F3600
G1 X59.014 Y84.323 E39.46963
G1 X59.014 Y55.427 E40.85944
G1 X80.736 Y55.427 E41.90416
G1 X80.736 Y84.263 E43.29108
G1 X80.350 Y83.937 F7800.000
G1 F1800
G1 X59.400 Y83.937 E44.29870
G1 X59.400 Y55.812 E45.65142
G1 X80.350 Y55.812 E46.65904
G1 X80.350 Y83.877 E48.00887
G1 X80.435 Y84.328 F7800.000
G1 X82.659 Y84.254 F7800.000
G1 F3600
G1 X81.121 Y84.254 E48.08282
G1 X81.121 Y78.302 E48.36908
G1 X81.314 Y78.269 E48.37847
G1 X81.635 Y79.184 E48.42509
G1 X82.738 Y81.072 E48.53027
G1 X84.159 Y82.754 E48.63616
G1 X85.840 Y84.175 E48.74204
G1 X87.729 Y85.277 E48.84723
G1 X89.773 Y85.996 E48.95145
G1 X90.916 Y86.133 E49.00683
G1 X90.916 Y94.504 E49.40941
G1 X82.659 Y94.504 E49.80657
G1 X82.659 Y84.314 E50.29667
G1 X82.273 Y84.639 F7800.000
G1 F3600
G1 X58.698 Y84.639 E51.43055
G1 X58.698 Y55.111 E52.85078
G1 X81.052 Y55.111 E53.92592
G1 X81.052 Y75.037 E54.88429
G1 X81.294 Y77.051 E54.98189
G1 X81.987 Y79.021 E55.08231
G1 X83.054 Y80.849 E55.18411
G1 X84.432 Y82.480 E55.28683
G1 X86.063 Y83.859 E55.38955
G1 X87.891 Y84.926 E55.49135
G1 X89.861 Y85.618 E55.59178
G1 X91.302 Y85.791 E55.66156
G1 X91.302 Y94.889 E56.09914
G1 X82.273 Y94.889 E56.53339
G1 X82.273 Y84.699 E57.02350
G1 X81.887 Y85.025 F7800.000
G1 F1800
G1 X58.312 Y85.025 E58.15738
G1 X58.312 Y54.725 E59.61470
G1 X81.437 Y54.725 E60.72694
G1 X81.437 Y75.013 E61.70274
G1 X81.672 Y76.963 E61.79720
G1 X82.338 Y78.859 E61.89382
G1 X83.370 Y80.626 E61.99223
G1 X84.706 Y82.207 E62.09179
G1 X86.287 Y83.543 E62.19134
G1 X88.054 Y84.574 E62.28976
G1 X89.949 Y85.240 E62.38638
G1 X91.687 Y85.450 E62.47058
G1 X91.687 Y95.275 E62.94316
G1 X81.887 Y95.275 E63.41450
G1 X81.887 Y85.085 E63.90461
G1 X81.787 Y84.638 F7800.000
G1 X81.733 Y84.138 F7800.000
G1 F1200
G1 X81.410 Y83.815 E63.92717
G1 X81.410 Y83.255 E63.95488
G1 X82.294 Y84.138 E64.01662
G1 X82.139 Y80.621 F7800.000
G1 F1200
G1 X81.651 Y80.132 E64.05076
G1 X81.410 Y80.185 E64.06292
G1 X81.410 Y80.453 E64.07613
G1 X90.627 Y89.669 E64.72040
G1 X90.627 Y90.230 E64.74810
G1 X81.410 Y81.013 E65.39237
G1 X81.410 Y81.573 E65.42007
G1 X90.627 Y90.790 E66.06434
G1 X90.627 Y91.351 E66.09205
G1 X81.410 Y82.134 E66.73632
G1 X81.410 Y82.694 E66.76402
G1 X90.627 Y91.911 E67.40829
G1 X90.627 Y92.471 E67.43599
G1 X82.948 Y84.792 E67.97278
G1 X82.948 Y85.353 E68.00049
G1 X90.627 Y93.032 E68.53728
G1 X90.627 Y93.592 E68.56498
G1 X82.948 Y85.913 E69.10178
G1 X82.948 Y86.474 E69.12948
G1 X90.627 Y94.153 E69.66628
G1 X90.627 Y94.215 E69.66933
G1 X90.128 Y94.215 E69.69398
G1 X82.948 Y87.034 E70.19591
G1 X82.948 Y87.595 E70.22362
G1 X89.568 Y94.215 E70.68637
G1 X89.007 Y94.215 E70.71408
G1 X82.948 Y88.155 E71.13766
G1 X82.948 Y88.715 E71.16536
G1 X88.447 Y94.215 E71.54976
G1 X87.887 Y94.215 E71.57747
G1 X82.948 Y89.276 E71.92269
G1 X82.948 Y89.836 E71.95039
G1 X87.326 Y94.215 E72.25644
G1 X86.766 Y94.215 E72.28414
G1 X82.948 Y90.397 E72.55102
G1 X82.948 Y90.957 E72.57872
G1 X86.205 Y94.215 E72.80641
G1 X85.645 Y94.215 E72.83411
G1 X82.948 Y91.518 E73.02263
G1 X82.948 Y92.078 E73.05033
G1 X85.084 Y94.215 E73.19967
G1 X84.524 Y94.215 E73.22737
G1 X82.948 Y92.639 E73.33754
G1 X82.948 Y93.199 E73.36524
G1 X83.963 Y94.215 E73.43622
G1 X83.403 Y94.215 E73.46393
G1 X82.774 Y93.586 E73.50786
G1 X86.292 Y84.773 F7800.000
G1 F1200
G1 X90.627 Y89.109 E73.81091
G1 X90.627 Y88.548 E73.83861
G1 X87.627 Y85.548 E74.04832
G1 X88.491 Y85.852 E74.09358
G1 X90.627 Y87.988 E74.24289
G1 X90.627 Y87.427 E74.27059
G1 X89.355 Y86.155 E74.35950
G1 X89.707 Y86.279 E74.37795
G1 X90.085 Y86.325 E74.39674
G1 X90.801 Y87.040 E74.44678
G1 X81.516 Y79.866 F7800.000
G1 F1200
G1 X81.363 Y79.137 E74.45528
G1 F1200
G1 X81.337 Y78.984 E74.45600
G1 X81.185 Y78.096 F7800.000
G1 F1200
G1 X81.130 Y77.772 E74.47134
G1 F1200
G1 X81.075 Y77.449 E74.48318
G1 F1200
G1 X81.020 Y77.125 E74.49151
G1 F1200
G1 X80.975 Y76.400 E74.50220
G1 F1200
G1 X80.954 Y76.047 E74.50356
M106 S255
G1 Z1.300 F7800.000
G1 X80.736 Y84.323 F7800.000
G1 F3600
G1 X59.014 Y84.323 E75.54828
G1 X59.014 Y55.427 E76.93809
G1 X80.736 Y55.427 E77.98280
G1 X80.736 Y84.263 E79.36973
G1 X80.350 Y83.937 F7800.000
G1 F1800
G1 X59.400 Y83.937 E80.37735
G1 X59.400 Y55.812 E81.73007
G1 X80.350 Y55.812 E82.73769
G1 X80.350 Y83.877 E84.08752
G1 X80.435 Y84.328 F7800.000
G1 X82.659 Y84.254 F7800.000
G1 F3600
G1 X81.121 Y84.254 E84.16147
G1 X81.121 Y78.302 E84.44773
G1 X81.314 Y78.269 E84.45712
G1 X81.635 Y79.184 E84.50374
G1 X82.738 Y81.072 E84.60892
G1 X84.159 Y82.754 E84.71481
G1 X85.840 Y84.175 E84.82069
G1 X87.729 Y85.277 E84.92588
G1 X89.773 Y85.996 E85.03010
G1 X90.916 Y86.133 E85.08547
G1 X90.916 Y94.504 E85.48806
G1 X82.659 Y94.504 E85.88522
G1 X82.659 Y84.314 E86.37532
G1 X82.273 Y84.639 F7800.000
G1 F3600
G1 X58.698 Y84.639 E87.50920
G1 X58.698 Y55.111 E88.92943
G1 X81.052 Y55.111 E90.00457
G1 X81.052 Y75.037 E90.96294
G1 X81.294 Y77.051 E91.06054
G1 X81.987 Y79.021 E91.16096
G1 X83.054 Y80.849 E91.26276
G1 X84.432 Y82.480 E91.36548
G1 X86.063 Y83.859 E91.46820
G1 X87.891 Y84.926 E91.57000
G1 X89.861 Y85.618 E91.67042
G1 X91.302 Y85.791 E91.74021
G1 X91.302 Y94.889 E92.17779
G1 X82.273 Y94.889 E92.61204
G1 X82.273 Y84.699 E93.10215
G1 X81.887 Y85.025 F7800.000
G1 F1800
G1 X58.312 Y85.025 E94.23602
G1 X58.312 Y54.725 E95.69335
G1 X81.437 Y54.725 E96.80558
G1 X81.437 Y75.013 E97.78139
G1 X81.672 Y76.963 E97.87584
G1 X82.338 Y78.859 E97.97246
G1 X83.370 Y80.626 E98.07088
G1 X84.706 Y82.207 E98.17043
G1 X86.287 Y83.543 E98.26999
G1 X88.054 Y84.574 E98.36840
G1 X89.949 Y85.240 E98.46503
G1 X91.687 Y85.450 E98.54923
G1 X91.687 Y95.275 E99.02180
G1 X81.887 Y95.275 E99.49315
G1 X81.887 Y85.085 E99.98325
G1 X81.787 Y84.638 F7800.000
G1 X82.774 Y87.131 F7800.000
G1 F4800
G1 X83.907 Y82.904 E100.19374
G1 X85.673 Y84.412 E100.30541
G1 X87.607 Y85.541 E100.41313
G1 X89.053 Y86.049 E100.48684
G1 X86.818 Y94.388 E100.90207
G1 X87.508 Y94.388 F7800.000
G1 F4800
G1 X82.948 Y89.828 E101.21223
G1 X82.948 Y83.965 E101.49425
G1 X81.410 Y83.965 E101.56819
G1 X81.410 Y80.185 E101.74996
G1 X81.472 Y80.172 E101.75298
G1 X82.445 Y81.145 E101.81920
G1 X82.501 Y81.240 E101.82447
G1 X83.953 Y82.959 E101.93273
G1 X85.673 Y84.412 E102.04099
G1 X85.767 Y84.467 E102.04625
G1 X90.801 Y89.501 E102.38862
G1 X82.774 Y91.834 F7800.000
G1 F4800
G1 X90.627 Y89.729 E102.77963
G1 X90.627 Y86.390 E102.94025
G1 X89.707 Y86.279 E102.98481
G1 X87.607 Y85.541 E103.09188
G1 X86.444 Y84.862 E103.15667
G1 X82.948 Y85.799 E103.33073
G1 X82.948 Y83.965 E103.41894
G1 X81.410 Y83.965 E103.49289
G1 X81.410 Y80.222 E103.67288
G1 X82.013 Y80.061 E103.70289
G1 X81.516 Y79.866 F7800.000
G1 F1200
G1 X81.363 Y79.137 E103.71139
G1 F1200
G1 X81.337 Y78.984 E103.71211
G1 X81.185 Y78.096 F7800.000
G1 F1200
G1 X81.130 Y77.772 E103.72745
G1 F1200
G1 X81.075 Y77.449 E103.73929
G1 F1200
G1 X81.020 Y77.125 E103.74762
G1 F1200
G1 X80.975 Y76.400 E103.75831
G1 F1200
G1 X80.954 Y76.047 E103.75967
G1 Z1.600 F7800.000
G1 X80.736 Y84.323 F7800.000
G1 F3600
