; generated by Slic3r Prusa Edition 1.41.0-beta+win64 on 2018-10-28 at 16:33:18

; 

; external perimeters extrusion width = 0.45mm
; perimeters extrusion width = 0.45mm
; infill extrusion width = 0.45mm
; solid infill extrusion width = 0.45mm
; top infill extrusion width = 0.40mm
; first layer extrusion width = 0.80mm

M107
M104 S210 ; set temperature
G28 ; home all axes
G1 Z5 F5000 ; lift nozzle
; Filament gcode
M109 S210 ; set temperature and wait for it to be reached
G21 ; set units to millimeters
G90 ; use absolute coordinates
M82 ; use absolute distances for extrusion
G92 E0
G1 Z0.400 F7800.000
G1 E-2.00000 F1800.00000
G92 E0
G1 X68.463 Y68.547 F7800.000
G1 E2.00000 F1800.00000
G1 F1426
G1 X69.453 Y67.724 E2.15287
G1 X70.594 Y67.116 E2.30648
G1 X71.542 Y66.812 E2.42473
G1 X72.533 Y66.660 E2.54371
G1 X77.006 Y66.643 E3.07502
G1 X77.900 Y66.707 E3.18146
G1 X78.776 Y66.896 E3.28790
G1 X79.617 Y67.207 E3.39434
G1 X80.411 Y67.636 E3.50152
G1 X81.131 Y68.169 E3.60796
G1 X81.774 Y68.802 E3.71514
G1 X82.317 Y69.515 E3.82158
G1 X82.757 Y70.303 E3.92876
G1 X83.192 Y71.561 E4.08679
G1 X83.356 Y72.881 E4.24481
G1 X83.343 Y77.423 E4.78427
G1 X83.207 Y78.372 E4.89809
G1 X82.928 Y79.295 E5.01264
G1 X82.258 Y80.572 E5.18391
G1 X81.313 Y81.670 E5.35590
G1 X80.145 Y82.525 E5.52790
G1 X78.813 Y83.093 E5.69990
G1 X77.281 Y83.351 E5.88438
G1 X72.869 Y83.356 E6.40833
G1 X71.768 Y83.237 E6.53984
G1 X70.705 Y82.928 E6.67136
G1 X69.428 Y82.258 E6.84262
G1 X68.330 Y81.313 E7.01462
G1 X67.475 Y80.145 E7.18661
G1 X66.907 Y78.813 E7.35861
G1 X66.649 Y77.281 E7.54309
G1 X66.644 Y72.869 E8.06704
G1 X66.763 Y71.768 E8.19855
G1 X67.072 Y70.705 E8.33007
G1 X67.656 Y69.558 E8.48294
G1 X68.426 Y68.594 E8.62943
; PURGING FINISHED
G1 E6.62943 F1800.00000
G92 E0
G1 X73.898 Y76.600 F7800.000
G1 E2.00000 F1800.00000
G1 F1426
G1 X73.400 Y76.600 E2.05920
G1 X73.400 Y76.102 E2.11840
G1 X73.745 Y76.033 E2.16016
G1 X73.810 Y76.190 E2.18036
G1 X73.967 Y76.255 E2.20055
G1 X73.910 Y76.541 E2.23519
G1 X73.539 Y76.425 F7800.000
G1 E0.23519 F1800.00000
G92 E0
G1 X73.745 Y73.967 F7800.000
G1 E2.00000 F1800.00000
G1 F1426
G1 X73.400 Y73.898 E2.04176
G1 X73.400 Y73.400 E2.10096
G1 X73.898 Y73.400 E2.16016
G1 X73.967 Y73.745 E2.20193
G1 X73.810 Y73.810 E2.22212
G1 X73.768 Y73.912 E2.23519
G1 X73.531 Y73.688 F7800.000
G1 E0.23519 F1800.00000
G92 E0
G1 X76.033 Y73.745 F7800.000
G1 E2.00000 F1800.00000
G1 F1426
G1 X76.102 Y73.400 E2.04176
G1 X76.600 Y73.400 E2.10096
G1 X76.600 Y73.898 E2.16016
G1 X76.255 Y73.967 E2.20193
G1 X76.190 Y73.810 E2.22212
G1 X76.088 Y73.768 E2.23519
G1 X76.312 Y73.531 F7800.000
G1 E0.23519 F1800.00000
G92 E0
G1 X76.255 Y76.033 F7800.000
G1 E2.00000 F1800.00000
G1 F1426
G1 X76.600 Y76.102 E2.04176
G1 X76.600 Y76.600 E2.10096
G1 X76.102 Y76.600 E2.16016
G1 X76.033 Y76.255 E2.20193
G1 X76.190 Y76.190 E2.22212
G1 X76.232 Y76.088 E2.23519
G1 X76.469 Y76.312 F7800.000
G1 Z0.700 F7800.000
M104 S200 ; set temperature
; PURGING FINISHED
G1 X76.093 Y75.966
G1 F600
G1 X76.056 Y76.056 E2.23989
G1 X75.000 Y76.494 E2.29487
G1 X73.944 Y76.056 E2.34985
G1 X73.506 Y75.000 E2.40482
G1 X73.944 Y73.944 E2.45980
G1 X75.000 Y73.506 E2.51478
G1 X76.056 Y73.944 E2.56976
G1 X76.494 Y75.000 E2.62474
G1 X76.116 Y75.911 E2.67214
G1 X76.163 Y76.035 F7800.000
G1 X76.775 Y76.775
G1 F600
G1 X73.225 Y76.775 E2.84289
G1 X73.225 Y73.225 E3.01363
G1 X76.775 Y73.225 E3.18437
G1 X76.775 Y76.715 E3.35223
G1 X76.389 Y76.671 F7800.000
G1 X76.360 Y76.360
G1 F600
G1 X75.637 Y76.582 E3.39408
G1 X76.360 Y76.360 F7800.000
G1 F600
G1 X76.582 Y75.637 E3.43592
G1 X76.582 Y74.363 F7800.000
G1 F600
G1 X76.360 Y73.640 E3.47777
G1
G1 X75.637 Y73.418 E3.51961
G1 X74.363 Y73.418 F7800.000
G1 F600
G1 X73.640 Y73.640 E3.56146
G1
G1 X73.418 Y74.363 E3.60330
G1 X73.418 Y75.637 F7800.000
G1 F600
G1 X73.640 Y76.360 E3.64515
G1
G1 X74.363 Y76.582 E3.68699
G1 Z1.000 F7800.000
; PURGING FINISHED
G1 X76.056 Y76.056
G1 F600
G1 X75.000 Y76.494 E3.74197
G1 X73.944 Y76.056 E3.79695
G1 X73.506 Y75.000 E3.85193
G1 X73.944 Y73.944 E3.90691
G1 X75.000 Y73.506 E3.96189
G1 X76.056 Y73.944 E4.01687
G1 X76.494 Y75.000 E4.07185
G1 X76.079 Y76.001 E4.12394
G1 X76.160 Y76.442 F7800.000
G1 X76.775 Y76.775
G1 F600
G1 X73.225 Y76.775 E4.29469
G1 X73.225 Y73.225 E4.46543
G1 X76.775 Y73.225 E4.63617
G1 X76.775 Y76.715 E4.80403
G1 X76.389 Y76.671 F7800.000
G1 X76.360 Y76.360
G1 F600
G1 X75.637 Y76.582 E4.84587
G1 X76.360 Y76.360 F7800.000
G1 F600
G1 X76.582 Y75.637 E4.88772
G1 X76.582 Y74.363 F7800.000
G1 F600
G1 X76.360 Y73.640 E4.92956
G1
G1 X75.637 Y73.418 E4.97141
G1 X74.363 Y73.418 F7800.000
G1 F600
G1 X73.640 Y73.640 E5.01326
G1
G1 X73.418 Y74.363 E5.05510
G1 X73.418 Y75.637 F7800.000
G1 F600
G1 X73.640 Y76.360 E5.09695
G1
G1 X74.363 Y76.582 E5.13879
M106 S255
G1 Z1.300 F7800.000
; PURGING FINISHED
G1 X76.056 Y76.056
G1 F600
G1 X75.000 Y76.494 E5.19377
G1 X73.944 Y76.056 E5.24875
G1 X73.506 Y75.000 E5.30373
G1 X73.944 Y73.944 E5.35871
G1 X75.000 Y73.506 E5.41369
G1 X76.056 Y73.944 E5.46867
G1 X76.494 Y75.000 E5.52365
G1 X76.079 Y76.001 E5.57574
G1 X76.160 Y76.442 F7800.000
G1 X76.775 Y76.775
G1 F600
G1 X73.225 Y76.775 E5.74648
G1 X73.225 Y73.225 E5.91723
G1 X76.775 Y73.225 E6.08797
G1 X76.775 Y76.715 E6.25583
G1 X76.389 Y76.671 F7800.000
G1 X76.360 Y76.360
G1 F600
G1 X75.637 Y76.582 E6.29767
G1 X76.360 Y76.360 F7800.000
G1 F600
G1 X76.582 Y75.637 E6.33952
G1 X76.582 Y74.363 F7800.000
G1 F600
G1 X76.360 Y73.640 E6.38136
G1
G1 X75.637 Y73.418 E6.42321
G1 X74.363 Y73.418 F7800.000
G1 F600
G1 X73.640 Y73.640 E6.46505
G1
G1 X73.418 Y74.363 E6.50690
G1 X73.418 Y75.637 F7800.000
G1 F600
G1 X73.640 Y76.360 E6.54875
G1
G1 X74.363 Y76.582 E6.59059
G1 Z1.600 F7800.000
; PURGING FINISHED
G1 X76.056 Y76.056
G1 F600
G1 X75.000 Y76.494 E6.64557
G1 X73.944 Y76.056 E6.70055
G1 X73.506 Y75.000 E6.75553
G1 X73.944 Y73.944 E6.81051
G1 X75.000 Y73.506 E6.86549
G1 X76.056 Y73.944 E6.92047
G1 X76.494 Y75.000 E6.97545
G1 X76.079 Y76.001 E7.02754
G1 X76.160 Y76.442 F7800.000
G1 X76.775 Y76.775
G1 F600
G1 X73.225 Y76.775 E7.19828
G1 X73.225 Y73.225 E7.36903
G1 X76.775 Y73.225 E7.53977
G1 X76.775 Y76.715 E7.70763
G1 X76.389 Y76.671 F7800.000
G1 X76.360 Y76.360
G1 F600
G1 X75.637 Y76.582 E7.74947
G1 X76.360 Y76.360 F7800.000
G1 F600
G1 X76.582 Y75.637 E7.79132
G1 X76.582 Y74.363 F7800.000
G1 F600
G1 X76.360 Y73.640 E7.83316
G1
G1 X75.637 Y73.418 E7.87501
G1 X74.363 Y73.418 F7800.000
G1 F600
G1 X73.640 Y73.640 E7.91685
G1
G1 X73.418 Y74.363 E7.95870
G1 X73.418 Y75.637 F7800.000
G1 F600
G1 X73.640 Y76.360 E8.00054
G1
G1 X74.363 Y76.582 E8.04239
G1 Z1.900 F7800.000
; PURGING FINISHED
G1 X76.056 Y76.056
G1 F600
G1 X75.000 Y76.494 E8.09737
G1 X73.944 Y76.056 E8.15235
G1 X73.506 Y75.000 E8.20733
G1 X73.944 Y73.944 E8.26231
G1 X75.000 Y73.506 E8.31729
G1 X76.056 Y73.944 E8.37227
G1 X76.494 Y75.000 E8.42724
G1 X76.079 Y76.001 E8.47934
G1 X76.160 Y76.442 F7800.000
G1 X76.775 Y76.775
G1 F600
G1 X73.225 Y76.775 E8.65008
G1 X73.225 Y73.225 E8.82082
G1 X76.775 Y73.225 E8.99157
G1 X76.775 Y76.715 E9.15942
G1 X76.389 Y76.671 F7800.000
G1 X76.360 Y76.360
G1 F600
G1 X75.637 Y76.582 E9.20127
G1 X76.360 Y76.360 F7800.000
G1 F600
G1 X76.582 Y75.637 E9.24312
G1 X76.582 Y74.363 F7800.000
G1 F600
G1 X76.360 Y73.640 E9.28496
G1
G1 X75.637 Y73.418 E9.32681
G1 X74.363 Y73.418 F7800.000
G1 F600
G1 X73.640 Y73.640 E9.36865
G1
G1 X73.418 Y74.363 E9.41050
G1 X73.418 Y75.637 F7800.000
G1 F600
G1 X73.640 Y76.360 E9.45234
G1
G1 X74.363 Y76.582 E9.49419
G1 E7.49419 F1800.00000
G92 E0
M107
; Filament-specific end gcode 
;END gcode for filament
M104 S0 ; turn off temperature
G91 ; use relative position mode
G1 Z10 F5000 ; lift nozzle
G90 ; use absolute position mode
G28 X0  ; home X axis
M84     ; disable motors
; filament used = 14.8mm (0.0cm3)
; filament used = 0.0
; filament cost = 0.0
; total filament cost = 0.0
; estimated printing time (normal mode) = 23s

; avoid_crossing_perimeters = 1
; bed_shape = 0x0,150x0,150x150,0x150
; bed_temperature = 0
; before_layer_gcode = 
; between_objects_gcode = 
; bridge_acceleration = 0
; bridge_fan_speed = 100
; brim_width = 0
; complete_objects = 0
; cooling = 1
; cooling_tube_length = 5
; cooling_tube_retraction = 91.5
; default_acceleration = 0
; deretract_speed = 0
; disable_fan_first_layers = 3
; duplicate_distance = 6
; end_filament_gcode = "; Filament-specific end gcode \n;END gcode for filament\n"
; end_gcode = M104 S0 ; turn off temperature\nG91 ; use relative position mode\nG1 Z10 F5000 ; lift nozzle\nG90 ; use absolute position mode\nG28 X0  ; home X axis\nM84     ; disable motors\n
; extra_loading_move = -2
; extruder_clearance_height = 20
; extruder_clearance_radius = 20
; extruder_colour = ""
; extruder_offset = 0x0
; extrusion_axis = E
; extrusion_multiplier = 1
; fan_always_on = 1
; fan_below_layer_time = 60
; filament_colour = #82D0FF
; filament_cooling_final_speed = 3.4
; filament_cooling_initial_speed = 2.2
; filament_cooling_moves = 4
; filament_cost = 16
; filament_density = 1.25
; filament_diameter = 1.75
; filament_load_time = 0
; filament_loading_speed = 28
; filament_max_volumetric_speed = 0
; filament_minimal_purge_on_wipe_tower = 5
; filament_notes = ""
; filament_ramming_parameters = "120 100 6.6 6.8 7.2 7.6 7.9 8.2 8.7 9.4 9.9 10.0| 0.05 6.6 0.45 6.8 0.95 7.8 1.45 8.3 1.95 9.7 2.45 10 2.95 7.6 3.45 7.6 3.95 7.6 4.45 7.6 4.95 7.6"
; filament_soluble = 0
; filament_toolchange_delay = 0
; filament_type = PLA
; filament_unload_time = 0
; filament_unloading_speed = 90
; first_layer_acceleration = 0
; first_layer_bed_temperature = 0
; first_layer_extrusion_width = 200%
; first_layer_speed = 30
; first_layer_temperature = 210
; gcode_comments = 0
; gcode_flavor = repetier
; infill_acceleration = 0
; infill_first = 0
; layer_gcode = 
; machine_max_acceleration_e = 10000,5000
; machine_max_acceleration_extruding = 1500,1250
; machine_max_acceleration_retracting = 1500,1250
; machine_max_acceleration_x = 9000,1000
; machine_max_acceleration_y = 9000,1000
; machine_max_acceleration_z = 500,200
; machine_max_feedrate_e = 120,120
; machine_max_feedrate_x = 500,200
; machine_max_feedrate_y = 500,200
; machine_max_feedrate_z = 12,12
; machine_max_jerk_e = 2.5,2.5
; machine_max_jerk_x = 10,10
; machine_max_jerk_y = 10,10
; machine_max_jerk_z = 0.2,0.4
; machine_min_extruding_rate = 0,0
; machine_min_travel_rate = 0,0
; max_fan_speed = 100
; max_layer_height = 0
; max_print_height = 200
; max_print_speed = 80
; max_volumetric_extrusion_rate_slope_negative = 0
; max_volumetric_extrusion_rate_slope_positive = 0
; max_volumetric_speed = 0
; min_fan_speed = 100
; min_layer_height = 0.07
; min_print_speed = 10
; min_skirt_length = 0
; notes = 
; nozzle_diameter = 0.4
; only_retract_when_crossing_perimeters = 1
; ooze_prevention = 0
; output_filename_format = [input_filename_base].gcode
; parking_pos_retraction = 92
; perimeter_acceleration = 0
; post_process = 
; printer_model = 
; printer_notes = 
; remaining_times = 0
; resolution = 0
; retract_before_travel = 2
; retract_before_wipe = 0%
; retract_layer_change = 0
; retract_length = 2
; retract_length_toolchange = 10
; retract_lift = 0
; retract_lift_above = 0
; retract_lift_below = 0
; retract_restart_extra = 0
; retract_restart_extra_toolchange = 0
; retract_speed = 30
; silent_mode = 1
; single_extruder_multi_material = 0
; single_extruder_multi_material_priming = 1
; skirt_distance = 6
; skirt_height = 1
; skirts = 1
; slowdown_below_layer_time = 5
; spiral_vase = 0
; standby_temperature_delta = -5
; start_filament_gcode = "; Filament gcode\n"
; start_gcode = G28 ; home all axes\nG1 Z5 F5000 ; lift nozzle\n
; temperature = 200
; threads = 8
; toolchange_gcode = 
; travel_speed = 130
; use_firmware_retraction = 0
; use_relative_e_distances = 0
; use_volumetric_e = 0
; variable_layer_height = 1
; wipe = 0
; wipe_tower = 0
; wipe_tower_bridging = 10
; wipe_tower_rotation_angle = 0
; wipe_tower_width = 60
; wipe_tower_x = 180
; wipe_tower_y = 140
; wiping_volumes_extruders = 70,70
; wiping_volumes_matrix = 0
; z_offset = 0
; clip_multipart_objects = 0
; dont_support_bridges = 1
; elefant_foot_compensation = 0
; extrusion_width = 0
; first_layer_height = 0.4
; infill_only_where_needed = 0
; interface_shells = 0
; layer_height = 0.3
; raft_layers = 0
; seam_position = aligned
; support_material = 0
; support_material_angle = 0
; support_material_buildplate_only = 0
; support_material_contact_distance = 0.2
; support_material_enforce_layers = 0
; support_material_extruder = 1
; support_material_extrusion_width = 0
; support_material_interface_contact_loops = 0
; support_material_interface_extruder = 1
; support_material_interface_layers = 3
; support_material_interface_spacing = 0
; support_material_interface_speed = 100%
; support_material_pattern = rectilinear
; support_material_spacing = 2.5
; support_material_speed = 60
; support_material_synchronize_layers = 0
; support_material_threshold = 0
; support_material_with_sheath = 1
; support_material_xy_spacing = 50%
; wipe_into_objects = 0
; xy_size_compensation = 0
; bottom_solid_layers = 3
; bridge_angle = 0
; bridge_flow_ratio = 1
; bridge_speed = 60
; ensure_vertical_shell_thickness = 0
; external_fill_pattern = rectilinear
; external_perimeter_extrusion_width = 0
; external_perimeter_speed = 50%
; external_perimeters_first = 0
; extra_perimeters = 1
; fill_angle = 45
; fill_density = 20%
; fill_pattern = cubic
; gap_fill_speed = 20
; infill_every_layers = 1
; infill_extruder = 1
; infill_extrusion_width = 0
; infill_overlap = 25%
; infill_speed = 80
; overhangs = 1
; perimeter_extruder = 1
; perimeter_extrusion_width = 0
; perimeter_speed = 60
; perimeters = 3
; small_perimeter_speed = 15
; solid_infill_below_area = 50
; solid_infill_every_layers = 0
; solid_infill_extruder = 1
; solid_infill_extrusion_width = 0
; solid_infill_speed = 20
; thin_walls = 1
; top_infill_extrusion_width = 0
; top_solid_infill_speed = 15
; top_solid_layers = 3
; wipe_into_infill = 0
; print_settings_id = fastTronxyPLA
; filament_settings_id = fastTronxyPLA
; printer_settings_id = fastTronxyPLA
; printer_model = 
; printer_variant = 
; default_print_profile = 
; default_filament_profile = ""
