; generated by Slic3r Prusa Edition 1.39.1-alpha-prusa3d-win64 on 2018-03-10 at 23:01:59

; 

; external perimeters extrusion width = 0.45mm
; perimeters extrusion width = 0.45mm
; infill extrusion width = 0.45mm
; solid infill extrusion width = 0.45mm
; top infill extrusion width = 0.40mm
; first layer extrusion width = 0.80mm

M107
M104 S200 ; set temperature
G28 ; home all axes
G1 Z5 F5000 ; lift nozzle
; Filament gcode
M109 S200 ; set temperature and wait for it to be reached
G21 ; set units to millimeters
G90 ; use absolute coordinates
M82 ; use absolute distances for extrusion
G92 E0
G1 Z0.400 F7800.000
G1 E-2.00000 F1800.00000
G92 E0
G1 X55.282 Y54.989 F7800.000
G1 E2.00000 F1800.00000
G1 F1800
G1 X56.468 Y54.143 E2.17300
G1 X57.802 Y53.575 E2.34525
G1 X59.234 Y53.306 E2.51825
G1 X90.256 Y53.286 E6.20266
G1 X91.504 Y53.404 E6.35146
G1 X92.707 Y53.752 E6.50026
G1 X93.825 Y54.317 E6.64906
G1 X94.824 Y55.085 E6.79862
G1 X95.657 Y56.020 E6.94741
G1 X96.305 Y57.100 E7.09697
G1 X96.740 Y58.281 E7.24653
G1 X96.947 Y59.517 E7.39532
G1 X96.949 Y60.451 E7.50624
G1 X95.372 Y82.822 E10.16977
G1 X94.767 Y86.150 E10.57149
G1 X94.551 Y86.967 E10.67178
G1 X93.459 Y89.296 E10.97726
G1 X92.913 Y90.191 E11.10182
G1 X91.171 Y92.330 E11.42941
G1 X89.464 Y93.803 E11.69721
G1 X88.631 Y94.376 E11.81723
G1 X86.911 Y95.329 E12.05083
G1 X86.008 Y95.707 E12.16705
G1 X81.794 Y96.667 E12.68041
G1 X69.000 Y96.714 E14.19989
G1 X68.157 Y96.661 E14.30018
G1 X63.854 Y95.659 E14.82489
G1 X62.932 Y95.246 E14.94490
G1 X60.813 Y94.014 E15.23604
G1 X58.594 Y92.089 E15.58491
G1 X57.172 Y90.306 E15.85573
G1 X56.675 Y89.546 E15.96361
G1 X55.737 Y87.687 E16.21089
G1 X55.407 Y86.834 E16.31952
G1 X54.667 Y83.082 E16.77368
G1 X53.036 Y60.091 E19.51112
G1 X53.108 Y59.019 E19.63871
G1 X53.349 Y57.972 E19.76630
G1 X53.752 Y56.983 E19.89314
G1 X54.310 Y56.065 E20.02073
G1 X55.242 Y55.033 E20.18585
G1 E18.18585 F1800.00000
G92 E0
G1 X80.400 Y88.900 F7800.000
G1 E2.00000 F1800.00000
G1 F1800
G1 X69.600 Y88.900 E3.28266
G1 X69.600 Y83.600 E3.91212
G1 X80.400 Y83.600 E5.19478
G1 X80.400 Y88.840 E5.81711
G1 X80.545 Y89.273 F7800.000
G1 X81.828 Y87.934 F7800.000
G1 F1800
G1 X81.828 Y82.172 E6.50153
G1 X68.172 Y82.172 E8.12346
G1 X68.172 Y87.934 E8.80787
G1 X66.790 Y87.618 E8.97626
G1 X65.795 Y87.064 E9.11143
G1 X64.848 Y86.256 E9.25938
G1 X64.080 Y85.274 E9.40733
G1 X63.570 Y84.257 E9.54250
G1 X63.101 Y81.716 E9.84935
G1 X61.711 Y61.828 E12.21709
G1 X88.289 Y61.828 E15.37372
G1 X86.899 Y81.716 E17.74146
G1 X86.430 Y84.257 E18.04830
G1 X85.920 Y85.274 E18.18347
G1 X85.152 Y86.256 E18.33142
G1 X84.205 Y87.064 E18.47937
G1 X83.210 Y87.618 E18.61454
G1 X81.887 Y87.921 E18.77581
G1 E16.77581 F1800.00000
G92 E0
G1 X81.114 Y82.886 F7800.000
G1 E2.00000 F1800.00000
G1 F1800
G1 X68.886 Y82.886 E3.45230
G1 X68.886 Y88.831 E4.15835
G1 X66.531 Y88.291 E4.44526
G1 X65.386 Y87.654 E4.60094
G1 X64.329 Y86.752 E4.76589
G1 X63.474 Y85.658 E4.93083
G1 X62.886 Y84.486 E5.08651
G1 X62.392 Y81.806 E5.41020
G1 X60.945 Y61.114 E7.87368
G1 X89.055 Y61.114 E11.21222
G1 X87.608 Y81.806 E13.67569
G1 X87.114 Y84.486 E13.99938
G1 X86.526 Y85.658 E14.15507
G1 X85.671 Y86.752 E14.32001
G1 X84.614 Y87.654 E14.48495
G1 X83.469 Y88.291 E14.64064
G1 X81.114 Y88.831 E14.92755
G1 X81.114 Y82.946 E15.62647
G1 E13.62647 F1800.00000
G92 E0
G1 X60.179 Y60.400 F7800.000
G1 E2.00000 F1800.00000
G1 F1800
G1 X89.821 Y60.400 E5.52045
G1 X88.318 Y81.896 E8.07966
G1 X87.798 Y84.716 E8.42019
G1 X87.133 Y86.042 E8.59639
G1 X86.189 Y87.249 E8.77833
G1 X85.024 Y88.243 E8.96026
G1 X83.727 Y88.965 E9.13646
G1 X80.955 Y89.600 E9.47430
G1 X69.045 Y89.600 E10.88873
G1 X66.273 Y88.965 E11.22656
G1 X64.976 Y88.243 E11.40276
G1 X63.811 Y87.249 E11.58470
G1 X62.867 Y86.042 E11.76663
G1 X62.202 Y84.716 E11.94283
G1 X61.682 Y81.896 E12.28336
G1 X60.183 Y60.460 E14.83545
G1 X60.531 Y60.590 F7800.000
G1 E12.83545 F1800.00000
G92 E0
G1 X64.004 Y84.645 F7800.000
G1 E2.00000 F1800.00000
G1 F1800
G1 X66.659 Y87.300 E2.45343
G1 X67.957 Y87.571 F7800.000
G1 F1800
G1 X63.995 Y83.609 E3.13021
G1 X63.763 Y82.349 E3.28488
G1 X67.636 Y86.223 E3.94645
G1 X67.636 Y85.196 E4.07050
G1 X63.599 Y81.159 E4.76000
G1 X63.522 Y80.054 E4.89370
G1 X67.636 Y84.169 E5.59639
G1 X67.636 Y83.141 E5.72043
G1 X63.445 Y78.950 E6.43631
G1 X63.368 Y77.846 E6.57001
G1 X67.636 Y82.114 E7.29908
G1 X67.636 Y81.636 E7.35685
G1 X68.185 Y81.636 E7.42313
G1 X63.290 Y76.742 E8.25912
G1 X63.213 Y75.637 E8.39281
G1 X69.212 Y81.636 E9.41742
G1 X70.239 Y81.636 E9.54147
G1 X63.136 Y74.533 E10.75469
G1 X63.059 Y73.429 E10.88839
G1 X71.266 Y81.636 E12.29023
G1 X72.293 Y81.636 E12.41427
G1 X62.981 Y72.324 E14.00473
G1 X62.904 Y71.220 E14.13842
G1 X73.320 Y81.636 E15.91750
G1 X74.347 Y81.636 E16.04154
G1 X62.827 Y70.116 E18.00923
G1 X62.750 Y69.012 E18.14292
G1 X75.374 Y81.636 E20.29923
G1 X76.401 Y81.636 E20.42327
G1 X62.673 Y67.907 E22.76819
G1 X62.595 Y66.803 E22.90189
G1 X77.429 Y81.636 E25.43542
G1 X78.456 Y81.636 E25.55947
G1 X62.518 Y65.699 E28.28162
G1 X62.441 Y64.594 E28.41531
G1 X79.483 Y81.636 E31.32608
G1 X80.510 Y81.636 E31.45012
G1 X62.364 Y63.490 E34.54950
G1 X62.287 Y62.386 E34.68320
G1 X81.858 Y81.957 E38.02609
G1 E36.02609 F1800.00000
G92 E0
G1 X82.043 Y86.250 F7800.000
G1 E2.00000 F1800.00000
G1 F1800
G1 X82.926 Y87.133 E2.15086
G1 X83.016 Y87.113 E2.16209
G1 X83.605 Y86.785 E2.24341
G1 X82.364 Y85.544 E2.45534
G1 X82.364 Y84.517 E2.57939
G1 X84.206 Y86.359 E2.89399
G1 X84.760 Y85.886 E2.98197
G1 X82.364 Y83.490 E3.39122
G1 X82.364 Y82.463 E3.51527
G1 X85.211 Y85.311 E4.00161
G1 X85.465 Y84.986 E4.05133
G1 X85.615 Y84.687 E4.09175
G1 X63.292 Y62.364 E7.90462
G1 X64.319 Y62.364 E8.02867
G1 X85.936 Y83.981 E11.72098
G1 X86.096 Y83.114 E11.82747
G1 X65.346 Y62.364 E15.37168
G1 X66.373 Y62.364 E15.49572
G1 X86.256 Y82.247 E18.89182
G1 X86.366 Y81.649 E18.96533
G1 X86.387 Y81.351 E19.00133
G1 X67.400 Y62.364 E22.24441
G1 X68.427 Y62.364 E22.36846
G1 X86.454 Y80.391 E25.44758
G1 X86.522 Y79.431 E25.56380
G1 X69.454 Y62.364 E28.47896
G1 X70.481 Y62.364 E28.60300
G1 X86.589 Y78.471 E31.35420
G1 X86.656 Y77.511 E31.47042
G1 X71.508 Y62.364 E34.05766
G1 X72.535 Y62.364 E34.18171
G1 X86.723 Y76.551 E36.60498
G1 X86.790 Y75.592 E36.72120
G1 X73.562 Y62.364 E38.98052
G1 X74.589 Y62.364 E39.10456
G1 X86.857 Y74.632 E41.19992
G1 X86.924 Y73.672 E41.31614
G1 X75.617 Y62.364 E43.24753
G1 X76.644 Y62.364 E43.37158
G1 X86.991 Y72.712 E45.13901
G1 X87.059 Y71.752 E45.25523
G1 X77.671 Y62.364 E46.85870
G1 X78.698 Y62.364 E46.98275
G1 X87.126 Y70.792 E48.42226
G1 X87.193 Y69.832 E48.53848
G1 X79.725 Y62.364 E49.81403
G1 X80.752 Y62.364 E49.93807
G1 X87.260 Y68.872 E51.04966
G1 X87.327 Y67.912 E51.16588
G1 X81.779 Y62.364 E52.11350
G1 X82.806 Y62.364 E52.23755
G1 X87.394 Y66.952 E53.02121
G1 X87.461 Y65.992 E53.13744
G1 X83.833 Y62.364 E53.75714
G1 X84.860 Y62.364 E53.88118
G1 X87.528 Y65.032 E54.33693
G1 X87.596 Y64.072 E54.45315
G1 X85.887 Y62.364 E54.74493
G1 X86.914 Y62.364 E54.86897
G1 X87.964 Y63.413 E55.04822
G1 Z0.700 F7800.000
G1 X69.389 Y83.389 F7800.000
G1 F900
G1 X80.611 Y83.389 E55.58793
G1 X80.611 Y89.111 E55.86310
G1 X69.389 Y89.111 E56.40280
G1 X69.389 Y83.449 E56.67509
G1 X69.775 Y83.775 F7800.000
G1 F900
G1 X80.225 Y83.775 E57.17770
G1 X80.225 Y88.725 E57.41577
G1 X69.775 Y88.725 E57.91838
G1 X69.775 Y83.835 E58.15358
G1 X69.628 Y83.403 F7800.000
G1 X80.996 Y83.004 F7800.000
G1 F3600
G1 X69.004 Y83.004 E58.73037
G1 X69.004 Y88.979 E59.01775
G1 X66.488 Y88.402 E59.14187
G1 X65.318 Y87.751 E59.20629
G1 X64.244 Y86.834 E59.27422
G1 X63.374 Y85.721 E59.34215
G1 X62.773 Y84.524 E59.40657
G1 X62.275 Y81.821 E59.53878
G1 X60.818 Y60.996 E60.54283
G1 X89.182 Y60.996 E61.90700
G1 X87.725 Y81.821 E62.91105
G1 X87.227 Y84.524 E63.04326
G1 X86.626 Y85.721 E63.10768
G1 X85.756 Y86.834 E63.17561
G1 X84.682 Y87.751 E63.24354
G1 X83.512 Y88.402 E63.30796
G1 X80.996 Y88.979 E63.43208
G1 X80.996 Y83.064 E63.71657
G1 X60.405 Y60.611 F7800.000
G1 F3600
G1 X89.595 Y60.611 E65.12053
G1 X88.109 Y81.869 E66.14550
G1 X87.596 Y84.648 E66.28140
G1 X86.954 Y85.929 E66.35030
G1 X86.036 Y87.102 E66.42195
G1 X84.903 Y88.069 E66.49360
G1 X83.651 Y88.766 E66.56251
G1 X80.931 Y89.389 E66.69673
G1 X69.069 Y89.389 E67.26725
G1 X66.349 Y88.766 E67.40148
G1 X65.097 Y88.069 E67.47038
G1 X63.964 Y87.102 E67.54203
G1 X63.046 Y85.929 E67.61368
G1 X62.404 Y84.648 E67.68259
G1 X61.891 Y81.869 E67.81848
G1 X60.409 Y60.670 E68.84057
G1 X59.991 Y60.225 F7800.000
G1 F1800
G1 X90.009 Y60.225 E70.28430
G1 X88.492 Y81.918 E71.33021
G1 X87.965 Y84.772 E71.46979
G1 X87.281 Y86.136 E71.54318
G1 X86.316 Y87.370 E71.61855
G1 X85.124 Y88.388 E71.69391
G1 X83.791 Y89.130 E71.76731
G1 X80.975 Y89.775 E71.90627
G1 X69.025 Y89.775 E72.48098
G1 X66.209 Y89.130 E72.61994
G1 X64.876 Y88.388 E72.69333
G1 X63.684 Y87.370 E72.76870
G1 X62.719 Y86.136 E72.84406
G1 X62.035 Y84.772 E72.91745
G1 X61.508 Y81.918 E73.05703
G1 X59.995 Y60.285 E74.10005
G1 X60.343 Y60.415 F7800.000
G1 X60.994 Y61.843 F7800.000
G1 F1200
G1 X61.551 Y61.285 E74.13819
G1 X62.100 Y61.285 E74.16470
G1 X61.192 Y62.193 E74.22677
G1 X61.228 Y62.705 E74.25160
G1 X62.648 Y61.285 E74.34871
G1 X63.196 Y61.285 E74.37521
G1 X61.264 Y63.218 E74.50736
G1 X61.299 Y63.730 E74.53219
G1 X63.744 Y61.285 E74.69937
G1 X64.293 Y61.285 E74.72588
G1 X61.335 Y64.243 E74.92810
G1 X61.371 Y64.755 E74.95294
G1 X64.841 Y61.285 E75.19020
G1 X65.389 Y61.285 E75.21671
G1 X61.407 Y65.268 E75.48901
G1 X61.443 Y65.780 E75.51385
G1 X65.937 Y61.285 E75.82118
G1 X66.486 Y61.285 E75.84769
G1 X61.479 Y66.292 E76.19007
G1 X61.514 Y66.805 E76.21491
G1 X67.034 Y61.285 E76.59233
G1 X67.582 Y61.285 E76.61883
G1 X61.550 Y67.317 E77.03129
G1 X61.586 Y67.830 E77.05613
G1 X68.130 Y61.285 E77.50363
G1 X68.679 Y61.285 E77.53013
G1 X61.622 Y68.342 E78.01267
G1 X61.658 Y68.854 E78.03751
G1 X69.227 Y61.285 E78.55508
G1 X69.775 Y61.285 E78.58159
G1 X61.694 Y69.367 E79.13421
G1 X61.729 Y69.879 E79.15905
G1 X70.323 Y61.285 E79.74670
G1 X70.872 Y61.285 E79.77321
G1 X61.765 Y70.392 E80.39590
G1 X61.801 Y70.904 E80.42074
G1 X71.420 Y61.285 E81.07847
G1 X71.968 Y61.285 E81.10498
G1 X61.837 Y71.417 E81.79776
G1 X61.873 Y71.929 E81.82259
G1 X72.516 Y61.285 E82.55041
G1 X73.065 Y61.285 E82.57692
G1 X61.909 Y72.441 E83.33977
G1 X61.944 Y72.954 E83.36460
G1 X73.613 Y61.285 E84.16250
G1 X74.161 Y61.285 E84.18901
G1 X61.980 Y73.466 E85.02194
G1 X62.016 Y73.979 E85.04677
G1 X74.709 Y61.285 E85.91474
G1 X75.258 Y61.285 E85.94125
G1 X62.052 Y74.491 E86.84426
G1 X62.088 Y75.003 E86.86910
G1 X75.806 Y61.285 E87.80715
G1 X76.354 Y61.285 E87.83366
G1 X62.124 Y75.516 E88.80675
G1 X62.159 Y76.028 E88.83159
G1 X76.902 Y61.285 E89.83971
G1 X77.451 Y61.285 E89.86622
G1 X62.195 Y76.541 E90.90939
G1 X62.231 Y77.053 E90.93423
G1 X77.999 Y61.285 E92.01244
G1 X78.547 Y61.285 E92.03895
G1 X62.267 Y77.566 E93.15219
G1 X62.303 Y78.078 E93.17703
G1 X79.095 Y61.285 E94.32532
G1 X79.644 Y61.285 E94.35183
G1 X62.339 Y78.590 E95.53515
G1 X62.374 Y79.103 E95.55999
G1 X80.192 Y61.285 E96.77835
G1 X80.740 Y61.285 E96.80486
G1 X62.410 Y79.615 E98.05827
G1 X62.446 Y80.128 E98.08311
G1 X81.288 Y61.285 E99.37155
G1 X81.837 Y61.285 E99.39806
G1 X62.482 Y80.640 E100.72154
G1 X62.518 Y81.152 E100.74638
G1 X82.385 Y61.285 E102.10490
G1 X82.933 Y61.285 E102.13141
G1 X62.554 Y81.665 E103.52498
G1 X62.627 Y82.139 E103.54819
G1 X83.481 Y61.285 E104.97420
G1 X84.030 Y61.285 E105.00071
G1 X62.713 Y82.602 E106.45836
G1 X62.798 Y83.065 E106.48112
G1 X84.578 Y61.285 E107.97043
G1 X85.126 Y61.285 E107.99694
G1 X62.884 Y83.528 E109.51789
G1 X62.969 Y83.991 E109.54065
G1 X85.674 Y61.285 E111.09326
G1 X86.223 Y61.285 E111.11977
G1 X63.059 Y84.449 E112.70371
G1 X63.242 Y84.814 E112.72346
G1 X86.771 Y61.285 E114.33236
G1 X87.319 Y61.285 E114.35887
G1 X63.425 Y85.179 E115.99274
G1 X63.608 Y85.544 E116.01249
G1 X87.867 Y61.285 E117.67133
G1 X88.416 Y61.285 E117.69784
G1 X63.846 Y85.855 E119.37795
G1 X64.086 Y86.163 E119.39683
G1 X88.865 Y61.385 E121.09120
G1 X88.823 Y61.974 E121.11977
G1 X64.203 Y86.594 E122.80332
G1 X68.161 Y88.667 F7800.000
G1 F1200
G1 X68.715 Y88.114 E122.84116
G1 X68.715 Y87.565 E122.86767
G1 X67.860 Y88.420 E122.92611
G1 X67.414 Y88.318 E122.94824
G1 X68.715 Y87.017 E123.03717
G1 X68.715 Y86.469 E123.06368
G1 X66.968 Y88.215 E123.18312
G1 X66.593 Y88.130 E123.20171
G1 X66.537 Y88.098 E123.20482
G1 X68.715 Y85.921 E123.35373
G1 X68.715 Y85.372 E123.38024
G1 X66.185 Y87.902 E123.55324
G1 X65.832 Y87.706 E123.57273
G1 X68.715 Y84.824 E123.76981
G1 X68.715 Y84.276 E123.79632
G1 X65.481 Y87.510 E124.01745
G1 X65.185 Y87.257 E124.03626
G1 X68.715 Y83.728 E124.27761
G1 X68.715 Y83.179 E124.30412
G1 X64.889 Y87.005 E124.56570
G1 X64.593 Y86.752 E124.58451
G1 X88.782 Y62.564 E126.23855
G1 X88.741 Y63.153 E126.26712
G1 X69.179 Y82.715 E127.60476
G1 X69.728 Y82.715 E127.63127
G1 X88.700 Y63.742 E128.92860
G1 X88.659 Y64.332 E128.95717
G1 X70.276 Y82.715 E130.21419
G1 X70.824 Y82.715 E130.24070
G1 X88.617 Y64.921 E131.45741
G1 X88.576 Y65.511 E131.48598
G1 X71.372 Y82.715 E132.66238
G1 X71.921 Y82.715 E132.68889
G1 X88.535 Y66.100 E133.82498
G1 X88.494 Y66.690 E133.85355
G1 X72.469 Y82.715 E134.94934
G1 X73.017 Y82.715 E134.97585
G1 X88.452 Y67.279 E136.03133
G1 X88.411 Y67.869 E136.05990
G1 X73.565 Y82.715 E137.07507
G1 X74.114 Y82.715 E137.10158
G1 X88.370 Y68.458 E138.07644
G1 X88.329 Y69.048 E138.10501
G1 X74.662 Y82.715 E139.03956
G1 X75.210 Y82.715 E139.06607
G1 X88.288 Y69.637 E139.96031
G1 X88.246 Y70.227 E139.98889
G1 X75.758 Y82.715 E140.84282
G1 X76.307 Y82.715 E140.86933
G1 X88.205 Y70.816 E141.68296
G1 X88.164 Y71.406 E141.71153
G1 X76.855 Y82.715 E142.48485
G1 X77.403 Y82.715 E142.51136
G1 X88.123 Y71.995 E143.24437
G1 X88.081 Y72.584 E143.27294
G1 X77.951 Y82.715 E143.96564
G1 X78.500 Y82.715 E143.99215
G1 X88.040 Y73.174 E144.64454
G1 X87.999 Y73.763 E144.67312
G1 X79.048 Y82.715 E145.28520
G1 X79.596 Y82.715 E145.31171
G1 X87.958 Y74.353 E145.88349
G1 X87.917 Y74.942 E145.91206
G1 X80.144 Y82.715 E146.44353
G1 X80.693 Y82.715 E146.47004
G1 X87.875 Y75.532 E146.96120
G1 X87.834 Y76.121 E146.98977
G1 X81.241 Y82.715 E147.44062
G1 X81.285 Y82.715 E147.44278
G1 X81.285 Y83.218 E147.46713
G1 X87.793 Y76.711 E147.91212
G1 X87.752 Y77.300 E147.94069
G1 X81.285 Y83.766 E148.38286
G1 X81.285 Y84.315 E148.40936
G1 X87.710 Y77.890 E148.84871
G1 X87.669 Y78.479 E148.87728
G1 X81.285 Y84.863 E149.31381
G1 X81.285 Y85.411 E149.34032
G1 X87.628 Y79.069 E149.77403
G1 X87.587 Y79.658 E149.80261
G1 X81.285 Y85.959 E150.23350
G1 X81.285 Y86.508 E150.26001
G1 X87.546 Y80.248 E150.68808
G1 X87.504 Y80.837 E150.71665
G1 X81.285 Y87.056 E151.14191
G1 X81.285 Y87.604 E151.16842
G1 X87.463 Y81.427 E151.59085
G1 X87.438 Y81.784 E151.60820
G1 X87.389 Y82.049 E151.62118
G1 X81.285 Y88.152 E152.03858
G1 X81.285 Y88.616 E152.06098
G1 X81.396 Y88.591 E152.06645
G1 X87.265 Y82.721 E152.46783
G1 X87.141 Y83.393 E152.50088
G1 X82.107 Y88.428 E152.84514
G1 X82.818 Y88.265 E152.88043
G1 X87.017 Y84.065 E153.16757
G1 X86.950 Y84.431 E153.18557
G1 X86.698 Y84.932 E153.21268
G1 X83.298 Y88.332 E153.44517
G1 X84.408 Y87.771 F7800.000
G1 F1200
G1 X86.536 Y85.643 E153.59069
G1 Z1.000 F7800.000
G1 E151.59069 F1800.00000
G92 E0
G1 X69.389 Y83.389 F7800.000
G1 E2.00000 F1800.00000
G1 F900
G1 X80.611 Y83.389 E2.53970
G1 X80.611 Y89.111 E2.81488
G1 X69.389 Y89.111 E3.35458
G1 X69.389 Y83.449 E3.62686
G1 X69.775 Y83.775 F7800.000
G1 F900
G1 X80.225 Y83.775 E4.12947
G1 X80.225 Y88.725 E4.36755
G1 X69.775 Y88.725 E4.87016
G1 X69.775 Y83.835 E5.10535
G1 X69.628 Y83.403 F7800.000
G1 X80.996 Y83.004 F7800.000
G1 F3600
G1 X69.004 Y83.004 E5.68215
G1 X69.004 Y88.979 E5.96953
G1 X66.488 Y88.402 E6.09364
G1 X65.318 Y87.751 E6.15806
G1 X64.244 Y86.834 E6.22600
G1 X63.374 Y85.721 E6.29393
G1 X62.773 Y84.524 E6.35835
G1 X62.275 Y81.821 E6.49056
G1 X60.818 Y60.996 E7.49460
G1 X89.182 Y60.996 E8.85878
G1 X87.725 Y81.821 E9.86282
G1 X87.227 Y84.524 E9.99503
G1 X86.626 Y85.721 E10.05945
G1 X85.756 Y86.834 E10.12739
G1 X84.682 Y87.751 E10.19532
G1 X83.512 Y88.402 E10.25974
