;Sliced by ideaMaker 3.3.0.2343, 2018-12-02 20:07:12 UTC+1100
;Dimension: 150.000 150.000 150.000 0.400
;Plate Shape: 0
;Extruder Offset #1: 25.000 0.000
;Filament Diameter #1: 1.750
;Filament Diameter #2: 1.750
;Filament Compensation #1: 100.00
;Filament Compensation #2: 90.00
;Filament Density #1: 1250.00
;Filament Density #2: 1250.00
;Model Gap: 0.000
M221 T0 S100.00
G21 			; Millimetres
G90 			; Absolute position
M82 			; Absolute extruder
M107 			; Fan off
M104 T0 S210 	; Extruder temp
T0 			; Tool 0
G28 X0 Y0			; Home X and Y
G28 Z0			; Home Z
M109 T0 S210 	; Extruder temp and wait
M83			; Relative extruder
G1 E5 F300			; Extruder prime
M82			; Absolute extruder
G92 E0			; Set extruder home
G1 F6000.0		; Set speed
M117 Printing...
M1001
;LAYER:0
;Z:0.300
;HEIGHT:0.300
M106 S0
M104 T0 S210
G1 F1800 E-0.5000
G0 F6000 X65.685 Y65.399
G0 F960 Z0.300
;TYPE:SKIRT
;WIDTH:0.400
G1 F1500 E0.0000
G1 F1200 X66.045 Y65.124 E0.0226
G1 X66.439 Y64.904 E0.0451
G1 X66.861 Y64.741 E0.0677
G1 X67.302 Y64.639 E0.0903
G1 X67.800 Y64.600 E0.1152
G1 X82.200 Y64.600 E0.8336
G1 X82.651 Y64.632 E0.8562
G1 X83.093 Y64.727 E0.8787
G1 X83.518 Y64.884 E0.9013
G1 X83.916 Y65.099 E0.9239
G1 X84.279 Y65.368 E0.9464
G1 X84.601 Y65.685 E0.9690
G1 X84.876 Y66.045 E0.9916
G1 X85.096 Y66.439 E1.0141
G1 X85.259 Y66.861 E1.0367
G1 X85.361 Y67.302 E1.0592
G1 X85.400 Y67.800 E1.0842
G1 X85.400 Y82.200 E1.8026
G1 X85.368 Y82.651 E1.8251
G1 X85.273 Y83.093 E1.8477
G1 X85.116 Y83.518 E1.8703
G1 X84.901 Y83.916 E1.8929
G1 X84.632 Y84.279 E1.9154
G1 X84.315 Y84.601 E1.9380
G1 X83.955 Y84.876 E1.9606
G1 X83.561 Y85.096 E1.9831
G1 X83.139 Y85.259 E2.0056
G1 X82.698 Y85.361 E2.0282
G1 X82.200 Y85.400 E2.0531
G1 X67.800 Y85.400 E2.7716
G1 X67.349 Y85.368 E2.7941
G1 X66.907 Y85.273 E2.8167
G1 X66.482 Y85.116 E2.8393
G1 X66.084 Y84.901 E2.8618
G1 X65.721 Y84.632 E2.8844
G1 X65.399 Y84.315 E2.9069
G1 X65.124 Y83.955 E2.9295
G1 X64.904 Y83.561 E2.9520
G1 X64.741 Y83.139 E2.9746
G1 X64.639 Y82.698 E2.9972
G1 X64.600 Y82.200 E3.0221
G1 X64.600 Y67.800 E3.7405
G1 X64.632 Y67.349 E3.7631
G1 X64.727 Y66.907 E3.7856
G1 X64.884 Y66.482 E3.8082
G1 X65.099 Y66.084 E3.8308
G1 X65.368 Y65.721 E3.8534
G1 X65.685 Y65.399 E3.8759
G1 F1800 E3.3759
G0 F6000 X76.840 Y70.348
;TYPE:WALL-INNER
;WIDTH:0.400
G1 F1500 E3.8759
G1 F1200 X76.243 Y70.156 E3.9072
G1 X75.643 Y70.042 E3.9377
G1 X75.300 Y70.008 E3.9549
G1 X74.700 Y70.008 E3.9848
G1 X74.357 Y70.042 E4.0020
G1 X73.771 Y70.153 E4.0317
G1 X73.439 Y70.249 E4.0490
G1 X72.887 Y70.469 E4.0786
G1 X72.578 Y70.625 E4.0959
G1 X72.074 Y70.944 E4.1257
G1 X71.800 Y71.158 E4.1430
G1 X71.356 Y71.575 E4.1734
G1 X70.956 Y72.057 E4.2046
G1 X70.627 Y72.575 E4.2353
G1 X70.471 Y72.881 E4.2524
G1 X70.250 Y73.435 E4.2821
G1 X70.154 Y73.768 E4.2994
G1 X70.043 Y74.354 E4.3292
G1 X70.009 Y74.696 E4.3463
G1 X70.007 Y75.295 E4.3762
G1 X70.041 Y75.640 E4.3935
G1 X70.154 Y76.237 E4.4238
G1 X70.349 Y76.840 E4.4554
G1 X70.613 Y77.406 E4.4866
G1 X70.943 Y77.925 E4.5173
G1 X71.156 Y78.198 E4.5346
G1 X71.563 Y78.634 E4.5643
G1 X71.825 Y78.864 E4.5817
G1 X72.320 Y79.223 E4.6122
G1 X72.870 Y79.526 E4.6436
G1 X73.439 Y79.751 E4.6741
G1 X73.771 Y79.847 E4.6913
G1 X74.357 Y79.958 E4.7211
G1 X74.700 Y79.992 E4.7383
G1 X75.314 Y79.992 E4.7689
G1 X75.938 Y79.914 E4.8003
G1 X76.530 Y79.761 E4.8308
G1 X76.856 Y79.644 E4.8481
G1 X77.397 Y79.389 E4.8779
G1 X77.693 Y79.212 E4.8951
G1 X78.175 Y78.864 E4.9248
G1 X78.435 Y78.636 E4.9420
G1 X78.840 Y78.202 E4.9716
G1 X79.054 Y77.928 E4.9890
G1 X79.373 Y77.424 E5.0187
G1 X79.529 Y77.119 E5.0358
G1 X79.756 Y76.549 E5.0664
G1 X79.913 Y75.941 E5.0978
G1 X79.992 Y75.316 E5.1292
G1 X79.993 Y74.690 E5.1604
G1 X79.915 Y74.065 E5.1919
G1 X79.762 Y73.472 E5.2224
G1 X79.645 Y73.149 E5.2395
G1 X79.392 Y72.609 E5.2693
G1 X79.216 Y72.311 E5.2866
G1 X78.866 Y71.827 E5.3164
G1 X78.638 Y71.567 E5.3336
G1 X78.200 Y71.158 E5.3635
G1 X77.926 Y70.944 E5.3809
G1 X77.412 Y70.619 E5.4112
G1 X76.840 Y70.348 E5.4428
G0 F6000 X76.692 Y70.721
G1 F1200 X76.144 Y70.544 E5.4715
G1 X75.586 Y70.438 E5.4998
G1 X75.280 Y70.408 E5.5152
G1 X74.720 Y70.408 E5.5431
G1 X74.414 Y70.438 E5.5585
G1 X73.864 Y70.542 E5.5864
G1 X73.569 Y70.628 E5.6017
G1 X73.051 Y70.834 E5.6295
G1 X72.776 Y70.973 E5.6449
G1 X72.304 Y71.272 E5.6728
G1 X72.060 Y71.462 E5.6882
G1 X71.648 Y71.849 E5.7164
G1 X71.280 Y72.293 E5.7452
G1 X70.975 Y72.774 E5.7736
G1 X70.836 Y73.046 E5.7888
G1 X70.629 Y73.565 E5.8167
G1 X70.543 Y73.861 E5.8321
G1 X70.439 Y74.411 E5.8600
G1 X70.409 Y74.716 E5.8753
G1 X70.407 Y75.276 E5.9032
G1 X70.437 Y75.583 E5.9186
G1 X70.542 Y76.138 E5.9468
G1 X70.722 Y76.693 E5.9759
G1 X70.965 Y77.213 E6.0046
G1 X71.270 Y77.694 E6.0330
G1 X71.460 Y77.938 E6.0484
G1 X71.842 Y78.346 E6.0763
G1 X72.075 Y78.551 E6.0918
G1 X72.535 Y78.885 E6.1201
G1 X73.041 Y79.163 E6.1489
G1 X73.569 Y79.372 E6.1773
G1 X73.864 Y79.458 E6.1926
G1 X74.414 Y79.562 E6.2205
G1 X74.720 Y79.592 E6.2359
G1 X75.289 Y79.592 E6.2642
G1 X75.863 Y79.520 E6.2931
G1 X76.412 Y79.378 E6.3214
G1 X76.703 Y79.274 E6.3368
G1 X77.209 Y79.036 E6.3647
G1 X77.473 Y78.878 E6.3801
G1 X77.925 Y78.551 E6.4079
G1 X78.156 Y78.348 E6.4232
G1 X78.536 Y77.942 E6.4510
G1 X78.726 Y77.698 E6.4664
G1 X79.025 Y77.226 E6.4943
G1 X79.164 Y76.954 E6.5095
G1 X79.375 Y76.425 E6.5379
G1 X79.519 Y75.866 E6.5667
G1 X79.592 Y75.290 E6.5957
G1 X79.593 Y74.715 E6.6244
G1 X79.521 Y74.140 E6.6533
G1 X79.379 Y73.590 E6.6816
G1 X79.275 Y73.302 E6.6969
G1 X79.038 Y72.796 E6.7248
G1 X78.881 Y72.530 E6.7402
G1 X78.553 Y72.077 E6.7681
G1 X78.350 Y71.846 E6.7834
G1 X77.940 Y71.462 E6.8115
G1 X77.696 Y71.272 E6.8269
G1 X77.219 Y70.970 E6.8551
G1 X76.692 Y70.721 E6.8841
G1 F1800 E6.3841
G0 F6000 X76.544 Y71.094
;TYPE:WALL-OUTER
;WIDTH:0.400
G1 F1500 E6.8841
G1 F1200 X76.045 Y70.932 E6.9103
G1 X75.529 Y70.834 E6.9365
G1 X75.261 Y70.808 E6.9500
G1 X74.739 Y70.808 E6.9760
G1 X74.471 Y70.834 E6.9894
G1 X73.958 Y70.931 E7.0155
G1 X73.699 Y71.007 E7.0289
G1 X73.215 Y71.199 E7.0549
G1 X72.974 Y71.321 E7.0684
G1 X72.534 Y71.600 E7.0944
G1 X72.320 Y71.766 E7.1079
G1 X71.940 Y72.123 E7.1339
G1 X71.604 Y72.529 E7.1602
G1 X71.323 Y72.972 E7.1864
G1 X71.201 Y73.211 E7.1998
G1 X71.008 Y73.696 E7.2258
G1 X70.932 Y73.955 E7.2393
G1 X70.835 Y74.468 E7.2653
G1 X70.809 Y74.736 E7.2788
G1 X70.807 Y75.257 E7.3048
G1 X70.833 Y75.526 E7.3182
G1 X70.930 Y76.039 E7.3443
G1 X71.095 Y76.546 E7.3709
G1 X71.317 Y77.020 E7.3970
G1 X71.598 Y77.464 E7.4232
G1 X71.764 Y77.678 E7.4367
G1 X72.121 Y78.058 E7.4627
G1 X72.325 Y78.238 E7.4763
G1 X72.750 Y78.546 E7.5025
G1 X73.212 Y78.800 E7.5288
G1 X73.699 Y78.993 E7.5549
G1 X73.958 Y79.069 E7.5684
G1 X74.471 Y79.166 E7.5944
G1 X74.739 Y79.192 E7.6079
G1 X75.264 Y79.192 E7.6341
G1 X75.788 Y79.126 E7.6604
G1 X76.295 Y78.995 E7.6865
G1 X76.550 Y78.904 E7.7001
G1 X77.021 Y78.682 E7.7260
G1 X77.253 Y78.544 E7.7395
G1 X77.675 Y78.238 E7.7655
G1 X77.877 Y78.060 E7.7789
G1 X78.232 Y77.682 E7.8048
G1 X78.398 Y77.468 E7.8183
G1 X78.677 Y77.028 E7.8443
G1 X78.799 Y76.789 E7.8577
G1 X78.994 Y76.301 E7.8839
G1 X79.125 Y75.791 E7.9102
G1 X79.192 Y75.264 E7.9367
G1 X79.193 Y74.740 E7.9628
G1 X79.127 Y74.215 E7.9892
G1 X78.996 Y73.708 E8.0154
G1 X78.905 Y73.455 E8.0288
G1 X78.684 Y72.983 E8.0548
G1 X78.546 Y72.749 E8.0683
G1 X78.240 Y72.327 E8.0943
G1 X78.062 Y72.125 E8.1078
G1 X77.680 Y71.766 E8.1339
G1 X77.466 Y71.600 E8.1474
G1 X77.026 Y71.321 E8.1734
G1 X76.544 Y71.094 E8.2000
G1 F1800 E7.7000
G0 F6000 X76.629 Y70.827
G0 X74.417 Y70.457
G0 X72.074 Y71.477
G0 X70.648 Y73.573
G0 X70.561 Y76.127
G0 X68.800 Y81.200
;TYPE:WALL-INNER
;WIDTH:0.400
G1 F1500 E8.2000
G1 F1200 X68.800 Y68.800 E8.8186
G1 X81.200 Y68.800 E9.4373
G1 X81.200 Y81.200 E10.0559
G1 X68.800 Y81.200 E10.6746
G0 F6000 X68.400 Y81.600
G1 F1200 X68.400 Y68.400 E11.3331
G1 X81.600 Y68.400 E11.9917
G1 X81.600 Y81.600 E12.6502
G1 X68.400 Y81.600 E13.3088
G1 F1800 E12.8088
G0 F6000 X68.000 Y82.000
;TYPE:WALL-OUTER
;WIDTH:0.400
G1 F1500 E13.3088
G1 F1200 X68.000 Y68.000 E14.0072
G1 X82.000 Y68.000 E14.7057
G1 X82.000 Y82.000 E15.4041
G1 X68.000 Y82.000 E16.1026
G0 F6000 X69.442 Y81.039
;TYPE:SOLID-FILL
;WIDTH:0.400
G1 F1200 X68.959 Y80.556 E16.1367
G0 F6000 X68.959 Y79.990
G1 F1200 X70.008 Y81.039 E16.2107
G0 F6000 X70.574 Y81.039
G1 F1200 X68.959 Y79.425 E16.3246
G0 F6000 X68.959 Y78.859
G1 F1200 X71.139 Y81.039 E16.4784
G0 F6000 X71.705 Y81.039
G1 F1200 X68.959 Y78.293 E16.6722
G0 F6000 X68.959 Y77.728
G1 F1200 X72.271 Y81.039 E16.9058
G0 F6000 X72.836 Y81.039
G1 F1200 X68.959 Y77.162 E17.1794
G0 F6000 X68.959 Y76.596
G1 F1200 X73.402 Y81.039 E17.4928
G0 F6000 X73.968 Y81.039
G1 F1200 X72.349 Y79.420 E17.6071
G0 F6000 X73.400 Y79.905
G1 F1200 X74.534 Y81.039 E17.6871
G0 F6000 X75.099 Y81.039
G1 F1200 X74.138 Y80.078 E17.7549
G0 F6000 X74.777 Y80.151
G1 F1200 X75.665 Y81.039 E17.8175
G0 F6000 X76.231 Y81.039
G1 F1200 X75.340 Y80.149 E17.8804
G0 F6000 X75.843 Y80.086
G1 F1200 X76.796 Y81.039 E17.9476
G0 F6000 X77.362 Y81.039
G1 F1200 X76.306 Y79.983 E18.0221
G0 F6000 X76.743 Y79.854
G1 F1200 X77.928 Y81.039 E18.1057
G0 F6000 X78.493 Y81.039
G1 F1200 X77.141 Y79.686 E18.2011
G0 F6000 X77.520 Y79.500
G1 F1200 X79.059 Y81.039 E18.3097
G0 F6000 X79.625 Y81.039
G1 F1200 X77.868 Y79.282 E18.4337
G0 F6000 X78.196 Y79.045
G1 F1200 X80.190 Y81.039 E18.5744
G0 F6000 X80.756 Y81.039
G1 F1200 X78.504 Y78.787 E18.7333
G0 F6000 X78.780 Y78.498
G1 F1200 X81.039 Y80.756 E18.8926
G0 F6000 X81.039 Y80.190
G1 F1200 X79.045 Y78.196 E19.0333
G0 F6000 X79.280 Y77.866
G1 F1200 X81.039 Y79.625 E19.1574
G0 F6000 X81.039 Y79.059
G1 F1200 X79.500 Y77.520 E19.2660
G0 F6000 X79.690 Y77.144
G1 F1200 X81.039 Y78.493 E19.3612
G0 F6000 X81.039 Y77.928
G1 F1200 X79.850 Y76.739 E19.4451
G0 F6000 X79.982 Y76.305
G1 F1200 X81.039 Y77.362 E19.5196
G0 F6000 X81.039 Y76.796
G1 F1200 X80.085 Y75.842 E19.5870
G0 F6000 X80.149 Y75.340
G1 F1200 X81.039 Y76.231 E19.6498
G0 F6000 X81.039 Y75.665
G1 F1200 X80.151 Y74.777 E19.7124
G0 F6000 X80.084 Y74.145
G1 F1200 X81.039 Y75.099 E19.7798
G0 F6000 X81.039 Y74.534
G1 F1200 X79.904 Y73.399 E19.8599
G0 F6000 X81.039 Y73.402
G1 F1200 X76.597 Y68.960 E20.1733
G0 F6000 X76.031 Y68.960
G1 F1200 X77.655 Y70.584 E20.2879
G0 F6000 X76.612 Y70.106
G1 F1200 X75.465 Y68.960 E20.3687
G0 F6000 X74.900 Y68.960
G1 F1200 X75.860 Y69.920 E20.4365
G0 F6000 X75.222 Y69.848
G1 F1200 X74.334 Y68.960 E20.4991
G0 F6000 X73.768 Y68.960
G1 F1200 X74.659 Y69.850 E20.5620
G0 F6000 X74.159 Y69.916
G1 F1200 X73.203 Y68.960 E20.6294
G0 F6000 X72.637 Y68.960
G1 F1200 X73.687 Y70.010 E20.7035
G0 F6000 X73.259 Y70.147
G1 F1200 X72.071 Y68.960 E20.7873
G0 F6000 X71.506 Y68.960
G1 F1200 X72.855 Y70.309 E20.8825
G0 F6000 X72.477 Y70.497
G1 F1200 X70.940 Y68.960 E20.9909
G0 F6000 X70.374 Y68.960
G1 F1200 X72.131 Y70.717 E21.1149
G0 F6000 X71.801 Y70.953
G1 F1200 X69.809 Y68.960 E21.2554
G0 F6000 X69.243 Y68.960
G1 F1200 X71.501 Y71.218 E21.4148
G0 F6000 X71.213 Y71.496
G1 F1200 X68.959 Y69.242 E21.5738
G0 F6000 X68.959 Y69.808
G1 F1200 X70.957 Y71.805 E21.7147
G0 F6000 X70.718 Y72.132
G1 F1200 X68.959 Y70.374 E21.8388
G0 F6000 X68.959 Y70.939
G1 F1200 X70.498 Y72.478 E21.9474
G0 F6000 X70.309 Y72.854
G1 F1200 X68.959 Y71.505 E22.0426
G0 F6000 X68.959 Y72.071
G1 F1200 X70.148 Y73.259 E22.1265
G0 F6000 X70.011 Y73.688
G1 F1200 X68.959 Y72.636 E22.2007
G0 F6000 X68.959 Y73.202
G1 F1200 X69.917 Y74.159 E22.2682
G0 F6000 X69.852 Y74.660
G1 F1200 X68.959 Y73.768 E22.3312
G0 F6000 X68.959 Y74.333
G1 F1200 X69.848 Y75.222 E22.3939
G0 F6000 X69.920 Y75.860
G1 F1200 X68.959 Y74.899 E22.4617
G0 F6000 X68.959 Y75.465
G1 F1200 X70.108 Y76.613 E22.5428
G0 F6000 X70.581 Y77.652
G1 F1200 X68.959 Y76.030 E22.6572
G1 F1800 E22.1572
G0 F6000 X72.074 Y71.477
G0 X74.417 Y70.457
G0 X77.163 Y68.960
G1 F1500 E22.6572
G1 F1200 X81.039 Y72.836 E22.9307
G0 F6000 X81.039 Y72.271
G1 F1200 X77.728 Y68.960 E23.1643
G0 F6000 X78.294 Y68.960
G1 F1200 X81.039 Y71.705 E23.3580
G0 F6000 X81.039 Y71.139
G1 F1200 X78.860 Y68.960 E23.5117
G0 F6000 X79.425 Y68.960
G1 F1200 X81.039 Y70.574 E23.6256
G0 F6000 X81.039 Y70.008
G1 F1200 X79.991 Y68.960 E23.6995
G0 F6000 X80.557 Y68.960
G1 F1200 X81.039 Y69.442 E23.7335
G1 F1800 E23.2335
G0 F6000 X79.429 Y72.358
G1 F1500 E23.7335
G1 F1200 X81.039 Y73.968 E23.8471
;LAYER:1
;Z:0.600
;HEIGHT:0.300
M106 S255
M104 T0 S200
G1 F1800 E23.3471
G0 F960 Z0.600
G0 F6000 X76.840 Y70.348
;TYPE:WALL-INNER
;WIDTH:0.400
G1 F1500 E23.8471
G1 X76.243 Y70.156 E23.8784
G1 X75.643 Y70.042 E23.9089
G1 X75.300 Y70.008 E23.9261
G1 X74.686 Y70.008 E23.9567
G1 X74.062 Y70.086 E23.9881
G1 X73.469 Y70.239 E24.0186
G1 X73.145 Y70.356 E24.0358
G1 X72.603 Y70.610 E24.0657
G1 X72.307 Y70.788 E24.0829
G1 X71.825 Y71.136 E24.1126
G1 X71.566 Y71.364 E24.1298
G1 X71.162 Y71.794 E24.1592
G1 X70.951 Y72.068 E24.1765
G1 X70.631 Y72.570 E24.2062
G1 X70.349 Y73.166 E24.2391
G1 X70.163 Y73.733 E24.2688
G1 X70.088 Y74.070 E24.2861
G1 X70.009 Y74.677 E24.3166
G1 X70.007 Y75.304 E24.3479
G1 X70.084 Y75.930 E24.3794
G1 X70.237 Y76.521 E24.4098
G1 X70.351 Y76.846 E24.4270
G1 X70.612 Y77.402 E24.4576
G1 X70.940 Y77.918 E24.4881
G1 X71.150 Y78.192 E24.5054
G1 X71.571 Y78.641 E24.5361
G1 X72.059 Y79.046 E24.5677
G1 X72.578 Y79.375 E24.5984
G1 X72.887 Y79.531 E24.6156
G1 X73.439 Y79.751 E24.6453
G1 X73.771 Y79.847 E24.6625
G1 X74.357 Y79.958 E24.6923
G1 X74.700 Y79.992 E24.7095
G1 X75.314 Y79.992 E24.7401
G1 X75.938 Y79.914 E24.7715
G1 X76.530 Y79.761 E24.8020
G1 X76.856 Y79.644 E24.8193
G1 X77.397 Y79.389 E24.8491
G1 X77.693 Y79.212 E24.8663
G1 X78.175 Y78.864 E24.8960
G1 X78.434 Y78.636 E24.9132
G1 X78.837 Y78.206 E24.9426
G1 X79.050 Y77.933 E24.9599
G1 X79.378 Y77.418 E24.9903
G1 X79.646 Y76.850 E25.0217
G1 X79.837 Y76.267 E25.0523
G1 X79.912 Y75.930 E25.0695
G1 X79.992 Y75.316 E25.1004
G1 X79.993 Y74.696 E25.1313
G1 X79.916 Y74.070 E25.1628
G1 X79.763 Y73.477 E25.1933
G1 X79.647 Y73.154 E25.2105
G1 X79.395 Y72.615 E25.2401
G1 X79.219 Y72.315 E25.2575
G1 X78.869 Y71.831 E25.2873
G1 X78.632 Y71.561 E25.3052
G1 X78.200 Y71.156 E25.3348
G1 X77.926 Y70.944 E25.3521
G1 X77.412 Y70.619 E25.3824
G1 X76.840 Y70.348 E25.4140
G0 F6000 X76.692 Y70.721
G1 F1500 X76.144 Y70.544 E25.4427
G1 X75.586 Y70.438 E25.4710
G1 X75.280 Y70.408 E25.4864
G1 X74.711 Y70.408 E25.5148
G1 X74.137 Y70.480 E25.5436
G1 X73.587 Y70.622 E25.5720
G1 X73.298 Y70.726 E25.5873
G1 X72.791 Y70.964 E25.6152
G1 X72.527 Y71.122 E25.6306
G1 X72.075 Y71.449 E25.6584
G1 X71.845 Y71.652 E25.6737
G1 X71.467 Y72.054 E25.7012
G1 X71.278 Y72.298 E25.7166
G1 X70.978 Y72.769 E25.7445
G1 X70.842 Y73.033 E25.7593
G1 X70.723 Y73.308 E25.7743
G1 X70.549 Y73.839 E25.8021
G1 X70.482 Y74.139 E25.8175
G1 X70.409 Y74.703 E25.8459
G1 X70.407 Y75.280 E25.8746
G1 X70.478 Y75.855 E25.9035
G1 X70.620 Y76.404 E25.9318
G1 X70.722 Y76.694 E25.9472
G1 X70.963 Y77.209 E25.9755
G1 X71.268 Y77.689 E26.0039
G1 X71.455 Y77.933 E26.0193
G1 X71.846 Y78.349 E26.0477
G1 X72.295 Y78.722 E26.0769
G1 X72.776 Y79.027 E26.1053
G1 X73.051 Y79.166 E26.1206
G1 X73.569 Y79.372 E26.1485
G1 X73.864 Y79.458 E26.1638
G1 X74.414 Y79.562 E26.1917
G1 X74.720 Y79.592 E26.2071
G1 X75.289 Y79.592 E26.2354
G1 X75.863 Y79.520 E26.2643
G1 X76.412 Y79.378 E26.2926
G1 X76.703 Y79.274 E26.3080
G1 X77.209 Y79.036 E26.3359
G1 X77.473 Y78.878 E26.3513
G1 X77.925 Y78.551 E26.3791
G1 X78.155 Y78.348 E26.3944
G1 X78.533 Y77.946 E26.4219
G1 X78.723 Y77.702 E26.4374
G1 X79.027 Y77.224 E26.4656
G1 X79.274 Y76.702 E26.4944
G1 X79.451 Y76.161 E26.5228
G1 X79.518 Y75.861 E26.5382
G1 X79.592 Y75.290 E26.5669
