;Sliced by ideaMaker 3.3.0.2343, 2018-12-02 20:29:30 UTC+1100
;Dimension: 150.000 150.000 150.000 0.400
;Plate Shape: 0
;Extruder Offset #1: 25.000 0.000
;Filament Diameter #1: 1.750
;Filament Diameter #2: 1.750
;Filament Compensation #1: 100.00
;Filament Compensation #2: 90.00
;Filament Density #1: 1250.00
;Filament Density #2: 1250.00
;Model Gap: 0.000
M221 T0 S100.00
G21 			; Millimetres
G90 			; Absolute position
M82 			; Absolute extruder
M107 			; Fan off
M104 T0 S210 	; Extruder temp
T0 			; Tool 0
G28 X0 Y0			; Home X and Y
G28 Z0			; Home Z
M109 T0 S210 	; Extruder temp and wait
M83			; Relative extruder
G1 E5 F300			; Extruder prime
M82			; Absolute extruder
G92 E0			; Set extruder home
G1 F6000.0		; Set speed
M117 Printing...
M1001
;LAYER:0
;Z:0.300
;HEIGHT:0.300
M106 S0
M104 T0 S210
G1 F1800 E-0.5000
G0 F6000 X58.485 Y58.199
G0 F960 Z0.300
;TYPE:SKIRT
;WIDTH:0.400
G1 F1500 E0.0000
G1 F1200 X58.845 Y57.924 E0.0226
G1 X59.239 Y57.704 E0.0451
G1 X59.661 Y57.541 E0.0677
G1 X60.102 Y57.439 E0.0903
G1 X60.600 Y57.400 E0.1152
G1 X89.400 Y57.400 E1.5520
G1 X89.851 Y57.432 E1.5746
G1 X90.293 Y57.527 E1.5971
G1 X90.718 Y57.684 E1.6197
G1 X91.116 Y57.899 E1.6423
G1 X91.479 Y58.168 E1.6649
G1 X91.801 Y58.485 E1.6874
G1 X92.076 Y58.845 E1.7100
G1 X92.296 Y59.239 E1.7325
G1 X92.459 Y59.661 E1.7551
G1 X92.561 Y60.102 E1.7777
G1 X92.600 Y60.600 E1.8026
G1 X92.600 Y89.400 E3.2394
G1 X92.568 Y89.851 E3.2620
G1 X92.473 Y90.293 E3.2845
G1 X92.316 Y90.718 E3.3071
G1 X92.101 Y91.116 E3.3297
G1 X91.832 Y91.479 E3.3522
G1 X91.515 Y91.801 E3.3748
G1 X91.155 Y92.076 E3.3974
G1 X90.761 Y92.296 E3.4199
G1 X90.339 Y92.459 E3.4425
G1 X89.898 Y92.561 E3.4651
G1 X89.400 Y92.600 E3.4900
G1 X60.600 Y92.600 E4.9268
G1 X60.149 Y92.568 E4.9494
G1 X59.707 Y92.473 E4.9719
G1 X59.282 Y92.316 E4.9945
G1 X58.884 Y92.101 E5.0171
G1 X58.521 Y91.832 E5.0396
G1 X58.199 Y91.515 E5.0622
G1 X57.924 Y91.155 E5.0848
G1 X57.704 Y90.761 E5.1073
G1 X57.541 Y90.339 E5.1299
G1 X57.439 Y89.898 E5.1524
G1 X57.400 Y89.400 E5.1774
G1 X57.400 Y60.600 E6.6142
G1 X57.432 Y60.149 E6.6368
G1 X57.527 Y59.707 E6.6593
G1 X57.684 Y59.282 E6.6819
G1 X57.899 Y58.884 E6.7045
G1 X58.168 Y58.521 E6.7270
G1 X58.485 Y58.199 E6.7496
G1 F1800 E6.2496
G0 F6000 X66.280 Y77.237
;TYPE:WALL-INNER
;WIDTH:0.400
G1 F1500 E6.7496
G1 F1200 X66.441 Y77.779 E6.7778
G1 X66.631 Y78.310 E6.8059
G1 X66.855 Y78.828 E6.8341
G1 X67.110 Y79.331 E6.8622
G1 X67.398 Y79.820 E6.8905
G1 X67.716 Y80.288 E6.9188
G1 X68.064 Y80.735 E6.9470
G1 X68.436 Y81.159 E6.9752
G1 X68.837 Y81.560 E7.0034
G1 X69.263 Y81.934 E7.0317
G1 X69.710 Y82.282 E7.0600
G1 X70.178 Y82.600 E7.0882
G1 X70.664 Y82.888 E7.1164
G1 X71.169 Y83.144 E7.1447
G1 X71.686 Y83.368 E7.1728
G1 X72.218 Y83.561 E7.2010
G1 X72.763 Y83.719 E7.2293
G1 X73.314 Y83.841 E7.2575
G1 X73.872 Y83.930 E7.2857
G1 X74.435 Y83.982 E7.3139
G1 X75.000 Y84.000 E7.3421
G1 X75.565 Y83.982 E7.3703
G1 X76.128 Y83.930 E7.3985
G1 X76.686 Y83.841 E7.4267
G1 X77.238 Y83.719 E7.4549
G1 X77.782 Y83.560 E7.4831
G1 X78.314 Y83.368 E7.5114
G1 X78.831 Y83.144 E7.5395
G1 X79.336 Y82.888 E7.5677
G1 X79.822 Y82.600 E7.5959
G1 X80.290 Y82.282 E7.6241
G1 X80.737 Y81.934 E7.6524
G1 X81.161 Y81.562 E7.6805
G1 X81.560 Y81.163 E7.7087
G1 X81.932 Y80.739 E7.7368
G1 X82.280 Y80.292 E7.7651
G1 X82.598 Y79.824 E7.7933
G1 X82.886 Y79.338 E7.8215
G1 X83.142 Y78.836 E7.8496
G1 X83.367 Y78.318 E7.8778
G1 X83.560 Y77.785 E7.9061
G1 X83.718 Y77.241 E7.9343
G1 X83.840 Y76.689 E7.9625
G1 X83.929 Y76.131 E7.9907
G1 X83.982 Y75.564 E8.0191
G1 X83.999 Y75.003 E8.0471
G1 X83.983 Y74.441 E8.0752
G1 X83.931 Y73.875 E8.1035
G1 X83.842 Y73.317 E8.1317
G1 X83.720 Y72.766 E8.1599
G1 X83.562 Y72.221 E8.1882
G1 X83.369 Y71.689 E8.2164
G1 X83.145 Y71.172 E8.2445
G1 X82.891 Y70.669 E8.2727
G1 X82.602 Y70.179 E8.3010
G1 X82.283 Y69.711 E8.3293
G1 X81.936 Y69.265 E8.3575
G1 X81.564 Y68.841 E8.3856
G1 X81.161 Y68.438 E8.4141
G1 X80.737 Y68.066 E8.4422
G1 X80.290 Y67.718 E8.4705
G1 X79.822 Y67.400 E8.4987
G1 X79.336 Y67.113 E8.5269
G1 X78.832 Y66.856 E8.5551
G1 X78.313 Y66.632 E8.5833
G1 X77.782 Y66.442 E8.6114
G1 X77.240 Y66.281 E8.6396
G1 X76.686 Y66.159 E8.6679
G1 X76.128 Y66.070 E8.6961
G1 X75.565 Y66.018 E8.7243
G1 X75.000 Y66.000 E8.7525
G1 X74.435 Y66.018 E8.7807
G1 X73.872 Y66.070 E8.8089
G1 X73.314 Y66.159 E8.8371
G1 X72.761 Y66.281 E8.8654
G1 X72.218 Y66.441 E8.8936
G1 X71.687 Y66.632 E8.9218
G1 X71.168 Y66.856 E8.9500
G1 X70.664 Y67.113 E8.9782
G1 X70.178 Y67.400 E9.0064
G1 X69.710 Y67.718 E9.0346
G1 X69.263 Y68.066 E9.0629
G1 X68.839 Y68.438 E9.0910
G1 X68.440 Y68.837 E9.1191
G1 X68.068 Y69.261 E9.1473
G1 X67.720 Y69.708 E9.1756
G1 X67.402 Y70.176 E9.2038
G1 X67.115 Y70.662 E9.2319
G1 X66.858 Y71.164 E9.2601
G1 X66.633 Y71.684 E9.2883
G1 X66.442 Y72.215 E9.3165
G1 X66.282 Y72.758 E9.3447
G1 X66.160 Y73.311 E9.3730
G1 X66.071 Y73.869 E9.4012
G1 X66.019 Y74.432 E9.4294
G1 X66.001 Y74.995 E9.4575
G1 X66.017 Y75.559 E9.4856
G1 X66.069 Y76.125 E9.5140
G1 X66.158 Y76.683 E9.5422
G1 X66.280 Y77.237 E9.5705
G0 F6000 X66.668 Y77.137
G1 F1200 X66.821 Y77.655 E9.5974
G1 X67.003 Y78.163 E9.6244
G1 X67.217 Y78.658 E9.6513
G1 X67.461 Y79.139 E9.6782
G1 X67.736 Y79.606 E9.7052
G1 X68.040 Y80.053 E9.7322
G1 X68.372 Y80.480 E9.7592
G1 X68.728 Y80.885 E9.7861
G1 X69.111 Y81.268 E9.8131
G1 X69.518 Y81.626 E9.8401
G1 X69.945 Y81.958 E9.8671
G1 X70.392 Y82.262 E9.8941
G1 X70.857 Y82.537 E9.9210
G1 X71.339 Y82.782 E9.9480
G1 X71.834 Y82.996 E9.9749
G1 X72.342 Y83.180 E10.0019
G1 X72.862 Y83.331 E10.0289
G1 X73.389 Y83.448 E10.0558
G1 X73.922 Y83.533 E10.0827
G1 X74.460 Y83.583 E10.1097
G1 X75.000 Y83.600 E10.1367
G1 X75.540 Y83.583 E10.1636
G1 X76.078 Y83.533 E10.1906
G1 X76.611 Y83.448 E10.2175
G1 X77.139 Y83.331 E10.2445
G1 X77.658 Y83.180 E10.2714
G1 X78.166 Y82.996 E10.2984
G1 X78.661 Y82.782 E10.3253
G1 X79.143 Y82.537 E10.3523
G1 X79.608 Y82.262 E10.3792
G1 X80.055 Y81.958 E10.4062
G1 X80.482 Y81.626 E10.4332
G1 X80.887 Y81.270 E10.4601
G1 X81.268 Y80.889 E10.4870
G1 X81.624 Y80.484 E10.5139
G1 X81.956 Y80.057 E10.5409
G1 X82.260 Y79.610 E10.5678
G1 X82.535 Y79.145 E10.5948
G1 X82.780 Y78.665 E10.6217
G1 X82.995 Y78.170 E10.6486
G1 X83.179 Y77.661 E10.6756
G1 X83.330 Y77.142 E10.7026
G1 X83.447 Y76.614 E10.7295
G1 X83.532 Y76.081 E10.7565
G1 X83.583 Y75.539 E10.7836
G1 X83.599 Y75.003 E10.8104
G1 X83.584 Y74.465 E10.8372
G1 X83.534 Y73.925 E10.8643
G1 X83.449 Y73.392 E10.8912
G1 X83.332 Y72.865 E10.9181
G1 X83.181 Y72.345 E10.9452
G1 X82.997 Y71.837 E10.9721
G1 X82.783 Y71.342 E10.9990
G1 X82.540 Y70.861 E11.0259
G1 X82.264 Y70.393 E11.0530
G1 X81.960 Y69.947 E11.0799
G1 X81.628 Y69.520 E11.1069
G1 X81.272 Y69.115 E11.1338
G1 X80.887 Y68.730 E11.1610
G1 X80.482 Y68.374 E11.1879
G1 X80.055 Y68.042 E11.2149
G1 X79.608 Y67.738 E11.2418
G1 X79.143 Y67.464 E11.2688
G1 X78.662 Y67.218 E11.2957
G1 X78.166 Y67.004 E11.3227
G1 X77.658 Y66.822 E11.3496
G1 X77.140 Y66.669 E11.3765
G1 X76.611 Y66.552 E11.4036
G1 X76.078 Y66.467 E11.4305
G1 X75.540 Y66.417 E11.4575
G1 X75.000 Y66.400 E11.4844
G1 X74.460 Y66.417 E11.5114
G1 X73.922 Y66.467 E11.5383
G1 X73.389 Y66.552 E11.5653
G1 X72.861 Y66.669 E11.5922
G1 X72.342 Y66.821 E11.6192
G1 X71.834 Y67.004 E11.6462
G1 X71.338 Y67.218 E11.6731
G1 X70.857 Y67.464 E11.7001
G1 X70.392 Y67.738 E11.7270
G1 X69.945 Y68.042 E11.7540
G1 X69.518 Y68.374 E11.7809
G1 X69.113 Y68.730 E11.8078
G1 X68.732 Y69.111 E11.8347
G1 X68.376 Y69.516 E11.8616
G1 X68.044 Y69.943 E11.8886
G1 X67.740 Y70.390 E11.9156
G1 X67.466 Y70.855 E11.9425
G1 X67.220 Y71.335 E11.9694
G1 X67.005 Y71.831 E11.9964
G1 X66.822 Y72.339 E12.0233
G1 X66.670 Y72.858 E12.0503
G1 X66.553 Y73.386 E12.0773
G1 X66.468 Y73.919 E12.1042
G1 X66.418 Y74.457 E12.1312
G1 X66.401 Y74.996 E12.1581
G1 X66.416 Y75.535 E12.1850
G1 X66.466 Y76.075 E12.2120
G1 X66.551 Y76.608 E12.2390
G1 X66.668 Y77.137 E12.2660
G1 F1800 E11.7660
G0 F6000 X67.056 Y77.037
;TYPE:WALL-OUTER
;WIDTH:0.400
G1 F1500 E12.2660
G1 F1200 X67.201 Y77.531 E12.2917
G1 X67.375 Y78.016 E12.3174
G1 X67.579 Y78.488 E12.3430
G1 X67.812 Y78.947 E12.3687
G1 X68.074 Y79.392 E12.3945
G1 X68.364 Y79.818 E12.4202
G1 X68.680 Y80.225 E12.4459
G1 X69.020 Y80.611 E12.4716
G1 X69.385 Y80.976 E12.4973
G1 X69.773 Y81.318 E12.5231
G1 X70.180 Y81.634 E12.5488
G1 X70.606 Y81.924 E12.5745
G1 X71.050 Y82.186 E12.6003
G1 X71.509 Y82.420 E12.6260
G1 X71.981 Y82.624 E12.6516
G1 X72.466 Y82.799 E12.6773
G1 X72.961 Y82.943 E12.7031
G1 X73.464 Y83.055 E12.7288
G1 X73.972 Y83.136 E12.7544
G1 X74.485 Y83.184 E12.7801
G1 X75.000 Y83.200 E12.8058
G1 X75.515 Y83.184 E12.8315
G1 X76.028 Y83.136 E12.8572
G1 X76.536 Y83.055 E12.8829
G1 X77.040 Y82.943 E12.9087
G1 X77.534 Y82.799 E12.9343
G1 X78.019 Y82.624 E12.9601
G1 X78.491 Y82.420 E12.9857
G1 X78.950 Y82.186 E13.0114
G1 X79.394 Y81.924 E13.0371
G1 X79.820 Y81.634 E13.0629
G1 X80.227 Y81.318 E13.0886
G1 X80.613 Y80.978 E13.1142
G1 X80.976 Y80.615 E13.1398
G1 X81.316 Y80.229 E13.1655
G1 X81.632 Y79.822 E13.1912
G1 X81.922 Y79.396 E13.2169
G1 X82.184 Y78.952 E13.2426
G1 X82.418 Y78.494 E13.2683
G1 X82.623 Y78.022 E13.2940
G1 X82.798 Y77.537 E13.3197
G1 X82.942 Y77.043 E13.3454
G1 X83.054 Y76.539 E13.3711
G1 X83.135 Y76.031 E13.3968
G1 X83.184 Y75.514 E13.4227
G1 X83.199 Y75.003 E13.4482
G1 X83.185 Y74.489 E13.4739
G1 X83.137 Y73.975 E13.4996
G1 X83.056 Y73.467 E13.5253
G1 X82.944 Y72.964 E13.5510
G1 X82.800 Y72.469 E13.5767
G1 X82.625 Y71.984 E13.6024
G1 X82.421 Y71.512 E13.6281
G1 X82.189 Y71.053 E13.6537
G1 X81.926 Y70.608 E13.6795
G1 X81.636 Y70.182 E13.7052
G1 X81.320 Y69.775 E13.7309
G1 X80.980 Y69.389 E13.7566
G1 X80.613 Y69.022 E13.7825
G1 X80.227 Y68.682 E13.8082
G1 X79.820 Y68.366 E13.8339
G1 X79.394 Y68.076 E13.8596
G1 X78.950 Y67.815 E13.8853
G1 X78.491 Y67.580 E13.9110
G1 X78.019 Y67.376 E13.9367
G1 X77.534 Y67.202 E13.9624
G1 X77.040 Y67.057 E13.9880
G1 X76.536 Y66.945 E14.0138
G1 X76.028 Y66.864 E14.0395
G1 X75.515 Y66.816 E14.0652
G1 X75.000 Y66.800 E14.0909
G1 X74.485 Y66.816 E14.1166
G1 X73.972 Y66.864 E14.1423
G1 X73.464 Y66.945 E14.1680
G1 X72.961 Y67.057 E14.1937
G1 X72.466 Y67.202 E14.2194
G1 X71.981 Y67.376 E14.2451
G1 X71.509 Y67.580 E14.2708
G1 X71.050 Y67.815 E14.2965
G1 X70.606 Y68.076 E14.3222
G1 X70.180 Y68.366 E14.3479
G1 X69.773 Y68.682 E14.3736
G1 X69.387 Y69.022 E14.3993
G1 X69.024 Y69.385 E14.4249
G1 X68.684 Y69.771 E14.4505
G1 X68.368 Y70.178 E14.4762
G1 X68.078 Y70.604 E14.5020
G1 X67.817 Y71.048 E14.5277
G1 X67.582 Y71.506 E14.5533
G1 X67.377 Y71.978 E14.5790
G1 X67.203 Y72.463 E14.6047
G1 X67.058 Y72.958 E14.6304
G1 X66.946 Y73.461 E14.6562
G1 X66.865 Y73.969 E14.6818
G1 X66.817 Y74.482 E14.7075
G1 X66.801 Y74.997 E14.7332
G1 X66.815 Y75.511 E14.7589
G1 X66.863 Y76.025 E14.7846
G1 X66.944 Y76.533 E14.8103
G1 X67.056 Y77.037 E14.8361
G1 F1800 E14.3361
G0 F6000 X66.788 Y77.119
G0 X61.600 Y88.400
;TYPE:WALL-INNER
;WIDTH:0.400
G1 F1500 E14.8361
G1 F1200 X61.600 Y61.600 E16.1731
G1 X88.400 Y61.600 E17.5102
G1 X88.400 Y88.400 E18.8472
G1 X61.600 Y88.400 E20.1843
G0 F6000 X61.200 Y88.800
G1 F1200 X61.200 Y61.200 E21.5613
G1 X88.800 Y61.200 E22.9382
G1 X88.800 Y88.800 E24.3152
G1 X61.200 Y88.800 E25.6922
G1 F1800 E25.1922
G0 F6000 X60.800 Y89.200
;TYPE:WALL-OUTER
;WIDTH:0.400
G1 F1500 E25.6922
G1 F1200 X60.800 Y60.800 E27.1091
G1 X89.200 Y60.800 E28.5259
G1 X89.200 Y89.200 E29.9428
G1 X60.800 Y89.200 E31.3597
G0 F6000 X61.935 Y88.239
;TYPE:SOLID-FILL
;WIDTH:0.400
G1 F1200 X61.759 Y88.063 E31.3721
G0 F6000 X61.759 Y87.498
G1 F1200 X62.501 Y88.239 E31.4244
G0 F6000 X63.066 Y88.239
G1 F1200 X61.759 Y86.932 E31.5166
G0 F6000 X61.759 Y86.366
G1 F1200 X63.632 Y88.239 E31.6488
G0 F6000 X64.198 Y88.239
G1 F1200 X61.759 Y85.801 E31.8208
G0 F6000 X61.759 Y85.235
G1 F1200 X64.763 Y88.239 E32.0328
G0 F6000 X65.329 Y88.239
G1 F1200 X61.759 Y84.669 E32.2847
G0 F6000 X61.759 Y84.103
G1 F1200 X65.895 Y88.239 E32.5765
G0 F6000 X66.460 Y88.239
G1 F1200 X61.759 Y83.538 E32.9082
G0 F6000 X61.759 Y82.972
G1 F1200 X67.026 Y88.239 E33.2798
G0 F6000 X67.592 Y88.239
G1 F1200 X61.759 Y82.406 E33.6913
G0 F6000 X61.759 Y81.841
G1 F1200 X68.158 Y88.239 E34.1428
G0 F6000 X68.723 Y88.239
G1 F1200 X61.759 Y81.275 E34.6341
G0 F6000 X61.759 Y80.709
G1 F1200 X69.289 Y88.239 E35.1654
G0 F6000 X69.855 Y88.239
G1 F1200 X61.759 Y80.144 E35.7366
G0 F6000 X61.759 Y79.578
G1 F1200 X70.420 Y88.239 E36.3477
G0 F6000 X70.986 Y88.239
G1 F1200 X61.759 Y79.012 E36.9987
G0 F6000 X61.759 Y78.447
G1 F1200 X71.552 Y88.239 E37.6896
G0 F6000 X72.117 Y88.239
G1 F1200 X61.759 Y77.881 E38.4204
G0 F6000 X61.759 Y77.315
G1 F1200 X72.683 Y88.239 E39.1912
G0 F6000 X73.249 Y88.239
G1 F1200 X61.759 Y76.750 E40.0018
G0 F6000 X61.759 Y76.184
G1 F1200 X73.814 Y88.239 E40.8524
G0 F6000 X74.380 Y88.239
G1 F1200 X61.759 Y75.618 E41.7428
G0 F6000 X61.759 Y75.053
G1 F1200 X74.946 Y88.239 E42.6732
G0 F6000 X75.511 Y88.239
G1 F1200 X69.825 Y82.553 E43.0744
G0 F6000 X71.146 Y83.308
G1 F1200 X76.077 Y88.239 E43.4223
G0 F6000 X76.643 Y88.239
G1 F1200 X72.085 Y83.681 E43.7439
G0 F6000 X72.875 Y83.906
G1 F1200 X77.208 Y88.239 E44.0496
G0 F6000 X77.774 Y88.239
G1 F1200 X73.579 Y84.044 E44.3456
G0 F6000 X74.223 Y84.123
G1 F1200 X78.340 Y88.239 E44.6360
G0 F6000 X78.906 Y88.239
G1 F1200 X74.820 Y84.154 E44.9243
G0 F6000 X75.379 Y84.147
G1 F1200 X79.471 Y88.239 E45.2130
G0 F6000 X80.037 Y88.239
G1 F1200 X75.907 Y84.110 E45.5044
G0 F6000 X76.409 Y84.046
G1 F1200 X80.603 Y88.239 E45.8002
G0 F6000 X81.168 Y88.239
G1 F1200 X76.887 Y83.959 E46.1022
G0 F6000 X77.347 Y83.852
G1 F1200 X81.734 Y88.239 E46.4118
G0 F6000 X82.300 Y88.239
G1 F1200 X77.785 Y83.724 E46.7303
G0 F6000 X78.203 Y83.577
G1 F1200 X82.865 Y88.239 E47.0593
G0 F6000 X83.431 Y88.239
G1 F1200 X78.606 Y83.415 E47.3997
G0 F6000 X78.996 Y83.239
G1 F1200 X83.997 Y88.239 E47.7525
G0 F6000 X84.562 Y88.239
G1 F1200 X79.372 Y83.048 E48.1187
G0 F6000 X79.729 Y82.840
G1 F1200 X85.128 Y88.239 E48.4996
G0 F6000 X85.694 Y88.239
G1 F1200 X80.075 Y82.621 E48.8960
G0 F6000 X80.410 Y82.390
G1 F1200 X86.259 Y88.239 E49.3087
G0 F6000 X86.825 Y88.239
G1 F1200 X80.728 Y82.143 E49.7388
G0 F6000 X81.035 Y81.884
G1 F1200 X87.391 Y88.239 E50.1873
G0 F6000 X87.957 Y88.239
G1 F1200 X81.332 Y81.615 E50.6547
G0 F6000 X81.615 Y81.332
G1 F1200 X88.239 Y87.957 E51.1221
G0 F6000 X88.239 Y87.391
G1 F1200 X81.883 Y81.035 E51.5705
G0 F6000 X82.142 Y80.728
G1 F1200 X88.239 Y86.825 E52.0007
G0 F6000 X88.239 Y86.259
G1 F1200 X82.389 Y80.410 E52.4134
G0 F6000 X82.619 Y80.074
G1 F1200 X88.239 Y85.694 E52.8099
G0 F6000 X88.239 Y85.128
G1 F1200 X82.839 Y79.728 E53.1909
G0 F6000 X83.048 Y79.371
G1 F1200 X88.239 Y84.562 E53.5572
G0 F6000 X88.239 Y83.997
G1 F1200 X83.239 Y78.996 E53.9100
G0 F6000 X83.414 Y78.606
G1 F1200 X88.239 Y83.431 E54.2504
G0 F6000 X88.239 Y82.865
G1 F1200 X83.577 Y78.203 E54.5793
G0 F6000 X83.724 Y77.785
G1 F1200 X88.239 Y82.300 E54.8979
G0 F6000 X88.239 Y81.734
G1 F1200 X83.852 Y77.346 E55.2075
G0 F6000 X83.958 Y76.887
G1 F1200 X88.239 Y81.168 E55.5095
G0 F6000 X88.239 Y80.603
G1 F1200 X84.046 Y76.409 E55.8054
G0 F6000 X84.109 Y75.907
G1 F1200 X88.239 Y80.037 E56.0968
G0 F6000 X88.239 Y79.471
G1 F1200 X84.146 Y75.378 E56.3856
G0 F6000 X84.152 Y74.818
G1 F1200 X88.239 Y78.906 E56.6740
G0 F6000 X88.239 Y78.340
G1 F1200 X84.123 Y74.223 E56.9644
G0 F6000 X84.045 Y73.580
G1 F1200 X88.239 Y77.774 E57.2603
G0 F6000 X88.239 Y77.208
G1 F1200 X83.906 Y72.875 E57.5660
G0 F6000 X83.682 Y72.086
G1 F1200 X88.239 Y76.643 E57.8875
G0 F6000 X88.239 Y76.077
G1 F1200 X83.306 Y71.144 E58.2356
G0 F6000 X82.556 Y69.828
