;FLAVOR:Marlin
;TIME:1436
;Filament used: 0.257075m
;Layer height: 0.1
;Generated with Cura_SteamEngine 3.2.0
M104 S200
M109 S200
M82 ;absolute extrusion mode
G28 ;Home
G1 Z15.0 F6000 ;Move the platform down 15mm
;Prime the extruder
G92 E0
G1 F200 E3
G92 E0
;LAYER_COUNT:118
;LAYER:0
M107
G0 F3600 X60.241 Y60.01 Z0.3
;TYPE:SKIRT
G1 F1800 X60.84 Y59.495 E0.01486
G1 X61.488 Y59.044 E0.02971
G1 X62.178 Y58.66 E0.04456
G1 X62.903 Y58.348 E0.05941
G1 X63.657 Y58.111 E0.07428
G1 X64.43 Y57.952 E0.08912
G1 X65.216 Y57.871 E0.10399
G1 X65.617 Y57.861 E0.11153
G1 X84.384 Y57.86 E0.46455
G1 X85.172 Y57.9 E0.47939
G1 X85.953 Y58.019 E0.49425
G1 X86.717 Y58.217 E0.5091
G1 X87.458 Y58.491 E0.52396
G1 X88.167 Y58.839 E0.53882
G1 X88.837 Y59.256 E0.55366
G1 X89.462 Y59.739 E0.56852
G1 X90.035 Y60.283 E0.58338
G1 X90.549 Y60.882 E0.59823
G1 X91.001 Y61.53 E0.61309
G1 X91.385 Y62.22 E0.62794
G1 X91.696 Y62.946 E0.6428
G1 X91.933 Y63.699 E0.65765
G1 X92.093 Y64.472 E0.6725
G1 X92.174 Y65.258 E0.68736
G1 X92.184 Y65.66 E0.69493
G1 X92.184 Y84.428 E1.04796
G1 X92.144 Y85.217 E1.06282
G1 X92.025 Y85.997 E1.07767
G1 X91.827 Y86.762 E1.09253
G1 X91.553 Y87.502 E1.10737
G1 X91.205 Y88.211 E1.12223
G1 X90.787 Y88.882 E1.1371
G1 X90.304 Y89.506 E1.15194
G1 X89.761 Y90.079 E1.16679
G1 X89.162 Y90.594 E1.18165
G1 X88.514 Y91.045 E1.1965
G1 X87.823 Y91.429 E1.21137
G1 X87.098 Y91.741 E1.22622
G1 X86.345 Y91.978 E1.24107
G1 X85.571 Y92.137 E1.25593
G1 X84.786 Y92.218 E1.27078
G1 X84.384 Y92.228 E1.27834
G1 X65.616 Y92.228 E1.63138
G1 X64.827 Y92.188 E1.64624
G1 X64.047 Y92.069 E1.66108
G1 X63.282 Y91.871 E1.67595
G1 X62.542 Y91.597 E1.69079
G1 X61.833 Y91.249 E1.70565
G1 X61.162 Y90.831 E1.72052
G1 X60.538 Y90.348 E1.73536
G1 X59.965 Y89.805 E1.75021
G1 X59.45 Y89.206 E1.76507
G1 X58.999 Y88.558 E1.77992
G1 X58.615 Y87.867 E1.79479
G1 X58.303 Y87.142 E1.80964
G1 X58.066 Y86.389 E1.82449
G1 X57.907 Y85.615 E1.83935
G1 X57.826 Y84.83 E1.85419
G1 X57.816 Y84.428 E1.86176
G1 X57.817 Y65.661 E2.21478
G1 X57.857 Y64.872 E2.22964
G1 X57.977 Y64.091 E2.2445
G1 X58.174 Y63.327 E2.25934
G1 X58.449 Y62.586 E2.27421
G1 X58.796 Y61.877 E2.28906
G1 X59.214 Y61.207 E2.30391
G1 X59.697 Y60.582 E2.31877
G1 X60.241 Y60.01 E2.33362
G0 F3600 X60.634 Y60.191
G1 F1800 X61.228 Y59.703 E2.34808
G1 X61.87 Y59.28 E2.36254
G1 X62.553 Y58.925 E2.37702
G1 X63.269 Y58.643 E2.3915
G1 X64.01 Y58.438 E2.40596
G1 X64.768 Y58.31 E2.42042
G1 X65.617 Y58.261 E2.43641
G1 X84.384 Y58.26 E2.78943
G1 X85.152 Y58.3 E2.8039
G1 X85.912 Y58.419 E2.81837
G1 X86.655 Y58.617 E2.83283
G1 X87.374 Y58.891 E2.84731
G1 X88.06 Y59.238 E2.86177
G1 X88.707 Y59.654 E2.87624
G1 X89.307 Y60.135 E2.8907
G1 X89.854 Y60.676 E2.90517
G1 X90.342 Y61.271 E2.91965
G1 X90.765 Y61.913 E2.93411
G1 X91.12 Y62.595 E2.94857
G1 X91.401 Y63.311 E2.96304
G1 X91.607 Y64.052 E2.97751
G1 X91.735 Y64.811 E2.99199
G1 X91.784 Y65.66 E3.00798
G1 X91.784 Y84.428 E3.36102
G1 X91.744 Y85.196 E3.37549
G1 X91.625 Y85.956 E3.38996
G1 X91.427 Y86.699 E3.40442
G1 X91.153 Y87.418 E3.41889
G1 X90.806 Y88.104 E3.43336
G1 X90.39 Y88.751 E3.44782
G1 X89.909 Y89.351 E3.46229
G1 X89.368 Y89.898 E3.47676
G1 X88.773 Y90.386 E3.49124
G1 X88.131 Y90.809 E3.5057
G1 X87.448 Y91.164 E3.52018
G1 X86.733 Y91.445 E3.53463
G1 X85.991 Y91.651 E3.54911
G1 X85.233 Y91.779 E3.56358
G1 X84.384 Y91.828 E3.57957
G1 X65.616 Y91.828 E3.93261
G1 X64.848 Y91.788 E3.94707
G1 X64.088 Y91.669 E3.96154
G1 X63.345 Y91.471 E3.97601
G1 X62.626 Y91.197 E3.99048
G1 X61.94 Y90.85 E4.00494
G1 X61.293 Y90.434 E4.01941
G1 X60.693 Y89.953 E4.03388
G1 X60.146 Y89.412 E4.04835
G1 X59.658 Y88.817 E4.06282
G1 X59.235 Y88.175 E4.07729
G1 X58.88 Y87.492 E4.09177
G1 X58.599 Y86.777 E4.10622
G1 X58.393 Y86.035 E4.1207
G1 X58.265 Y85.277 E4.13516
G1 X58.216 Y84.428 E4.15116
G1 X58.217 Y65.661 E4.50418
G1 X58.257 Y64.892 E4.51866
G1 X58.377 Y64.133 E4.53312
G1 X58.574 Y63.389 E4.54759
G1 X58.848 Y62.671 E4.56205
G1 X59.195 Y61.984 E4.57653
G1 X59.611 Y61.337 E4.591
G1 X60.093 Y60.737 E4.60547
G1 X60.634 Y60.191 E4.61993
G0 F3600 X61.026 Y60.377
G1 F1800 X61.616 Y59.917 E4.634
G1 X62.251 Y59.523 E4.64806
G1 X62.926 Y59.199 E4.66215
G1 X63.631 Y58.949 E4.67622
G1 X64.358 Y58.775 E4.69028
G1 X65.1 Y58.68 E4.70435
G1 X65.617 Y58.661 E4.71408
G1 X84.384 Y58.66 E5.0671
G1 X85.131 Y58.7 E5.08117
G1 X85.869 Y58.819 E5.09523
G1 X86.591 Y59.017 E5.10931
G1 X87.287 Y59.29 E5.12338
G1 X87.95 Y59.636 E5.13745
G1 X88.573 Y60.051 E5.15153
G1 X89.147 Y60.53 E5.16559
G1 X89.667 Y61.068 E5.17966
G1 X90.127 Y61.658 E5.19374
G1 X90.521 Y62.294 E5.20781
G1 X90.846 Y62.968 E5.22189
G1 X91.096 Y63.673 E5.23596
G1 X91.27 Y64.4 E5.25002
G1 X91.365 Y65.142 E5.26409
G1 X91.384 Y65.66 E5.27384
G1 X91.384 Y84.428 E5.62688
G1 X91.344 Y85.175 E5.64095
G1 X91.225 Y85.913 E5.65501
G1 X91.027 Y86.635 E5.66909
G1 X90.754 Y87.331 E5.68315
G1 X90.407 Y87.994 E5.69723
G1 X89.992 Y88.617 E5.71131
G1 X89.513 Y89.191 E5.72537
G1 X88.976 Y89.712 E5.73945
G1 X88.386 Y90.171 E5.75351
G1 X87.75 Y90.566 E5.76759
G1 X87.076 Y90.89 E5.78166
G1 X86.371 Y91.14 E5.79573
G1 X85.643 Y91.314 E5.80981
G1 X84.901 Y91.409 E5.82388
G1 X84.384 Y91.428 E5.83361
G1 X65.616 Y91.428 E6.18665
G1 X64.869 Y91.388 E6.20072
G1 X64.131 Y91.269 E6.21478
G1 X63.409 Y91.071 E6.22887
G1 X62.713 Y90.798 E6.24293
G1 X62.05 Y90.451 E6.25701
G1 X61.427 Y90.036 E6.27109
G1 X60.853 Y89.557 E6.28515
G1 X60.332 Y89.02 E6.29922
G1 X59.873 Y88.43 E6.31328
G1 X59.478 Y87.794 E6.32737
G1 X59.154 Y87.12 E6.34144
G1 X58.904 Y86.415 E6.35551
G1 X58.73 Y85.687 E6.36959
G1 X58.635 Y84.945 E6.38366
G1 X58.616 Y84.428 E6.39339
G1 X58.617 Y65.661 E6.74641
G1 X58.657 Y64.914 E6.76048
G1 X58.777 Y64.175 E6.77456
G1 X58.974 Y63.454 E6.78862
G1 X59.248 Y62.757 E6.80271
G1 X59.594 Y62.094 E6.81678
G1 X60.009 Y61.472 E6.83084
G1 X60.488 Y60.897 E6.84492
G1 X61.026 Y60.377 E6.85899
G0 F3600 X60.883 Y61.063
G1 F1800 X61.417 Y60.57 E6.87266
G1 X62.001 Y60.139 E6.88632
G1 X62.63 Y59.776 E6.89998
G1 X63.295 Y59.483 E6.91365
G1 X63.988 Y59.265 E6.92731
G1 X64.701 Y59.125 E6.94098
G1 X65.617 Y59.061 E6.95825
G1 X84.384 Y59.06 E7.31127
G1 X85.109 Y59.1 E7.32493
G1 X85.825 Y59.219 E7.33858
G1 X86.524 Y59.417 E7.35225
G1 X87.198 Y59.69 E7.36593
G1 X87.837 Y60.035 E7.37959
G1 X88.434 Y60.449 E7.39325
G1 X88.982 Y60.925 E7.40691
G1 X89.474 Y61.459 E7.42057
G1 X89.905 Y62.044 E7.43423
G1 X90.269 Y62.672 E7.44789
G1 X90.562 Y63.337 E7.46156
G1 X90.78 Y64.03 E7.47522
G1 X90.92 Y64.743 E7.48889
G1 X90.984 Y65.66 E7.50618
G1 X90.984 Y84.428 E7.85922
G1 X90.944 Y85.153 E7.87288
G1 X90.825 Y85.87 E7.88655
G1 X90.627 Y86.569 E7.90021
G1 X90.354 Y87.242 E7.91388
G1 X90.009 Y87.881 E7.92754
G1 X89.595 Y88.478 E7.9412
G1 X89.119 Y89.026 E7.95486
G1 X88.585 Y89.519 E7.96853
G1 X88 Y89.949 E7.98218
G1 X87.371 Y90.313 E7.99585
G1 X86.706 Y90.606 E8.00952
G1 X86.013 Y90.824 E8.02319
G1 X85.301 Y90.964 E8.03684
G1 X84.384 Y91.028 E8.05413
G1 X65.616 Y91.028 E8.40717
G1 X64.891 Y90.988 E8.42082
G1 X64.174 Y90.869 E8.4345
G1 X63.475 Y90.671 E8.44816
G1 X62.802 Y90.398 E8.46182
G1 X62.163 Y90.053 E8.47548
G1 X61.566 Y89.639 E8.48915
G1 X61.018 Y89.163 E8.5028
G1 X60.525 Y88.629 E8.51647
G1 X60.095 Y88.044 E8.53013
G1 X59.731 Y87.415 E8.5438
G1 X59.438 Y86.75 E8.55747
G1 X59.22 Y86.057 E8.57114
G1 X59.08 Y85.345 E8.58479
G1 X59.016 Y84.428 E8.60208
G1 X59.017 Y65.661 E8.95509
G1 X59.057 Y64.935 E8.96877
G1 X59.176 Y64.219 E8.98243
G1 X59.374 Y63.52 E8.99609
G1 X59.647 Y62.847 E9.00975
G1 X59.992 Y62.208 E9.02341
G1 X60.406 Y61.611 E9.03708
G1 X60.883 Y61.063 E9.05074
G0 F3600 X61.277 Y61.234
G1 F1800 X61.806 Y60.77 E9.06398
G1 X62.385 Y60.37 E9.07722
G1 X63.006 Y60.038 E9.09046
G1 X63.66 Y59.778 E9.1037
G1 X64.34 Y59.594 E9.11695
G1 X65.036 Y59.488 E9.1302
G1 X65.617 Y59.461 E9.14114
G1 X84.384 Y59.46 E9.49416
G1 X85.087 Y59.5 E9.5074
G1 X85.78 Y59.619 E9.52063
G1 X86.456 Y59.817 E9.53388
G1 X87.105 Y60.089 E9.54711
G1 X87.719 Y60.433 E9.56035
G1 X88.29 Y60.845 E9.5736
G1 X88.811 Y61.319 E9.58685
G1 X89.274 Y61.849 E9.60009
G1 X89.675 Y62.428 E9.61333
G1 X90.007 Y63.049 E9.62658
G1 X90.267 Y63.703 E9.63982
G1 X90.451 Y64.382 E9.65305
G1 X90.557 Y65.078 E9.66629
G1 X90.584 Y65.66 E9.67725
G1 X90.584 Y84.428 E10.03029
G1 X90.544 Y85.131 E10.04354
G1 X90.425 Y85.825 E10.05678
G1 X90.227 Y86.5 E10.07001
G1 X89.955 Y87.149 E10.08325
G1 X89.61 Y87.763 E10.0965
G1 X89.199 Y88.334 E10.10973
G1 X88.725 Y88.855 E10.12298
G1 X88.195 Y89.319 E10.13623
G1 X87.616 Y89.719 E10.14947
G1 X86.995 Y90.051 E10.16272
G1 X86.341 Y90.311 E10.17595
G1 X85.661 Y90.495 E10.1892
G1 X84.965 Y90.601 E10.20245
G1 X84.384 Y90.628 E10.21339
G1 X65.616 Y90.628 E10.56643
G1 X64.913 Y90.588 E10.57967
G1 X64.219 Y90.469 E10.59292
G1 X63.544 Y90.271 E10.60615
G1 X62.895 Y89.999 E10.61938
G1 X62.281 Y89.654 E10.63263
G1 X61.71 Y89.243 E10.64587
G1 X61.189 Y88.769 E10.65912
G1 X60.725 Y88.239 E10.67237
G1 X60.325 Y87.66 E10.6856
G1 X59.993 Y87.039 E10.69885
G1 X59.733 Y86.385 E10.71209
G1 X59.549 Y85.705 E10.72534
G1 X59.443 Y85.009 E10.73858
G1 X59.416 Y84.428 E10.74952
G1 X59.417 Y65.661 E11.10254
G1 X59.457 Y64.958 E11.11579
G1 X59.576 Y64.264 E11.12903
G1 X59.774 Y63.588 E11.14228
G1 X60.046 Y62.939 E11.15552
G1 X60.391 Y62.325 E11.16877
G1 X60.803 Y61.754 E11.18201
G1 X61.277 Y61.234 E11.19525
G0 F3600 X61.67 Y61.411
G1 F1800 X62.195 Y60.978 E11.20805
G1 X62.767 Y60.609 E11.22085
G1 X63.379 Y60.31 E11.23366
G1 X64.022 Y60.085 E11.24648
G1 X64.686 Y59.936 E11.25928
G1 X65.617 Y59.861 E11.27685
G1 X84.384 Y59.86 E11.62987
G1 X85.063 Y59.9 E11.64266
G1 X85.734 Y60.019 E11.65548
G1 X86.385 Y60.216 E11.66827
G1 X87.01 Y60.488 E11.6811
G1 X87.598 Y60.832 E11.69391
G1 X88.141 Y61.242 E11.70671
G1 X88.633 Y61.712 E11.71951
G1 X89.067 Y62.238 E11.73234
G1 X89.435 Y62.81 E11.74513
G1 X89.735 Y63.421 E11.75793
G1 X89.96 Y64.064 E11.77075
G1 X90.109 Y64.728 E11.78355
G1 X90.184 Y65.66 E11.80114
G1 X90.184 Y84.428 E12.15417
G1 X90.144 Y85.108 E12.16699
G1 X90.025 Y85.778 E12.17979
G1 X89.828 Y86.43 E12.1926
G1 X89.556 Y87.054 E12.2054
G1 X89.212 Y87.642 E12.21822
G1 X88.802 Y88.186 E12.23103
G1 X88.331 Y88.677 E12.24383
G1 X87.806 Y89.111 E12.25664
G1 X87.234 Y89.48 E12.26945
G1 X86.622 Y89.779 E12.28226
G1 X85.98 Y90.004 E12.29506
G1 X85.315 Y90.153 E12.30788
G1 X84.384 Y90.228 E12.32544
G1 X65.616 Y90.228 E12.67848
G1 X64.936 Y90.188 E12.69129
G1 X64.266 Y90.069 E12.70409
G1 X63.614 Y89.872 E12.71691
G1 X62.99 Y89.6 E12.72971
G1 X62.402 Y89.256 E12.74253
G1 X61.858 Y88.846 E12.75534
G1 X61.367 Y88.375 E12.76814
G1 X60.933 Y87.85 E12.78095
G1 X60.564 Y87.278 E12.79376
G1 X60.265 Y86.666 E12.80657
G1 X60.04 Y86.024 E12.81936
G1 X59.891 Y85.359 E12.83218
G1 X59.816 Y84.428 E12.84975
G1 X59.817 Y65.661 E13.20277
G1 X59.857 Y64.981 E13.21558
G1 X59.976 Y64.311 E13.22838
G1 X60.173 Y63.659 E13.2412
G1 X60.446 Y63.035 E13.25401
G1 X60.789 Y62.447 E13.26681
G1 X61.199 Y61.903 E13.27963
G1 X61.67 Y61.411 E13.29244
G0 F3600 X62.062 Y61.596
G1 F1800 X62.582 Y61.195 E13.30479
G1 X63.147 Y60.859 E13.31716
G1 X63.748 Y60.595 E13.3295
G1 X64.377 Y60.405 E13.34186
G1 X65.025 Y60.294 E13.35423
G1 X65.617 Y60.261 E13.36538
G1 X84.384 Y60.26 E13.7184
G1 X85.039 Y60.3 E13.73075
G1 X85.686 Y60.419 E13.74312
G1 X86.312 Y60.616 E13.75546
G1 X86.911 Y60.888 E13.76784
G1 X87.471 Y61.23 E13.78018
G1 X87.987 Y61.637 E13.79254
G1 X88.448 Y62.105 E13.8049
G1 X88.85 Y62.624 E13.81725
G1 X89.186 Y63.189 E13.82962
G1 X89.45 Y63.791 E13.84198
G1 X89.64 Y64.42 E13.85434
G1 X89.751 Y65.067 E13.86669
G1 X89.784 Y65.66 E13.87786
G1 X89.784 Y84.428 E14.2309
G1 X89.744 Y85.084 E14.24326
G1 X89.625 Y85.73 E14.25562
G1 X89.428 Y86.357 E14.26798
G1 X89.156 Y86.955 E14.28034
G1 X88.814 Y87.516 E14.2927
G1 X88.406 Y88.031 E14.30505
G1 X87.939 Y88.493 E14.31741
G1 X87.419 Y88.894 E14.32976
G1 X86.855 Y89.23 E14.34211
G1 X86.253 Y89.494 E14.35448
G1 X85.624 Y89.684 E14.36684
G1 X84.977 Y89.795 E14.37919
G1 X84.384 Y89.828 E14.39036
G1 X65.616 Y89.828 E14.74339
G1 X64.96 Y89.788 E14.75576
G1 X64.314 Y89.669 E14.76811
G1 X63.687 Y89.472 E14.78048
G1 X63.089 Y89.2 E14.79283
G1 X62.528 Y88.858 E14.80519
G1 X62.013 Y88.45 E14.81755
G1 X61.551 Y87.983 E14.82991
G1 X61.15 Y87.463 E14.84226
G1 X60.814 Y86.899 E14.85461
G1 X60.55 Y86.297 E14.86697
G1 X60.36 Y85.668 E14.87933
G1 X60.249 Y85.021 E14.89168
G1 X60.216 Y84.428 E14.90285
G1 X60.217 Y65.661 E15.25587
G1 X60.257 Y65.005 E15.26823
G1 X60.376 Y64.359 E15.28059
G1 X60.573 Y63.732 E15.29295
G1 X60.845 Y63.134 E15.30531
G1 X61.187 Y62.573 E15.31767
G1 X61.595 Y62.058 E15.33003
G1 X62.062 Y61.596 E15.34239
G0 F3600 X61.99 Y62.22
G1 F1800 X62.453 Y61.789 E15.35429
G1 X62.967 Y61.421 E15.36618
G1 X63.523 Y61.121 E15.37806
G1 X64.113 Y60.893 E15.38996
G1 X64.726 Y60.741 E15.40184
G1 X65.617 Y60.661 E15.41867
G1 X84.384 Y60.66 E15.77168
G1 X85.015 Y60.7 E15.78358
G1 X85.635 Y60.819 E15.79545
G1 X86.236 Y61.016 E15.80735
G1 X86.807 Y61.287 E15.81924
G1 X87.34 Y61.627 E15.83113
G1 X87.825 Y62.032 E15.84302
G1 X88.255 Y62.496 E15.85492
G1 X88.624 Y63.009 E15.8668
G1 X88.924 Y63.565 E15.87869
G1 X89.152 Y64.155 E15.89059
G1 X89.304 Y64.769 E15.90248
G1 X89.384 Y65.66 E15.91931
G1 X89.384 Y84.428 E16.27235
G1 X89.344 Y85.059 E16.28424
G1 X89.225 Y85.68 E16.29613
G1 X89.028 Y86.28 E16.30801
G1 X88.757 Y86.852 E16.31992
G1 X88.417 Y87.384 E16.3318
G1 X88.011 Y87.869 E16.34369
G1 X87.548 Y88.299 E16.35558
G1 X87.034 Y88.668 E16.36748
G1 X86.478 Y88.968 E16.37937
G1 X85.889 Y89.196 E16.39125
G1 X85.275 Y89.348 E16.40315
G1 X84.384 Y89.428 E16.41997
G1 X65.616 Y89.428 E16.77301
G1 X64.985 Y89.388 E16.7849
G1 X64.364 Y89.269 E16.7968
G1 X63.764 Y89.072 E16.80868
G1 X63.192 Y88.801 E16.82058
G1 X62.66 Y88.461 E16.83246
G1 X62.175 Y88.055 E16.84436
G1 X61.745 Y87.592 E16.85624
G1 X61.376 Y87.078 E16.86814
G1 X61.076 Y86.522 E16.88003
G1 X60.848 Y85.933 E16.89191
G1 X60.696 Y85.319 E16.90381
G1 X60.616 Y84.428 E16.92063
G1 X60.617 Y65.661 E17.27365
G1 X60.657 Y65.03 E17.28555
G1 X60.776 Y64.409 E17.29744
G1 X60.973 Y63.808 E17.30934
G1 X61.244 Y63.237 E17.32123
G1 X61.585 Y62.705 E17.33311
G1 X61.99 Y62.22 E17.345
G0 F3600 X62.384 Y62.389
G1 F1800 X62.843 Y61.992 E17.35641
G1 X63.349 Y61.659 E17.36781
G1 X63.895 Y61.395 E17.37922
G1 X64.471 Y61.206 E17.39062
G1 X65.067 Y61.094 E17.40203
G1 X65.617 Y61.061 E17.41239
G1 X84.384 Y61.06 E17.76541
G1 X84.989 Y61.1 E17.77681
G1 X85.583 Y61.219 E17.78821
G1 X86.157 Y61.415 E17.79962
G1 X86.7 Y61.685 E17.81103
G1 X87.202 Y62.024 E17.82242
G1 X87.656 Y62.427 E17.83384
G1 X88.053 Y62.885 E17.84524
G1 X88.386 Y63.392 E17.85665
G1 X88.649 Y63.938 E17.86805
G1 X88.839 Y64.514 E17.87946
G1 X88.951 Y65.11 E17.89087
G1 X88.984 Y65.66 E17.90123
G1 X88.984 Y84.428 E18.25427
G1 X88.944 Y85.033 E18.26567
G1 X88.825 Y85.627 E18.27707
G1 X88.629 Y86.201 E18.28848
G1 X88.358 Y86.744 E18.29989
G1 X88.019 Y87.247 E18.3113
G1 X87.617 Y87.7 E18.3227
G1 X87.159 Y88.097 E18.3341
G1 X86.652 Y88.43 E18.34551
G1 X86.106 Y88.694 E18.35692
G1 X85.53 Y88.883 E18.36832
G1 X84.934 Y88.995 E18.37973
G1 X84.384 Y89.028 E18.39009
G1 X65.616 Y89.028 E18.74313
G1 X65.011 Y88.988 E18.75453
G1 X64.417 Y88.869 E18.76593
G1 X63.843 Y88.673 E18.77734
G1 X63.3 Y88.402 E18.78875
G1 X62.797 Y88.063 E18.80016
G1 X62.344 Y87.661 E18.81156
G1 X61.947 Y87.203 E18.82296
G1 X61.614 Y86.696 E18.83437
G1 X61.35 Y86.15 E18.84578
G1 X61.161 Y85.574 E18.85718
G1 X61.049 Y84.978 E18.86859
G1 X61.016 Y84.428 E18.87895
G1 X61.017 Y65.661 E19.23197
G1 X61.057 Y65.056 E19.24337
G1 X61.176 Y64.461 E19.25479
