; generated by Slic3r Prusa Edition 1.39.1-alpha-prusa3d-win64 on 2018-02-08 at 12:36:59

; 

; external perimeters extrusion width = 0.45mm
; perimeters extrusion width = 0.45mm
; infill extrusion width = 0.45mm
; solid infill extrusion width = 0.45mm
; top infill extrusion width = 0.40mm
; first layer extrusion width = 0.80mm

M107
M104 S205 ; set temperature
G28 ; home all axes
G1 Z5 F5000 ; lift nozzle
; Filament gcode
M109 S205 ; set temperature and wait for it to be reached
G21 ; set units to millimeters
G90 ; use absolute coordinates
M82 ; use absolute distances for extrusion
G92 E0
G1 Z0.400 F7800.000
G1 E-2.00000 F2400.00000
G92 E0
G1 X60.999 Y60.303 F7800.000
G1 E2.00000 F2400.00000
G1 F1800
G1 X61.723 Y59.718 E2.11066
G1 X62.517 Y59.222 E2.22183
G1 X63.334 Y58.838 E2.32899
G1 X68.780 Y56.745 E3.02188
G1 X70.119 Y56.393 E3.18633
G1 X71.312 Y56.286 E3.32861
G1 X78.606 Y56.286 E4.19490
G1 X79.841 Y56.386 E4.34198
G1 X81.012 Y56.673 E4.48513
G1 X86.630 Y58.824 E5.19970
G1 X87.487 Y59.224 E5.31195
G1 X88.574 Y59.941 E5.46666
G1 X89.508 Y60.812 E5.61833
G1 X90.291 Y61.832 E5.77109
G1 X90.880 Y62.937 E5.91975
G1 X91.341 Y64.373 E6.09881
G1 X91.513 Y65.874 E6.27828
G1 X91.514 Y84.070 E8.43940
G1 X91.303 Y85.792 E8.64540
G1 X90.889 Y87.041 E8.80162
G1 X90.250 Y88.231 E8.96215
G1 X89.422 Y89.283 E9.12109
G1 X88.401 Y90.192 E9.28344
G1 X87.640 Y90.691 E9.39152
G1 X86.817 Y91.100 E9.50060
G1 X81.190 Y93.266 E10.21673
G1 X79.978 Y93.590 E10.36575
G1 X78.740 Y93.713 E10.51346
G1 X71.202 Y93.711 E11.40875
G1 X69.605 Y93.502 E11.60008
G1 X68.711 Y93.230 E11.71102
G1 X63.337 Y91.163 E12.39480
G1 X62.042 Y90.498 E12.56774
G1 X61.048 Y89.741 E12.71616
G1 X60.205 Y88.854 E12.86148
G1 X59.501 Y87.826 E13.00942
G1 X58.967 Y86.683 E13.15928
G1 X58.613 Y85.396 E13.31776
G1 X58.486 Y84.083 E13.47442
G1 X58.486 Y65.930 E15.63044
G1 X58.697 Y64.208 E15.83640
G1 X58.960 Y63.336 E15.94458
G1 X59.333 Y62.486 E16.05488
G1 X59.809 Y61.681 E16.16590
G1 X60.354 Y60.967 E16.27252
G1 X60.957 Y60.346 E16.37538
G1 E14.37538 F2400.00000
G92 E0
G1 X77.972 Y77.944 F7800.000
G1 E2.00000 F2400.00000
G1 F1800
G1 X77.561 Y78.305 E2.06497
G1 X77.213 Y78.548 E2.11541
G1 X76.619 Y78.857 E2.19491
G1 X76.101 Y79.033 E2.25988
G1 X75.687 Y79.125 E2.31032
G1 X75.000 Y79.185 E2.39220
G1 X74.313 Y79.125 E2.47407
G1 X73.899 Y79.033 E2.52451
G1 X73.381 Y78.857 E2.58948
G1 X72.787 Y78.548 E2.66898
G1 X72.439 Y78.305 E2.71942
G1 X72.058 Y77.971 E2.77963
G1 X71.784 Y77.672 E2.82769
G1 X71.461 Y77.231 E2.89267
G1 X71.152 Y76.637 E2.97216
G1 X71.007 Y76.238 E3.02260
G1 X70.877 Y75.707 E3.08758
G1 X70.818 Y75.040 E3.16707
G1 X70.837 Y74.617 E3.21740
G1 X70.918 Y74.084 E3.28137
G1 X71.126 Y73.420 E3.36405
G1 X71.365 Y72.935 E3.42818
G1 X71.596 Y72.570 E3.47953
G1 X72.041 Y72.041 E3.56164
G1 X72.584 Y71.584 E3.64590
G1 X73.052 Y71.301 E3.71088
G1 X73.437 Y71.121 E3.76131
G1 X74.056 Y70.926 E3.83843
G1 X74.473 Y70.852 E3.88876
G1 X75.011 Y70.817 E3.95272
G1 X75.685 Y70.874 E4.03313
G1 X76.101 Y70.967 E4.08376
G1 X76.582 Y71.130 E4.14398
G1 X76.948 Y71.301 E4.19204
G1 X77.416 Y71.584 E4.25701
G1 X77.959 Y72.041 E4.34127
G1 X78.416 Y72.584 E4.42554
G1 X78.699 Y73.052 E4.49052
G1 X78.879 Y73.437 E4.54094
G1 X79.080 Y74.075 E4.62044
G1 X79.163 Y74.616 E4.68542
G1 X79.180 Y75.000 E4.73110
G1 X79.163 Y75.384 E4.77678
G1 X79.080 Y75.925 E4.84176
G1 X78.879 Y76.563 E4.92126
G1 X78.699 Y76.948 E4.97169
G1 X78.415 Y77.416 E5.03666
G1 X78.011 Y77.898 E5.11141
G1 X77.460 Y77.443 F7800.000
G1 F1800
G1 X77.119 Y77.742 E5.16527
G1 X76.842 Y77.937 E5.20551
G1 X76.338 Y78.199 E5.27296
G1 X75.909 Y78.345 E5.32682
G1 X75.578 Y78.418 E5.36707
G1 X75.000 Y78.468 E5.43596
G1 X74.422 Y78.418 E5.50486
G1 X74.091 Y78.345 E5.54511
G1 X73.662 Y78.199 E5.59896
G1 X73.158 Y77.937 E5.66641
G1 X72.880 Y77.742 E5.70666
G1 X72.558 Y77.459 E5.75761
G1 X72.337 Y77.218 E5.79641
G1 X72.069 Y76.853 E5.85026
G1 X71.807 Y76.349 E5.91771
G1 X71.691 Y76.031 E5.95796
G1 X71.583 Y75.590 E6.01181
G1 X71.534 Y75.024 E6.07926
G1 X71.548 Y74.686 E6.11944
G1 X71.616 Y74.246 E6.17237
G1 X71.791 Y73.686 E6.24207
G1 X71.988 Y73.285 E6.29509
G1 X72.174 Y72.993 E6.33622
G1 X72.547 Y72.547 E6.40525
G1 X73.001 Y72.167 E6.47561
G1 X73.389 Y71.931 E6.52946
G1 X73.696 Y71.788 E6.56971
G1 X74.226 Y71.621 E6.63570
G1 X74.559 Y71.562 E6.67588
G1 X75.004 Y71.533 E6.72881
G1 X75.577 Y71.582 E6.79713
G1 X75.909 Y71.655 E6.83749
G1 X76.315 Y71.793 E6.88845
G1 X76.611 Y71.931 E6.92725
G1 X76.999 Y72.167 E6.98110
G1 X77.453 Y72.547 E7.05145
G1 X77.833 Y73.001 E7.12180
G1 X78.069 Y73.389 E7.17566
G1 X78.212 Y73.696 E7.21590
G1 X78.383 Y74.238 E7.28335
G1 X78.451 Y74.686 E7.33721
G1 X78.465 Y75.000 E7.37455
G1 X78.451 Y75.314 E7.41190
G1 X78.383 Y75.762 E7.46576
G1 X78.212 Y76.304 E7.53321
G1 X78.069 Y76.611 E7.57345
G1 X77.833 Y76.999 E7.62731
G1 X77.499 Y77.397 E7.68908
G1 X76.948 Y76.942 F7800.000
G1 F1800
G1 X76.678 Y77.180 E7.73181
G1 X76.471 Y77.325 E7.76187
G1 X76.057 Y77.540 E7.81727
G1 X75.716 Y77.656 E7.86001
G1 X75.469 Y77.710 E7.89006
G1 X75.000 Y77.752 E7.94598
G1 X74.531 Y77.710 E8.00190
G1 X74.284 Y77.656 E8.03196
G1 X73.943 Y77.540 E8.07469
G1 X73.529 Y77.325 E8.13009
G1 X73.322 Y77.180 E8.16015
G1 X73.058 Y76.948 E8.20184
G1 X72.890 Y76.765 E8.23137
G1 X72.677 Y76.475 E8.27411
G1 X72.462 Y76.061 E8.32951
G1 X72.375 Y75.823 E8.35957
G1 X72.290 Y75.473 E8.40230
G1 X72.249 Y75.009 E8.45770
G1 X72.260 Y74.756 E8.48773
G1 X72.314 Y74.408 E8.52962
G1 X72.456 Y73.952 E8.58634
G1 X72.612 Y73.635 E8.62826
G1 X72.751 Y73.415 E8.65915
G1 X73.054 Y73.054 E8.71512
G1 X73.418 Y72.749 E8.77156
G1 X73.726 Y72.562 E8.81429
G1 X73.955 Y72.455 E8.84435
G1 X74.396 Y72.316 E8.89923
G1 X74.645 Y72.272 E8.92926
G1 X74.997 Y72.249 E8.97114
G1 X75.469 Y72.289 E9.02737
G1 X75.716 Y72.344 E9.05747
G1 X76.049 Y72.457 E9.09917
G1 X76.274 Y72.562 E9.12870
G1 X76.582 Y72.749 E9.17144
G1 X76.946 Y73.054 E9.22788
G1 X77.251 Y73.418 E9.28432
G1 X77.438 Y73.726 E9.32705
G1 X77.545 Y73.955 E9.35711
G1 X77.685 Y74.400 E9.41251
G1 X77.740 Y74.756 E9.45524
G1 X77.750 Y75.000 E9.48426
G1 X77.740 Y75.244 E9.51327
G1 X77.685 Y75.600 E9.55601
G1 X77.545 Y76.045 E9.61141
G1 X77.438 Y76.274 E9.64147
G1 X77.251 Y76.582 E9.68420
G1 X76.987 Y76.896 E9.73299
G1 X77.044 Y77.289 F7800.000
G1 E7.73299 F2400.00000
G92 E0
G1 X77.773 Y66.825 F7800.000
G1 E2.00000 F2400.00000
G1 F1800
G1 X82.972 Y66.835 E2.61738
G1 X82.972 Y83.169 E4.55729
G1 X77.778 Y83.173 E5.17411
G1 X77.771 Y85.172 E5.41145
G1 X72.228 Y85.172 E6.06972
G1 X72.227 Y83.172 E6.30720
G1 X67.028 Y83.171 E6.92458
G1 X67.028 Y66.831 E8.86516
G1 X72.227 Y66.827 E9.48254
G1 X72.228 Y64.828 E9.71986
G1 X77.772 Y64.829 E10.37819
G1 X77.773 Y66.765 E10.60809
G1 X78.487 Y66.112 F7800.000
G1 F1800
G1 X83.686 Y66.122 E11.22554
G1 X83.686 Y83.882 E13.33486
G1 X78.490 Y83.887 E13.95198
G1 X78.483 Y85.886 E14.18939
G1 X71.515 Y85.886 E15.01692
G1 X71.513 Y83.886 E15.25442
G1 X66.314 Y83.885 E15.87188
G1 X66.314 Y66.118 E17.98199
G1 X71.513 Y66.113 E18.59945
G1 X71.515 Y64.114 E18.83686
G1 X78.485 Y64.115 E19.66466
G1 X78.487 Y66.052 E19.89471
G1 X79.200 Y65.399 F7800.000
G1 F1800
G1 X83.871 Y65.408 E20.44943
G1 X84.045 Y65.457 E20.47093
G1 X84.193 Y65.553 E20.49188
G1 X84.307 Y65.688 E20.51282
G1 X84.378 Y65.854 E20.53427
G1 X84.400 Y66.026 E20.55482
G1 X84.400 Y83.974 E22.68645
G1 X84.376 Y84.154 E22.70808
G1 X84.315 Y84.302 E22.72711
G1 X84.243 Y84.400 E22.74151
G1 X84.120 Y84.503 E22.76054
G1 X83.976 Y84.571 E22.77951
G1 X83.848 Y84.596 E22.79503
G1 X79.201 Y84.600 E23.34683
G1 X79.196 Y86.051 E23.51918
G1 X79.179 Y86.151 E23.53113
G1 X79.132 Y86.272 E23.54658
G1 X79.040 Y86.403 E23.56560
G1 X78.924 Y86.500 E23.58358
G1 X78.750 Y86.577 E23.60608
G1 X78.574 Y86.600 E23.62725
G1 X71.305 Y86.590 E24.49055
G1 X71.144 Y86.540 E24.51055
G1 X71.040 Y86.476 E24.52503
G1 X70.927 Y86.363 E24.54404
G1 X70.844 Y86.221 E24.56359
G1 X70.816 Y86.130 E24.57493
G1 X70.801 Y86.017 E24.58838
G1 X70.800 Y84.600 E24.75669
G1 X66.187 Y84.599 E25.30451
G1 X66.050 Y84.578 E25.32101
G1 X65.902 Y84.517 E25.34003
G1 X65.778 Y84.422 E25.35853
G1 X65.683 Y84.298 E25.37702
G1 X65.624 Y84.154 E25.39552
G1 X65.600 Y83.974 E25.41710
G1 X65.600 Y66.026 E27.54870
G1 X65.624 Y65.846 E27.57034
G1 X65.683 Y65.702 E27.58884
G1 X65.781 Y65.575 E27.60781
G1 X65.876 Y65.499 E27.62227
G1 X66.024 Y65.429 E27.64176
G1 X66.152 Y65.404 E27.65728
G1 X70.800 Y65.400 E28.20921
G1 X70.801 Y63.983 E28.37748
G1 X70.816 Y63.870 E28.39093
G1 X70.908 Y63.661 E28.41812
G1 X71.017 Y63.543 E28.43715
G1 X71.148 Y63.459 E28.45564
G1 X71.305 Y63.410 E28.47519
G1 X71.417 Y63.400 E28.48861
G1 X78.608 Y63.401 E29.34260
G1 X78.779 Y63.431 E29.36327
G1 X78.917 Y63.495 E29.38124
G1 X79.059 Y63.620 E29.40374
G1 X79.145 Y63.755 E29.42283
G1 X79.177 Y63.841 E29.43365
G1 X79.199 Y63.987 E29.45114
G1 X79.200 Y65.339 E29.61179
G1 X79.202 Y65.799 F7800.000
G1 X77.559 Y66.361 F7800.000
G1 F1800
G1 X76.563 Y65.365 E29.78045
G1 X75.544 Y65.364 E29.90240
G1 X82.436 Y72.256 E31.06942
G1 X82.436 Y71.238 E31.19135
G1 X78.560 Y67.362 E31.84770
G1 X79.580 Y67.364 E31.96985
G1 X82.436 Y70.220 E32.45345
G1 X82.436 Y69.201 E32.57537
G1 X80.600 Y67.366 E32.88622
G1 X81.621 Y67.368 E33.00837
G1 X82.757 Y68.505 E33.20089
G1 E31.20089 F2400.00000
G92 E0
G1 X82.757 Y73.596 F7800.000
G1 E2.00000 F2400.00000
G1 F1800
G1 X74.526 Y65.364 E3.39390
G1 X73.508 Y65.364 E3.51584
G1 X82.436 Y74.293 E5.02777
G1 X82.436 Y75.311 E5.14970
G1 X72.763 Y65.638 E6.78765
G1 X72.762 Y66.656 E6.90947
G1 X76.717 Y70.610 E7.57910
G1 X76.246 Y70.450 E7.63865
G1 X75.766 Y70.344 E7.69746
G1 X75.401 Y70.313 E7.74136
G1 X72.451 Y67.362 E8.24097
G1 X71.433 Y67.363 E8.36279
G1 X74.393 Y70.323 E8.86397
G1 X73.928 Y70.405 E8.92047
G1 X73.570 Y70.518 E8.96549
G1 X70.416 Y67.364 E9.49954
G1 X69.399 Y67.365 E9.62135
G1 X72.842 Y70.808 E10.20437
G1 X72.213 Y71.197 E10.29294
G1 X68.381 Y67.366 E10.94172
G1 X67.564 Y67.366 E11.03959
G1 X67.564 Y67.567 E11.06356
G1 X71.659 Y71.662 E11.75703
G1 X71.195 Y72.216 E11.84357
G1 X67.564 Y68.585 E12.45837
G1 X67.564 Y69.603 E12.58030
G1 X70.810 Y72.849 E13.12999
G1 X70.627 Y73.220 E13.17952
G1 X70.517 Y73.574 E13.22390
G1 X67.564 Y70.621 E13.72390
G1 X67.564 Y71.640 E13.84583
G1 X70.327 Y74.403 E14.31380
G1 X70.303 Y74.564 E14.33331
G1 X70.282 Y75.052 E14.39173
G1 X70.313 Y75.407 E14.43439
G1 X67.564 Y72.658 E14.89985
G1 X67.564 Y73.676 E15.02177
G1 X70.614 Y76.727 E15.53832
G1 E13.53832 F2400.00000
G92 E0
G1 X73.275 Y79.387 F7800.000
G1 E2.00000 F2400.00000
G1 F1800
G1 X77.242 Y83.354 E2.67173
G1 X77.238 Y84.369 E2.79323
G1 X67.564 Y74.694 E4.43145
G1 X67.564 Y75.713 E4.55338
G1 X76.487 Y84.636 E6.06444
G1 X75.469 Y84.636 E6.18637
G1 X67.564 Y76.731 E7.52500
G1 X67.564 Y77.749 E7.64693
G1 X74.451 Y84.636 E8.81313
G1 X73.433 Y84.636 E8.93506
G1 X72.441 Y83.645 E9.10292
G1 X71.754 Y82.958 F7800.000
G1 F1800
G1 X67.564 Y78.767 E9.81250
G1 X67.564 Y79.786 E9.93442
G1 X70.414 Y82.636 E10.41710
G1 X69.396 Y82.636 E10.53905
G1 X67.564 Y80.804 E10.84926
G1 X67.564 Y81.822 E10.97119
G1 X68.699 Y82.957 E11.16336
G1 E9.16336 F2400.00000
G92 E0
G1 X77.865 Y82.959 F7800.000
G1 E2.00000 F2400.00000
G1 F1800
G1 X74.593 Y79.687 E2.55401
G1 X75.000 Y79.723 E2.60288
G1 X75.595 Y79.671 E2.67441
G1 X78.561 Y82.637 E3.17669
G1 X79.579 Y82.636 E3.29851
G1 X76.430 Y79.487 E3.83170
G1 X76.830 Y79.351 E3.88233
G1 X77.147 Y79.186 E3.92511
G1 X80.596 Y82.635 E4.50911
G1 X81.613 Y82.634 E4.63092
G1 X77.783 Y78.804 E5.27961
G1 X78.335 Y78.338 E5.36614
G1 X82.436 Y82.439 E6.06054
G1 X82.436 Y81.421 E6.18247
G1 X78.803 Y77.787 E6.79769
G1 X79.192 Y77.158 E6.88626
G1 X82.436 Y80.402 E7.43556
G1 X82.436 Y79.384 E7.55749
G1 X79.482 Y76.430 E8.05767
G1 X79.603 Y76.047 E8.10578
G1 X79.672 Y75.601 E8.15976
G1 X82.436 Y78.366 E8.62787
G1 X82.436 Y77.348 E8.74979
G1 X79.699 Y74.611 E9.21326
G1 X79.603 Y73.953 E9.29283
G1 X79.393 Y73.286 E9.37657
G1 X82.757 Y76.651 E9.94632
G1 Z0.700 F7800.000
M104 S200 ; set temperature
G1 X76.271 Y71.903 F7800.000
G1 F900
G1 X76.555 Y72.036 E9.96141
G1 X76.930 Y72.263 E9.98248
G1 X77.369 Y72.631 E10.01004
G1 X77.737 Y73.070 E10.03760
G1 X77.964 Y73.445 E10.05866
G1 X78.102 Y73.739 E10.07428
G1 X78.267 Y74.264 E10.10079
G1 X78.334 Y74.697 E10.12185
G1 X78.347 Y75.000 E10.13642
G1 X78.334 Y75.303 E10.15099
G1 X78.267 Y75.736 E10.17206
G1 X78.102 Y76.261 E10.19857
G1 X77.964 Y76.555 E10.21418
G1 X77.737 Y76.930 E10.23525
G1 X77.376 Y77.360 E10.26228
G1 X77.047 Y77.649 E10.28335
G1 X76.781 Y77.835 E10.29897
G1 X76.292 Y78.090 E10.32547
G1 X75.877 Y78.231 E10.34654
G1 X75.560 Y78.301 E10.36216
G1 X75.000 Y78.350 E10.38919
G1 X74.440 Y78.301 E10.41623
G1 X74.123 Y78.231 E10.43184
G1 X73.708 Y78.090 E10.45291
G1 X73.219 Y77.835 E10.47942
G1 X72.953 Y77.649 E10.49504
G1 X72.641 Y77.375 E10.51505
G1 X72.429 Y77.144 E10.53014
G1 X72.170 Y76.790 E10.55121
G1 X71.915 Y76.301 E10.57772
G1 X71.804 Y75.996 E10.59334
G1 X71.700 Y75.571 E10.61440
G1 X71.652 Y75.022 E10.64091
G1 X71.666 Y74.699 E10.65646
G1 X71.728 Y74.287 E10.67651
G1 X71.900 Y73.732 E10.70444
G1 X72.084 Y73.356 E10.72459
G1 X72.268 Y73.064 E10.74118
G1 X72.631 Y72.631 E10.76834
G1 X73.070 Y72.263 E10.79590
G1 X73.445 Y72.036 E10.81697
G1 X73.739 Y71.898 E10.83258
G1 X74.254 Y71.736 E10.85857
G1 X74.572 Y71.680 E10.87412
G1 X74.988 Y71.651 E10.89416
G1 X75.558 Y71.698 E10.92164
G1 X75.877 Y71.769 E10.93737
G1 X76.214 Y71.884 E10.95450
G1 X76.127 Y72.261 F7800.000
G1 F900
G1 X76.373 Y72.376 E10.96757
G1 X76.705 Y72.577 E10.98621
G1 X77.095 Y72.905 E11.01072
G1 X77.423 Y73.295 E11.03524
G1 X77.624 Y73.627 E11.05388
G1 X77.741 Y73.879 E11.06726
G1 X77.891 Y74.352 E11.09114
G1 X77.950 Y74.735 E11.10977
G1 X77.961 Y75.000 E11.12252
G1 X77.950 Y75.265 E11.13527
G1 X77.891 Y75.648 E11.15390
G1 X77.741 Y76.121 E11.17778
G1 X77.624 Y76.373 E11.19116
G1 X77.423 Y76.705 E11.20980
G1 X77.099 Y77.090 E11.23399
G1 X76.808 Y77.345 E11.25263
G1 X76.580 Y77.505 E11.26602
G1 X76.140 Y77.734 E11.28989
G1 X75.773 Y77.859 E11.30853
G1 X75.501 Y77.919 E11.32192
G1 X75.000 Y77.963 E11.34611
G1 X74.499 Y77.919 E11.37031
G1 X74.227 Y77.859 E11.38370
G1 X73.860 Y77.734 E11.40233
G1 X73.420 Y77.505 E11.42621
G1 X73.192 Y77.345 E11.43959
G1 X72.911 Y77.099 E11.45759
G1 X72.727 Y76.899 E11.47065
G1 X72.498 Y76.586 E11.48929
G1 X72.269 Y76.146 E11.51316
G1 X72.174 Y75.884 E11.52655
G1 X72.081 Y75.508 E11.54519
G1 X72.038 Y75.013 E11.56906
G1 X72.050 Y74.736 E11.58241
G1 X72.105 Y74.373 E11.60007
G1 X72.260 Y73.875 E11.62516
G1 X72.422 Y73.544 E11.64288
G1 X72.580 Y73.292 E11.65722
G1 X72.905 Y72.905 E11.68149
G1 X73.295 Y72.577 E11.70601
G1 X73.627 Y72.376 E11.72465
G1 X73.879 Y72.259 E11.73803
G1 X74.346 Y72.111 E11.76159
G1 X74.619 Y72.063 E11.77493
G1 X74.986 Y72.038 E11.79259
G1 X75.500 Y72.081 E11.81741
G1 X75.773 Y72.141 E11.83087
G1 X76.070 Y72.242 E11.84597
G1 X75.983 Y72.620 F7800.000
G1 F900
G1 X76.191 Y72.717 E11.85702
G1 X76.479 Y72.892 E11.87322
G1 X76.821 Y73.179 E11.89470
G1 X77.108 Y73.521 E11.91617
G1 X77.283 Y73.809 E11.93238
G1 X77.381 Y74.019 E11.94354
G1 X77.514 Y74.440 E11.96478
G1 X77.565 Y74.773 E11.98098
G1 X77.575 Y75.000 E11.99190
G1 X77.565 Y75.227 E12.00283
G1 X77.514 Y75.560 E12.01903
G1 X77.381 Y75.981 E12.04027
G1 X77.283 Y76.191 E12.05143
G1 X77.108 Y76.479 E12.06763
G1 X76.823 Y76.820 E12.08899
G1 X76.570 Y77.042 E12.10519
G1 X76.380 Y77.175 E12.11635
G1 X75.988 Y77.379 E12.13759
G1 X75.669 Y77.487 E12.15380
G1 X75.442 Y77.537 E12.16496
G1 X75.000 Y77.576 E12.18632
G1 X74.558 Y77.537 E12.20767
G1 X74.331 Y77.487 E12.21883
G1 X74.012 Y77.379 E12.23504
G1 X73.620 Y77.175 E12.25628
G1 X73.430 Y77.042 E12.26744
G1 X73.181 Y76.823 E12.28340
G1 X73.026 Y76.654 E12.29445
G1 X72.826 Y76.382 E12.31065
G1 X72.622 Y75.990 E12.33189
G1 X72.543 Y75.772 E12.34305
G1 X72.463 Y75.445 E12.35925
G1 X72.425 Y75.005 E12.38049
G1 X72.435 Y74.773 E12.39164
G1 X72.482 Y74.459 E12.40691
G1 X72.619 Y74.017 E12.42917
G1 X72.759 Y73.732 E12.44446
G1 X72.893 Y73.519 E12.45654
G1 X73.179 Y73.179 E12.47793
G1 X73.521 Y72.892 E12.49941
