; generated by Slic3r Prusa Edition 1.39.1-alpha-prusa3d-win64 on 2018-02-08 at 12:36:48

; 

; external perimeters extrusion width = 0.45mm
; perimeters extrusion width = 0.45mm
; infill extrusion width = 0.45mm
; solid infill extrusion width = 0.45mm
; top infill extrusion width = 0.40mm
; first layer extrusion width = 0.80mm

M107
M104 S205 ; set temperature
G28 ; home all axes
G1 Z5 F5000 ; lift nozzle
; Filament gcode
M109 S205 ; set temperature and wait for it to be reached
G21 ; set units to millimeters
G90 ; use absolute coordinates
M82 ; use absolute distances for extrusion
G92 E0
G1 Z0.400 F7800.000
G1 E-2.00000 F2400.00000
G92 E0
G1 X65.774 Y59.437 F7800.000
G1 E2.00000 F2400.00000
G1 F1800
G1 X67.179 Y58.777 E2.18434
G1 X73.436 Y57.090 E2.95402
G1 X75.009 Y56.905 E3.14213
G1 X75.858 Y56.960 E3.24318
G1 X76.693 Y57.122 E3.34423
G1 X82.570 Y58.698 E4.06681
G1 X83.809 Y59.198 E4.22544
G1 X84.562 Y59.659 E4.33029
G1 X85.253 Y60.218 E4.43589
G1 X89.603 Y64.562 E5.16606
G1 X90.563 Y65.774 E5.34964
G1 X91.223 Y67.179 E5.53398
G1 X92.910 Y73.436 E6.30366
G1 X93.095 Y75.003 E6.49102
G1 X93.040 Y75.858 E6.59283
G1 X92.878 Y76.693 E6.69388
G1 X91.302 Y82.570 E7.41645
G1 X90.802 Y83.809 E7.57509
G1 X90.341 Y84.562 E7.67993
G1 X89.782 Y85.253 E7.78554
G1 X85.438 Y89.603 E8.51571
G1 X84.226 Y90.563 E8.69929
G1 X82.821 Y91.223 E8.88363
G1 X76.564 Y92.910 E9.65331
G1 X74.997 Y93.095 E9.84067
G1 X74.148 Y93.040 E9.94172
G1 X73.307 Y92.878 E10.04353
G1 X67.430 Y91.302 E10.76610
G1 X66.191 Y90.802 E10.92474
G1 X65.438 Y90.341 E11.02958
G1 X64.747 Y89.782 E11.13518
G1 X60.397 Y85.438 E11.86536
G1 X59.433 Y84.221 E12.04969
G1 X58.777 Y82.821 E12.23327
G1 X57.090 Y76.564 E13.00296
G1 X56.905 Y74.997 E13.19031
G1 X56.960 Y74.142 E13.29212
G1 X57.122 Y73.307 E13.39317
G1 X58.698 Y67.430 E14.11575
G1 X59.198 Y66.191 E14.27439
G1 X59.659 Y65.438 E14.37923
G1 X60.218 Y64.747 E14.48483
G1 X64.562 Y60.397 E15.21501
G1 X65.727 Y59.474 E15.39146
G1 E13.39146 F2400.00000
G92 E0
G1 X78.255 Y78.227 F7800.000
G1 E2.00000 F2400.00000
G1 F1800
G1 X77.805 Y78.622 E2.07119
G1 X77.428 Y78.886 E2.12577
G1 X76.773 Y79.227 E2.21355
G1 X76.205 Y79.420 E2.28474
G1 X75.756 Y79.519 E2.33932
G1 X75.020 Y79.584 E2.42709
G1 X74.422 Y79.544 E2.49828
G1 X73.969 Y79.465 E2.55286
G1 X73.245 Y79.236 E2.64302
G1 X72.572 Y78.886 E2.73318
G1 X72.195 Y78.622 E2.78776
G1 X71.760 Y78.240 E2.85657
G1 X71.378 Y77.805 E2.92538
G1 X71.114 Y77.428 E2.97996
G1 X70.764 Y76.755 E3.07012
G1 X70.529 Y76.012 E3.16266
G1 X70.438 Y75.419 E3.23385
G1 X70.420 Y75.000 E3.28368
G1 X70.438 Y74.581 E3.33351
G1 X70.529 Y73.988 E3.40470
G1 X70.758 Y73.264 E3.49485
G1 X71.023 Y72.727 E3.56604
G1 X71.270 Y72.339 E3.62062
G1 X71.745 Y71.773 E3.70840
G1 X72.195 Y71.378 E3.77959
G1 X72.572 Y71.114 E3.83417
G1 X73.245 Y70.764 E3.92433
G1 X73.969 Y70.535 E4.01449
G1 X74.421 Y70.456 E4.06890
G1 X75.004 Y70.417 E4.13838
G1 X75.754 Y70.480 E4.22774
G1 X76.205 Y70.580 E4.28260
G1 X76.773 Y70.773 E4.35379
G1 X77.428 Y71.114 E4.44157
G1 X77.805 Y71.378 E4.49615
G1 X78.240 Y71.760 E4.56496
G1 X78.622 Y72.195 E4.63377
G1 X78.886 Y72.572 E4.68835
G1 X79.218 Y73.210 E4.77374
G1 X79.375 Y73.642 E4.82832
G1 X79.517 Y74.224 E4.89951
G1 X79.584 Y74.980 E4.98967
G1 X79.544 Y75.578 E5.06086
G1 X79.465 Y76.031 E5.11544
G1 X79.242 Y76.736 E5.20321
G1 X78.977 Y77.273 E5.27440
G1 X78.730 Y77.661 E5.32898
G1 X78.294 Y78.181 E5.40963
G1 X77.743 Y77.726 F7800.000
G1 F1800
G1 X77.363 Y78.060 E5.46970
G1 X77.057 Y78.274 E5.51409
G1 X76.491 Y78.568 E5.58982
G1 X76.012 Y78.731 E5.64989
G1 X75.647 Y78.812 E5.69428
G1 X75.012 Y78.867 E5.77001
G1 X74.507 Y78.834 E5.83008
G1 X74.139 Y78.769 E5.87446
G1 X73.520 Y78.574 E5.95165
G1 X72.943 Y78.274 E6.02883
G1 X72.637 Y78.060 E6.07322
G1 X72.266 Y77.734 E6.13184
G1 X71.940 Y77.363 E6.19046
G1 X71.726 Y77.057 E6.23485
G1 X71.426 Y76.480 E6.31203
G1 X71.227 Y75.849 E6.39066
G1 X71.150 Y75.349 E6.45073
G1 X71.135 Y75.000 E6.49222
G1 X71.150 Y74.651 E6.53372
G1 X71.227 Y74.151 E6.59379
G1 X71.422 Y73.531 E6.67096
G1 X71.646 Y73.078 E6.73103
G1 X71.847 Y72.762 E6.77542
G1 X72.257 Y72.274 E6.85115
G1 X72.637 Y71.940 E6.91122
G1 X72.943 Y71.726 E6.95561
G1 X73.520 Y71.426 E7.03279
G1 X74.139 Y71.231 E7.10997
G1 X74.507 Y71.166 E7.15426
G1 X74.998 Y71.133 E7.21273
G1 X75.646 Y71.188 E7.28998
G1 X76.012 Y71.269 E7.33454
G1 X76.491 Y71.432 E7.39461
G1 X77.057 Y71.726 E7.47034
G1 X77.363 Y71.940 E7.51473
G1 X77.734 Y72.266 E7.57335
G1 X78.060 Y72.637 E7.63197
G1 X78.274 Y72.943 E7.67636
G1 X78.563 Y73.498 E7.75063
G1 X78.690 Y73.849 E7.79502
G1 X78.811 Y74.340 E7.85509
G1 X78.867 Y74.988 E7.93227
G1 X78.834 Y75.493 E7.99234
G1 X78.769 Y75.861 E8.03673
G1 X78.578 Y76.469 E8.11246
G1 X78.354 Y76.922 E8.17253
G1 X78.153 Y77.238 E8.21692
G1 X77.782 Y77.680 E8.28552
G1 X77.231 Y77.225 F7800.000
G1 F1800
G1 X76.921 Y77.497 E8.33447
G1 X76.686 Y77.662 E8.36867
G1 X76.210 Y77.910 E8.43235
G1 X75.820 Y78.042 E8.48130
G1 X75.539 Y78.104 E8.51550
G1 X75.004 Y78.151 E8.57918
G1 X74.593 Y78.124 E8.62813
G1 X74.310 Y78.074 E8.66233
G1 X73.794 Y77.912 E8.72653
G1 X73.314 Y77.662 E8.79073
G1 X73.079 Y77.497 E8.82493
G1 X72.772 Y77.228 E8.87336
G1 X72.503 Y76.921 E8.92179
G1 X72.338 Y76.686 E8.95599
G1 X72.088 Y76.206 E9.02019
G1 X71.924 Y75.686 E9.08491
G1 X71.862 Y75.279 E9.13386
G1 X71.850 Y75.000 E9.16702
G1 X71.862 Y74.721 E9.20018
G1 X71.924 Y74.314 E9.24913
G1 X72.087 Y73.798 E9.31333
G1 X72.269 Y73.428 E9.36228
G1 X72.424 Y73.186 E9.39648
G1 X72.769 Y72.775 E9.46016
G1 X73.079 Y72.503 E9.50911
G1 X73.314 Y72.338 E9.54331
G1 X73.794 Y72.088 E9.60751
G1 X74.310 Y71.926 E9.67171
G1 X74.593 Y71.876 E9.70588
G1 X74.992 Y71.849 E9.75334
G1 X75.538 Y71.895 E9.81847
G1 X75.820 Y71.958 E9.85273
G1 X76.210 Y72.090 E9.90168
G1 X76.686 Y72.338 E9.96536
G1 X76.921 Y72.503 E9.99956
G1 X77.228 Y72.772 E10.04799
G1 X77.497 Y73.079 E10.09642
G1 X77.662 Y73.314 E10.13062
G1 X77.908 Y73.786 E10.19378
G1 X78.006 Y74.057 E10.22798
G1 X78.104 Y74.457 E10.27693
G1 X78.151 Y74.996 E10.34113
G1 X78.124 Y75.407 E10.39008
G1 X78.074 Y75.690 E10.42428
G1 X77.913 Y76.202 E10.48796
G1 X77.731 Y76.572 E10.53691
G1 X77.576 Y76.814 E10.57111
G1 X77.270 Y77.179 E10.62766
G1 X77.335 Y77.611 F7800.000
G1 E8.62766 F2400.00000
G92 E0
G1 X80.877 Y80.877 F7800.000
G1 E2.00000 F2400.00000
G1 F1800
G1 X79.635 Y83.027 E2.29498
G1 X77.151 Y83.027 E2.58996
G1 X75.000 Y84.269 E2.88493
G1 X72.849 Y83.027 E3.17991
G1 X70.365 Y83.027 E3.47489
G1 X69.123 Y80.877 E3.76987
G1 X66.973 Y79.635 E4.06485
G1 X66.973 Y77.151 E4.35983
G1 X65.731 Y75.000 E4.65480
G1 X66.973 Y72.849 E4.94978
G1 X66.973 Y70.365 E5.24476
G1 X69.123 Y69.123 E5.53974
G1 X70.365 Y66.973 E5.83472
G1 X72.849 Y66.973 E6.12970
G1 X75.000 Y65.731 E6.42467
G1 X77.151 Y66.973 E6.71965
G1 X79.635 Y66.973 E7.01463
G1 X80.877 Y69.123 E7.30961
G1 X83.027 Y70.365 E7.60459
G1 X83.027 Y72.849 E7.89957
G1 X84.269 Y75.000 E8.19454
G1 X83.027 Y77.151 E8.48952
G1 X83.027 Y79.635 E8.78450
G1 X80.928 Y80.847 E9.07236
G1 X81.399 Y81.399 F7800.000
G1 F1800
G1 X80.047 Y83.742 E9.39358
G1 X77.342 Y83.742 E9.71480
G1 X75.000 Y85.094 E10.03602
G1 X72.658 Y83.742 E10.35724
G1 X69.953 Y83.742 E10.67846
G1 X68.601 Y81.399 E10.99968
G1 X66.258 Y80.047 E11.32090
G1 X66.258 Y77.342 E11.64212
G1 X64.906 Y75.000 E11.96334
G1 X66.258 Y72.658 E12.28456
G1 X66.258 Y69.953 E12.60578
G1 X68.601 Y68.601 E12.92700
G1 X69.953 Y66.258 E13.24823
G1 X72.658 Y66.258 E13.56945
G1 X75.000 Y64.906 E13.89067
G1 X77.342 Y66.258 E14.21189
G1 X80.047 Y66.258 E14.53311
G1 X81.399 Y68.601 E14.85433
G1 X83.742 Y69.953 E15.17555
G1 X83.742 Y72.658 E15.49677
G1 X85.094 Y75.000 E15.81799
G1 X83.742 Y77.342 E16.13921
G1 X83.742 Y80.047 E16.46044
G1 X81.451 Y81.369 E16.77453
G1 X81.922 Y81.922 F7800.000
G1 F1800
G1 X80.459 Y84.456 E17.12199
G1 X77.534 Y84.456 E17.46946
G1 X75.000 Y85.919 E17.81692
G1 X72.466 Y84.456 E18.16438
G1 X69.541 Y84.456 E18.51185
G1 X68.078 Y81.922 E18.85931
G1 X65.544 Y80.459 E19.20677
G1 X65.544 Y77.534 E19.55424
G1 X64.081 Y75.000 E19.90170
G1 X65.544 Y72.466 E20.24916
G1 X65.544 Y69.541 E20.59663
G1 X68.078 Y68.078 E20.94409
G1 X69.541 Y65.544 E21.29155
G1 X72.466 Y65.544 E21.63902
G1 X75.000 Y64.081 E21.98648
G1 X77.534 Y65.544 E22.33394
G1 X80.459 Y65.544 E22.68141
G1 X81.922 Y68.078 E23.02887
G1 X84.456 Y69.541 E23.37634
G1 X84.456 Y72.466 E23.72380
G1 X85.919 Y75.000 E24.07126
G1 X84.456 Y77.534 E24.41873
G1 X84.456 Y80.459 E24.76619
G1 X81.974 Y81.892 E25.10653
G1 X81.522 Y81.922 F7800.000
G1 E23.10653 F2400.00000
G92 E0
G1 X83.930 Y75.160 F7800.000
G1 E2.00000 F2400.00000
G1 F1800
G1 X75.281 Y66.511 E3.48393
G1 X75.000 Y66.349 E3.52325
G1 X74.421 Y66.683 E3.60434
G1 X83.317 Y75.579 E5.13059
G1 X82.939 Y76.233 E5.22222
G1 X79.714 Y73.008 E5.77548
G1 X79.888 Y73.486 E5.83713
G1 X80.047 Y74.136 E5.91837
G1 X80.070 Y74.396 E5.94997
G1 X82.561 Y76.887 E6.37741
G1 X82.492 Y77.007 E6.39428
G1 X82.492 Y77.849 E6.49641
G1 X80.090 Y75.447 E6.90856
G1 X80.077 Y75.642 E6.93231
G1 X79.986 Y76.158 E6.99587
G1 X79.934 Y76.323 E7.01683
G1 X82.492 Y78.881 E7.45570
G1 X82.492 Y79.325 E7.50963
G1 X82.120 Y79.540 E7.56178
G1 X79.666 Y77.087 E7.98272
G1 X79.445 Y77.536 E8.04350
G1 X79.304 Y77.757 E8.07521
G1 X81.466 Y79.918 E8.44603
G1 X80.811 Y80.296 E8.53766
G1 X78.858 Y78.342 E8.87286
G1 X78.639 Y78.603 E8.91412
G1 X78.345 Y78.861 E8.96163
G1 X80.296 Y80.812 E9.29633
G1 X79.918 Y81.466 E9.38796
G1 X77.760 Y79.307 E9.75826
G1 X77.088 Y79.667 E9.85074
G1 X79.540 Y82.120 E10.27158
G1 X79.325 Y82.492 E10.32373
G1 X78.881 Y82.492 E10.37767
G1 X76.330 Y79.941 E10.81540
G1 X75.838 Y80.050 E10.87650
G1 X75.442 Y80.084 E10.92477
G1 X77.849 Y82.492 E11.33785
G1 X77.007 Y82.492 E11.43996
G1 X76.887 Y82.561 E11.45684
G1 X74.406 Y80.080 E11.88259
G1 X73.842 Y79.986 E11.95193
G1 X73.013 Y79.719 E12.05756
G1 X76.233 Y82.939 E12.61001
G1 X75.579 Y83.317 E12.70164
G1 X66.683 Y74.421 E14.22789
G1 X67.061 Y73.767 E14.31952
G1 X70.281 Y76.987 E14.87198
G1 X70.006 Y76.134 E14.98075
G1 X69.924 Y75.598 E15.04644
G1 X67.439 Y73.113 E15.47287
G1 X67.508 Y72.993 E15.48975
G1 X67.508 Y72.151 E15.59186
G1 X69.904 Y74.546 E16.00287
G1 X70.006 Y73.866 E16.08630
G1 X70.066 Y73.677 E16.11039
G1 X67.508 Y71.119 E16.54926
G1 X67.508 Y70.675 E16.60320
G1 X67.880 Y70.460 E16.65534
G1 X70.334 Y72.913 E17.07629
G1 X70.555 Y72.464 E17.13708
G1 X70.696 Y72.243 E17.16878
G1 X68.534 Y70.082 E17.53961
G1 X69.188 Y69.704 E17.63124
G1 X71.142 Y71.658 E17.96644
G1 X71.361 Y71.397 E18.00771
G1 X71.655 Y71.139 E18.05520
G1 X69.704 Y69.189 E18.38991
G1 X70.082 Y68.534 E18.48154
G1 X72.240 Y70.693 E18.85183
G1 X72.912 Y70.333 E18.94431
G1 X70.460 Y67.880 E19.36515
G1 X70.675 Y67.508 E19.41730
G1 X71.119 Y67.508 E19.47123
G1 X73.677 Y70.066 E19.91010
G1 X73.842 Y70.014 E19.93106
G1 X74.356 Y69.923 E19.99440
G1 X74.553 Y69.910 E20.01835
G1 X72.151 Y67.508 E20.43049
G1 X72.993 Y67.508 E20.53262
G1 X73.113 Y67.439 E20.54949
G1 X75.605 Y69.930 E20.97697
G1 X75.835 Y69.950 E21.00502
G1 X76.349 Y70.064 E21.06896
G1 X76.987 Y70.281 E21.15064
G1 X73.532 Y66.826 E21.74343
G1 E19.74343 F2400.00000
G92 E0
G1 X82.813 Y71.980 F7800.000
G1 E2.00000 F2400.00000
G1 F1800
G1 X78.341 Y67.508 E2.76732
G1 X77.309 Y67.508 E2.89249
G1 X82.957 Y73.156 E3.86157
G1 E1.86157 F2400.00000
G92 E0
G1 X75.160 Y83.930 F7800.000
G1 E2.00000 F2400.00000
G1 F1800
G1 X66.070 Y74.840 E3.55954
G1 E1.55954 F2400.00000
G92 E0
G1 X71.980 Y82.813 F7800.000
G1 E2.00000 F2400.00000
G1 F1800
G1 X67.508 Y78.341 E2.76730
G1 X67.508 Y77.309 E2.89247
G1 X73.156 Y82.957 E3.86151
G1 Z0.700 F7800.000
M104 S200 ; set temperature
G1 X77.659 Y77.643 F7800.000
G1 F900
G1 X77.290 Y77.967 E3.88509
G1 X76.996 Y78.173 E3.90239
G1 X76.445 Y78.460 E3.93225
G1 X75.980 Y78.617 E3.95583
G1 X75.629 Y78.695 E3.97313
G1 X75.011 Y78.749 E4.00299
G1 X74.522 Y78.717 E4.02657
G1 X74.167 Y78.655 E4.04387
G1 X73.565 Y78.465 E4.07426
G1 X73.004 Y78.173 E4.10464
G1 X72.710 Y77.967 E4.12194
G1 X72.349 Y77.651 E4.14500
G1 X72.033 Y77.290 E4.16806
G1 X71.827 Y76.995 E4.18535
G1 X71.535 Y76.435 E4.21574
G1 X71.342 Y75.822 E4.24665
G1 X71.268 Y75.337 E4.27023
G1 X71.253 Y75.000 E4.28648
G1 X71.268 Y74.663 E4.30273
G1 X71.342 Y74.178 E4.32631
G1 X71.532 Y73.575 E4.35670
G1 X71.749 Y73.136 E4.38028
G1 X71.942 Y72.832 E4.39758
G1 X72.341 Y72.357 E4.42744
G1 X72.710 Y72.033 E4.45102
G1 X73.004 Y71.827 E4.46832
G1 X73.565 Y71.535 E4.49871
G1 X74.167 Y71.345 E4.52909
G1 X74.519 Y71.283 E4.54628
G1 X74.972 Y71.252 E4.56811
G1 X75.626 Y71.304 E4.59966
G1 X75.980 Y71.383 E4.61712
G1 X76.445 Y71.540 E4.64070
G1 X76.996 Y71.827 E4.67057
G1 X77.290 Y72.033 E4.68786
G1 X77.651 Y72.349 E4.71092
G1 X77.967 Y72.710 E4.73398
G1 X78.173 Y73.005 E4.75127
G1 X78.454 Y73.546 E4.78061
G1 X78.577 Y73.883 E4.79790
G1 X78.694 Y74.360 E4.82149
G1 X78.749 Y74.989 E4.85187
G1 X78.717 Y75.478 E4.87546
G1 X78.655 Y75.833 E4.89275
G1 X78.468 Y76.425 E4.92261
G1 X78.251 Y76.864 E4.94620
G1 X78.058 Y77.168 E4.96349
G1 X77.697 Y77.597 E4.99047
G1 X77.382 Y77.373 F7800.000
G1 F900
G1 X77.052 Y77.663 E5.01162
G1 X76.795 Y77.842 E5.02669
G1 X76.293 Y78.104 E5.05391
G1 X75.876 Y78.245 E5.07507
G1 X75.571 Y78.313 E5.09013
G1 X75.007 Y78.362 E5.11736
G1 X74.568 Y78.334 E5.13851
G1 X74.259 Y78.279 E5.15358
G1 X73.713 Y78.107 E5.18113
G1 X73.205 Y77.842 E5.20868
G1 X72.948 Y77.663 E5.22374
G1 X72.623 Y77.377 E5.24457
G1 X72.337 Y77.052 E5.26540
G1 X72.158 Y76.795 E5.28047
G1 X71.893 Y76.287 E5.30802
G1 X71.719 Y75.734 E5.33589
G1 X71.652 Y75.300 E5.35704
G1 X71.639 Y75.000 E5.37147
G1 X71.652 Y74.700 E5.38589
G1 X71.719 Y74.266 E5.40705
G1 X71.891 Y73.719 E5.43459
G1 X72.086 Y73.325 E5.45575
G1 X72.254 Y73.061 E5.47081
G1 X72.618 Y72.627 E5.49804
G1 X72.948 Y72.337 E5.51919
G1 X73.205 Y72.158 E5.53426
G1 X73.713 Y71.893 E5.56181
G1 X74.259 Y71.721 E5.58936
G1 X74.567 Y71.667 E5.60436
G1 X74.970 Y71.638 E5.62382
G1 X75.569 Y71.687 E5.65269
G1 X75.876 Y71.755 E5.66786
G1 X76.293 Y71.896 E5.68901
G1 X76.795 Y72.158 E5.71624
G1 X77.052 Y72.337 E5.73131
G1 X77.377 Y72.623 E5.75214
G1 X77.663 Y72.948 E5.77297
G1 X77.842 Y73.205 E5.78804
G1 X78.101 Y73.701 E5.81494
G1 X78.208 Y73.996 E5.83001
G1 X78.312 Y74.423 E5.85116
G1 X78.362 Y74.993 E5.87871
G1 X78.334 Y75.432 E5.89986
G1 X78.279 Y75.741 E5.91493
G1 X78.109 Y76.281 E5.94215
G1 X77.914 Y76.675 E5.96331
G1 X77.746 Y76.939 E5.97837
G1 X77.421 Y77.327 E6.00271
G1 X77.106 Y77.102 F7800.000
G1 F900
G1 X76.813 Y77.359 E6.02143
G1 X76.595 Y77.512 E6.03427
G1 X76.141 Y77.748 E6.05887
G1 X75.772 Y77.873 E6.07759
G1 X75.512 Y77.931 E6.09042
G1 X75.002 Y77.976 E6.11502
G1 X74.614 Y77.950 E6.13374
G1 X74.351 Y77.904 E6.14658
G1 X73.861 Y77.749 E6.17129
G1 X73.405 Y77.512 E6.19600
G1 X73.187 Y77.359 E6.20884
G1 X72.896 Y77.104 E6.22744
G1 X72.641 Y76.813 E6.24604
G1 X72.488 Y76.595 E6.25888
G1 X72.251 Y76.139 E6.28359
G1 X72.095 Y75.646 E6.30842
G1 X72.036 Y75.262 E6.32714
G1 X72.025 Y75.000 E6.33974
G1 X72.036 Y74.738 E6.35234
G1 X72.095 Y74.354 E6.37106
G1 X72.250 Y73.864 E6.39578
G1 X72.422 Y73.514 E6.41450
G1 X72.565 Y73.289 E6.42733
G1 X72.894 Y72.898 E6.45193
G1 X73.187 Y72.641 E6.47065
G1 X73.405 Y72.488 E6.48349
G1 X73.861 Y72.251 E6.50820
G1 X74.351 Y72.096 E6.53291
G1 X74.614 Y72.050 E6.54572
G1 X74.968 Y72.025 E6.56282
G1 X75.511 Y72.069 E6.58902
G1 X75.772 Y72.127 E6.60189
G1 X76.141 Y72.252 E6.62061
G1 X76.595 Y72.488 E6.64520
G1 X76.813 Y72.641 E6.65804
G1 X77.104 Y72.896 E6.67664
G1 X77.359 Y73.187 E6.69525
G1 X77.512 Y73.405 E6.70809
G1 X77.747 Y73.857 E6.73256
G1 X77.838 Y74.108 E6.74540
G1 X77.931 Y74.486 E6.76412
G1 X77.976 Y74.998 E6.78883
G1 X77.950 Y75.386 E6.80755
G1 X77.904 Y75.649 E6.82039
G1 X77.750 Y76.136 E6.84498
G1 X77.578 Y76.486 E6.86370
G1 X77.435 Y76.711 E6.87654
G1 X77.144 Y77.056 E6.89825
G1 X77.207 Y77.478 F7800.000
G1 X81.701 Y81.701 F7800.000
G1 F3600
G1 X80.285 Y84.153 E7.03446
G1 X77.453 Y84.153 E7.17067
G1 X75.000 Y85.569 E7.30688
G1 X72.547 Y84.153 E7.44309
G1 X69.715 Y84.153 E7.57930
G1 X68.299 Y81.701 E7.71551
G1 X65.847 Y80.285 E7.85172
G1 X65.847 Y77.453 E7.98793
