; generated by Slic3r Prusa Edition 1.39.1-alpha-prusa3d-win64 on 2018-02-08 at 12:36:27

; 

; external perimeters extrusion width = 0.45mm
; perimeters extrusion width = 0.45mm
; infill extrusion width = 0.45mm
; solid infill extrusion width = 0.45mm
; top infill extrusion width = 0.40mm
; first layer extrusion width = 0.80mm

M107
M104 S205 ; set temperature
G28 ; home all axes
G1 Z5 F5000 ; lift nozzle
; Filament gcode
M109 S205 ; set temperature and wait for it to be reached
G21 ; set units to millimeters
G90 ; use absolute coordinates
M82 ; use absolute distances for extrusion
G92 E0
G1 Z0.400 F7800.000
G1 E-2.00000 F2400.00000
G92 E0
G1 X51.632 Y50.845 F7800.000
G1 E2.00000 F2400.00000
G1 F1800
G1 X52.665 Y49.867 E2.16897
G1 X53.778 Y49.002 E2.33642
G1 X55.210 Y48.113 E2.53663
G1 X56.497 Y47.491 E2.70634
G1 X58.152 Y46.903 E2.91491
G1 X59.548 Y46.571 E3.08538
G1 X60.805 Y46.392 E3.23612
G1 X62.097 Y46.322 E3.38990
G1 X87.853 Y46.322 E6.44871
G1 X89.159 Y46.389 E6.60407
G1 X90.340 Y46.551 E6.74568
G1 X92.456 Y47.093 E7.00506
G1 X93.564 Y47.517 E7.14593
G1 X94.713 Y48.071 E7.29743
G1 X95.799 Y48.715 E7.44739
G1 X96.836 Y49.458 E7.59892
G1 X97.805 Y50.288 E7.75042
G1 X98.685 Y51.184 E7.89963
G1 X99.497 Y52.168 E8.05113
G1 X100.172 Y53.143 E8.19195
G1 X101.204 Y55.068 E8.45136
G1 X101.646 Y56.183 E8.59377
G1 X102.020 Y57.429 E8.74828
G1 X102.348 Y59.154 E8.95684
G1 X102.464 Y60.668 E9.13717
G1 X102.458 Y89.532 E12.56525
G1 X102.267 Y91.394 E12.78750
G1 X101.834 Y93.240 E13.01276
G1 X101.164 Y95.022 E13.23881
G1 X100.304 Y96.647 E13.45719
G1 X99.449 Y97.894 E13.63680
G1 X98.271 Y99.256 E13.85066
G1 X96.929 Y100.467 E14.06530
G1 X95.706 Y101.345 E14.24411
G1 X94.123 Y102.229 E14.45952
G1 X92.466 Y102.903 E14.67189
G1 X91.005 Y103.315 E14.85222
G1 X89.272 Y103.600 E15.06081
G1 X87.857 Y103.678 E15.22903
G1 X61.423 Y103.655 E18.36852
G1 X59.552 Y103.430 E18.59229
G1 X57.793 Y102.988 E18.80768
G1 X56.354 Y102.447 E18.99031
G1 X54.718 Y101.607 E19.20873
G1 X53.250 Y100.609 E19.41955
G1 X52.098 Y99.619 E19.59993
G1 X50.876 Y98.305 E19.81303
G1 X49.817 Y96.841 E20.02767
G1 X49.074 Y95.524 E20.20726
G1 X48.369 Y93.860 E20.42191
G1 X47.875 Y92.128 E20.63577
G1 X47.626 Y90.630 E20.81611
G1 X47.531 Y88.909 E21.02089
G1 X47.546 Y60.391 E24.40778
G1 X47.736 Y58.587 E24.62319
G1 X48.171 Y56.741 E24.84842
G1 X48.838 Y54.973 E25.07293
G1 X49.696 Y53.353 E25.29060
G1 X50.531 Y52.131 E25.46640
G1 X51.593 Y50.891 E25.66024
G1 E23.66024 F2400.00000
G92 E0
G1 X87.028 Y87.028 F7800.000
G1 E2.00000 F2400.00000
G1 F1800
G1 X87.028 Y82.831 E2.49848
G1 X87.426 Y82.802 E2.54583
G1 X87.854 Y82.797 E2.59667
G1 X88.524 Y82.843 E2.67645
G1 X89.292 Y82.988 E2.76923
G1 X89.702 Y83.111 E2.82008
G1 X90.327 Y83.356 E2.89986
G1 X90.797 Y83.596 E2.96252
G1 X91.270 Y83.892 E3.02873
G1 X91.885 Y84.381 E3.12211
G1 X92.269 Y84.758 E3.18595
G1 X92.618 Y85.167 E3.24980
G1 X93.062 Y85.815 E3.34317
G1 X93.324 Y86.308 E3.40938
G1 X93.542 Y86.821 E3.47560
G1 X93.736 Y87.453 E3.55421
G1 X93.866 Y88.113 E3.63398
G1 X93.916 Y88.638 E3.69664
G1 X93.921 Y89.175 E3.76049
G1 X93.880 Y89.711 E3.82434
G1 X93.788 Y90.261 E3.89055
G1 X93.573 Y91.017 E3.98392
G1 X93.373 Y91.516 E4.04777
G1 X93.120 Y92.013 E4.11399
G1 X92.761 Y92.569 E4.19258
G1 X92.340 Y93.093 E4.27237
G1 X91.971 Y93.469 E4.33503
G1 X91.563 Y93.819 E4.39888
G1 X91.126 Y94.132 E4.46272
G1 X90.659 Y94.409 E4.52715
G1 X89.937 Y94.736 E4.62129
G1 X89.399 Y94.912 E4.68852
G1 X88.752 Y95.052 E4.76712
G1 X88.084 Y95.125 E4.84690
G1 X87.557 Y95.131 E4.90956
G1 X87.001 Y95.089 E4.97577
G1 X86.349 Y94.970 E5.05438
G1 X85.704 Y94.783 E5.13416
G1 X85.215 Y94.587 E5.19682
G1 X84.735 Y94.344 E5.26067
G1 X84.075 Y93.917 E5.35404
G1 X83.643 Y93.564 E5.42026
G1 X83.258 Y93.189 E5.48410
G1 X82.904 Y92.778 E5.54854
G1 X82.456 Y92.125 E5.64267
G1 X82.197 Y91.643 E5.70753
G1 X81.985 Y91.149 E5.77137
G1 X81.817 Y90.639 E5.83522
G1 X81.689 Y90.096 E5.90143
G1 X81.595 Y89.316 E5.99481
G1 X81.600 Y88.529 E6.08818
G1 X81.665 Y87.976 E6.15440
G1 X81.861 Y87.028 E6.26931
G1 X86.968 Y87.028 E6.87584
G1 X86.314 Y86.314 F7800.000
G1 F1800
G1 X86.314 Y82.114 E7.37465
G1 X87.041 Y82.114 E7.46092
G1 X87.874 Y82.082 E7.55998
G1 X88.608 Y82.133 E7.64739
G1 X89.477 Y82.298 E7.75241
G1 X89.935 Y82.436 E7.80926
G1 X90.621 Y82.704 E7.89668
G1 X91.149 Y82.974 E7.96720
G1 X91.668 Y83.299 E8.03988
G1 X92.364 Y83.850 E8.14527
G1 X92.792 Y84.270 E8.21651
G1 X93.181 Y84.727 E8.28775
G1 X93.682 Y85.459 E8.39313
G1 X93.969 Y86.000 E8.46582
G1 X94.208 Y86.563 E8.53850
G1 X94.431 Y87.287 E8.62843
G1 X94.573 Y88.009 E8.71584
G1 X94.630 Y88.600 E8.78636
G1 X94.636 Y89.200 E8.85760
G1 X94.589 Y89.798 E8.92884
G1 X94.426 Y90.670 E9.03423
G1 X94.248 Y91.255 E9.10691
G1 X94.023 Y91.812 E9.17815
G1 X93.746 Y92.357 E9.25084
G1 X93.336 Y92.994 E9.34076
G1 X92.875 Y93.567 E9.42817
G1 X92.459 Y93.991 E9.49869
G1 X92.004 Y94.382 E9.56994
G1 X91.516 Y94.731 E9.64118
G1 X90.997 Y95.038 E9.71278
G1 X90.566 Y95.248 E9.76974
G1 X90.185 Y95.406 E9.81867
G1 X89.599 Y95.598 E9.89197
G1 X88.859 Y95.758 E9.98190
G1 X88.127 Y95.839 E10.06931
G1 X87.534 Y95.846 E10.13983
G1 X86.923 Y95.799 E10.21251
G1 X86.178 Y95.664 E10.30244
G1 X85.471 Y95.459 E10.38985
G1 X84.920 Y95.238 E10.46037
G1 X84.385 Y94.968 E10.53161
G1 X83.640 Y94.485 E10.63699
G1 X83.167 Y94.097 E10.70968
G1 X82.737 Y93.678 E10.78092
G1 X82.344 Y93.221 E10.85252
G1 X82.062 Y92.834 E10.90948
G1 X81.839 Y92.487 E10.95842
G1 X81.553 Y91.954 E11.03028
G1 X81.317 Y91.403 E11.10152
G1 X81.129 Y90.833 E11.17276
G1 X80.943 Y89.965 E11.27814
G1 X80.881 Y89.356 E11.35083
G1 X80.873 Y88.744 E11.42351
G1 X80.959 Y87.861 E11.52890
G1 X81.114 Y87.114 E11.61949
G1 X81.114 Y86.314 E11.71452
G1 X86.254 Y86.314 E12.32497
G1 X85.600 Y85.600 F7800.000
G1 F1800
G1 X85.600 Y81.400 E12.82379
G1 X87.015 Y81.400 E12.99179
G1 X87.365 Y81.374 E13.03349
G1 X87.894 Y81.368 E13.09635
G1 X88.692 Y81.423 E13.19139
G1 X89.347 Y81.533 E13.27029
G1 X89.662 Y81.608 E13.30871
G1 X90.169 Y81.760 E13.37157
G1 X90.914 Y82.052 E13.46661
G1 X91.502 Y82.352 E13.54499
G1 X92.067 Y82.706 E13.62415
G1 X92.328 Y82.895 E13.66244
G1 X92.843 Y83.319 E13.74160
G1 X93.315 Y83.783 E13.82024
G1 X93.745 Y84.287 E13.89888
G1 X94.132 Y84.829 E13.97804
G1 X94.301 Y85.103 E14.01633
G1 X94.614 Y85.692 E14.09549
G1 X94.875 Y86.305 E14.17464
G1 X95.126 Y87.120 E14.27589
G1 X95.280 Y87.905 E14.37092
G1 X95.344 Y88.562 E14.44930
G1 X95.350 Y89.224 E14.52794
G1 X95.299 Y89.884 E14.60658
G1 X95.189 Y90.542 E14.68574
G1 X95.116 Y90.856 E14.72403
G1 X94.922 Y91.493 E14.80319
G1 X94.674 Y92.107 E14.88183
G1 X94.372 Y92.702 E14.96099
G1 X93.911 Y93.418 E15.06223
G1 X93.409 Y94.042 E15.15727
G1 X92.948 Y94.513 E15.23565
G1 X92.445 Y94.944 E15.31429
G1 X91.906 Y95.330 E15.39292
G1 X91.336 Y95.668 E15.47169
G1 X90.859 Y95.899 E15.53459
G1 X90.434 Y96.076 E15.58930
G1 X89.799 Y96.284 E15.66868
G1 X89.486 Y96.365 E15.70710
G1 X88.966 Y96.465 E15.76997
G1 X88.170 Y96.552 E15.86501
G1 X87.511 Y96.560 E15.94338
G1 X86.846 Y96.510 E16.02254
G1 X86.526 Y96.464 E16.06097
G1 X86.007 Y96.358 E16.12383
G1 X85.239 Y96.135 E16.21887
G1 X84.626 Y95.890 E16.29724
G1 X84.035 Y95.591 E16.37588
G1 X83.468 Y95.240 E16.45504
G1 X83.206 Y95.052 E16.49333
G1 X82.690 Y94.630 E16.57249
G1 X82.216 Y94.168 E16.65113
G1 X81.784 Y93.665 E16.72990
G1 X81.472 Y93.237 E16.79280
G1 X81.223 Y92.849 E16.84751
G1 X80.909 Y92.264 E16.92637
G1 X80.648 Y91.656 E17.00501
G1 X80.441 Y91.027 E17.08365
G1 X80.288 Y90.378 E17.16280
G1 X80.235 Y90.060 E17.20110
G1 X80.168 Y89.397 E17.28026
G1 X80.159 Y88.731 E17.35941
G1 X80.176 Y88.409 E17.39771
G1 X80.254 Y87.747 E17.47686
G1 X80.400 Y87.041 E17.56245
G1 X80.400 Y85.600 E17.73359
G1 X85.540 Y85.600 E18.34405
G1 X85.998 Y85.564 F7800.000
G1 E16.34405 F2400.00000
G92 E0
G1 X90.325 Y83.596 F7800.000
G1 E2.00000 F2400.00000
G1 F1800
G1 X93.131 Y86.402 E2.49395
G1 X93.614 Y87.943 F7800.000
G1 F1800
G1 X89.197 Y83.527 E3.27138
G1 X88.948 Y83.457 E3.30367
G1 X88.461 Y83.375 E3.36507
G1 X87.952 Y83.340 E3.42854
G1 X93.382 Y88.770 E4.38433
G1 X93.386 Y89.157 E4.43251
G1 X93.326 Y89.773 E4.50953
G1 X87.564 Y84.010 E5.52393
G1 X87.564 Y85.069 E5.65569
G1 X93.126 Y90.631 E6.63486
G1 X93.066 Y90.844 E6.66236
G1 X92.833 Y91.396 E6.73700
G1 X87.564 Y86.127 E7.66450
G1 X87.564 Y87.186 E7.79626
G1 X92.447 Y92.069 E8.65576
G1 X92.326 Y92.255 E8.68339
G1 X91.991 Y92.672 E8.74994
G1 X86.883 Y87.564 E9.64906
G1 X85.825 Y87.564 E9.78082
G1 X91.461 Y93.201 E10.77306
G1 X91.232 Y93.398 E10.81073
G1 X90.864 Y93.661 E10.86709
G1 X84.766 Y87.564 E11.94041
G1 X83.708 Y87.564 E12.07217
G1 X90.181 Y94.037 E13.21168
G1 X89.742 Y94.236 E13.27165
G1 X89.425 Y94.340 E13.31316
G1 X82.649 Y87.564 E14.50597
G1 X82.297 Y87.564 E14.54979
G1 X82.185 Y88.158 E14.62507
G1 X88.561 Y94.534 E15.74740
G1 X88.052 Y94.590 E15.81113
G1 X87.563 Y94.594 E15.87201
G1 X82.129 Y89.160 E16.82856
G1 X82.181 Y89.787 E16.90679
G1 X82.314 Y90.404 E16.98543
G1 X86.732 Y94.822 E17.76313
G1 X85.181 Y94.330 F7800.000
G1 F1800
G1 X82.382 Y91.531 E18.25592
G1 E16.25592 F2400.00000
G92 E0
G1 X62.972 Y87.028 F7800.000
G1 E2.00000 F2400.00000
G1 F1800
G1 X68.130 Y87.028 E2.61267
G1 X68.283 Y87.692 E2.69352
G1 X68.372 Y88.242 E2.75973
G1 X68.412 Y88.778 E2.82357
G1 X68.405 Y89.336 E2.88979
G1 X68.306 Y90.116 E2.98316
G1 X68.183 Y90.639 E3.04701
G1 X68.015 Y91.149 E3.11085
G1 X67.803 Y91.643 E3.17469
G1 X67.549 Y92.117 E3.23854
G1 X67.254 Y92.567 E3.30238
G1 X66.921 Y92.989 E3.36623
G1 X66.540 Y93.395 E3.43244
G1 X66.022 Y93.842 E3.51359
G1 X65.729 Y94.057 E3.55674
G1 X65.265 Y94.344 E3.62160
G1 X64.785 Y94.587 E3.68545
G1 X64.286 Y94.787 E3.74929
G1 X63.767 Y94.944 E3.81373
G1 X62.988 Y95.090 E3.90786
G1 X62.443 Y95.131 E3.97272
G1 X61.906 Y95.125 E4.03657
G1 X61.371 Y95.072 E4.10041
G1 X60.823 Y94.969 E4.16662
G1 X60.071 Y94.739 E4.26000
G1 X59.559 Y94.520 E4.32621
G1 X58.874 Y94.132 E4.41959
G1 X58.437 Y93.819 E4.48343
G1 X58.029 Y93.469 E4.54728
G1 X57.653 Y93.085 E4.61112
G1 X57.312 Y92.670 E4.67497
G1 X56.997 Y92.210 E4.74118
G1 X56.627 Y91.516 E4.83456
G1 X56.419 Y90.999 E4.90077
G1 X56.237 Y90.363 E4.97937
G1 X56.120 Y89.701 E5.05916
G1 X56.079 Y89.175 E5.12182
G1 X56.084 Y88.638 E5.18566
G1 X56.135 Y88.103 E5.24951
G1 X56.234 Y87.574 E5.31335
G1 X56.458 Y86.821 E5.40672
G1 X56.676 Y86.308 E5.47294
G1 X56.929 Y85.833 E5.53678
G1 X57.221 Y85.382 E5.60063
G1 X57.565 Y84.943 E5.66684
G1 X58.115 Y84.381 E5.76022
G1 X58.529 Y84.039 E5.82406
G1 X58.972 Y83.734 E5.88791
G1 X59.444 Y83.466 E5.95234
G1 X59.834 Y83.286 E6.00335
G1 X60.172 Y83.153 E6.04651
G1 X60.694 Y82.992 E6.11137
G1 X61.220 Y82.880 E6.17522
G1 X61.773 Y82.812 E6.24143
G1 X62.456 Y82.799 E6.32257
G1 X62.972 Y82.830 E6.38392
G1 X62.972 Y86.968 E6.87542
G1 X63.686 Y86.314 F7800.000
G1 F1800
G1 X68.886 Y86.314 E7.49300
G1 X68.886 Y87.127 E7.58949
G1 X68.984 Y87.554 E7.64160
G1 X69.082 Y88.158 E7.71428
G1 X69.127 Y88.757 E7.78552
G1 X69.118 Y89.368 E7.85821
G1 X69.009 Y90.249 E7.96359
G1 X68.871 Y90.833 E8.03484
G1 X68.683 Y91.403 E8.10608
G1 X68.447 Y91.954 E8.17732
G1 X68.163 Y92.482 E8.24856
G1 X67.834 Y92.984 E8.31980
G1 X67.463 Y93.455 E8.39105
G1 X67.044 Y93.901 E8.46373
G1 X66.840 Y94.092 E8.49684
G1 X66.462 Y94.405 E8.55524
G1 X66.129 Y94.649 E8.60417
G1 X65.615 Y94.968 E8.67603
G1 X65.080 Y95.238 E8.74727
G1 X64.523 Y95.461 E8.81852
G1 X63.946 Y95.636 E8.89012
G1 X63.477 Y95.737 E8.94707
G1 X63.070 Y95.800 E8.99601
G1 X62.466 Y95.846 E9.06787
G1 X61.867 Y95.839 E9.13911
G1 X61.270 Y95.780 E9.21035
G1 X60.401 Y95.598 E9.31574
G1 X59.820 Y95.408 E9.38842
G1 X59.011 Y95.043 E9.49381
G1 X58.484 Y94.731 E9.56650
G1 X57.996 Y94.382 E9.63774
G1 X57.541 Y93.991 E9.70898
G1 X57.121 Y93.563 E9.78022
G1 X56.740 Y93.099 E9.85146
G1 X56.254 Y92.357 E9.95685
G1 X55.977 Y91.812 E10.02953
G1 X55.748 Y91.244 E10.10222
G1 X55.661 Y90.979 E10.13533
G1 X55.539 Y90.516 E10.19218
G1 X55.410 Y89.792 E10.27959
G1 X55.364 Y89.200 E10.35011
G1 X55.370 Y88.600 E10.42135
G1 X55.428 Y88.003 E10.49259
G1 X55.537 Y87.413 E10.56383
G1 X55.701 Y86.823 E10.63652
G1 X56.031 Y86.000 E10.74191
G1 X56.313 Y85.470 E10.81315
G1 X56.639 Y84.967 E10.88439
G1 X57.016 Y84.485 E10.95707
G1 X57.636 Y83.850 E11.06246
G1 X58.099 Y83.468 E11.13370
G1 X58.593 Y83.128 E11.20494
G1 X59.117 Y82.831 E11.27654
G1 X59.553 Y82.629 E11.33350
G1 X59.936 Y82.478 E11.38244
G1 X60.514 Y82.301 E11.45430
G1 X61.101 Y82.175 E11.52554
G1 X61.708 Y82.100 E11.59822
G1 X61.987 Y82.084 E11.63133
G1 X62.478 Y82.085 E11.68973
G1 X62.966 Y82.114 E11.74781
G1 X63.686 Y82.114 E11.83325
G1 X63.686 Y86.254 E12.32494
G1 X64.400 Y85.600 F7800.000
G1 F1800
G1 X69.600 Y85.600 E12.94252
G1 X69.600 Y87.045 E13.11419
G1 X69.685 Y87.417 E13.15943
G1 X69.792 Y88.075 E13.23859
G1 X69.841 Y88.735 E13.31723
G1 X69.832 Y89.401 E13.39639
G1 X69.807 Y89.723 E13.43468
G1 X69.711 Y90.382 E13.51384
G1 X69.559 Y91.027 E13.59248
G1 X69.352 Y91.656 E13.67111
G1 X69.091 Y92.264 E13.74975
G1 X68.777 Y92.848 E13.82839
G1 X68.415 Y93.401 E13.90703
G1 X68.005 Y93.922 E13.98567
G1 X67.549 Y94.407 E14.06483
G1 X66.901 Y94.969 E14.16662
G1 X66.529 Y95.241 E14.22134
G1 X65.965 Y95.591 E14.30020
G1 X65.374 Y95.890 E14.37883
G1 X64.759 Y96.136 E14.45747
G1 X64.125 Y96.328 E14.53624
G1 X63.607 Y96.439 E14.59914
G1 X63.152 Y96.510 E14.65385
G1 X62.490 Y96.560 E14.73271
G1 X61.827 Y96.552 E14.81135
G1 X61.168 Y96.487 E14.88999
G1 X60.513 Y96.364 E14.96915
G1 X60.201 Y96.284 E15.00744
G1 X59.568 Y96.077 E15.08660
G1 X58.955 Y95.815 E15.16576
G1 X58.667 Y95.669 E15.20405
G1 X58.094 Y95.330 E15.28321
G1 X57.555 Y94.944 E15.36185
G1 X57.052 Y94.513 E15.44048
G1 X56.589 Y94.040 E15.51912
G1 X56.169 Y93.529 E15.59776
G1 X55.792 Y92.979 E15.67692
G1 X55.628 Y92.702 E15.71521
G1 X55.326 Y92.107 E15.79437
G1 X55.077 Y91.489 E15.87353
G1 X54.841 Y90.670 E15.97477
G1 X54.701 Y89.882 E16.06981
G1 X54.650 Y89.224 E16.14819
G1 X54.656 Y88.562 E16.22683
G1 X54.720 Y87.903 E16.30547
G1 X54.841 Y87.252 E16.38410
G1 X55.019 Y86.610 E16.46326
G1 X55.125 Y86.305 E16.50155
G1 X55.386 Y85.692 E16.58071
G1 X55.697 Y85.107 E16.65935
G1 X56.057 Y84.552 E16.73799
G1 X56.468 Y84.027 E16.81715
G1 X56.682 Y83.786 E16.85544
G1 X57.157 Y83.319 E16.93460
G1 X57.668 Y82.897 E17.01324
G1 X58.214 Y82.522 E17.09187
G1 X58.791 Y82.195 E17.17064
G1 X59.271 Y81.972 E17.23354
G1 X59.700 Y81.803 E17.28825
G1 X60.335 Y81.609 E17.36711
G1 X60.982 Y81.470 E17.44575
G1 X61.644 Y81.388 E17.52491
G1 X62.501 Y81.371 E17.62671
G1 X62.988 Y81.400 E17.68470
G1 X64.400 Y81.400 E17.85241
G1 X64.400 Y85.540 E18.34409
G1 X64.443 Y85.998 F7800.000
G1 X62.757 Y84.638 F7800.000
G1 F1800
G1 X61.504 Y83.385 E18.56594
G1 X60.829 Y83.511 E18.65200
G1 X60.628 Y83.573 E18.67827
G1 X62.436 Y85.381 E18.99836
G1 X62.436 Y86.445 E19.13164
G1 X59.616 Y83.626 E19.63088
G1 E17.63088 F2400.00000
G92 E0
G1 X56.386 Y89.977 F7800.000
G1 E2.00000 F2400.00000
G1 F1800
G1 X60.820 Y94.411 E2.78496
G1 X61.452 Y94.542 E2.86579
G1 X62.065 Y94.591 E2.94277
G1 X56.615 Y89.141 E3.90774
G1 X56.619 Y88.666 E3.96715
G1 X56.674 Y88.136 E4.03392
G1 X63.068 Y94.530 E5.16597
G1 X63.640 Y94.423 E5.23878
G1 X63.936 Y94.333 E5.27752
G1 X56.874 Y87.271 E6.52788
G1 X57.176 Y86.508 E6.63054
G1 X64.698 Y94.031 E7.96233
G1 X65.003 Y93.877 E8.00503
G1 X65.377 Y93.645 E8.06016
G1 X57.566 Y85.834 E9.44299
G1 X57.655 Y85.698 E9.46338
G1 X58.031 Y85.234 E9.53808
G1 X65.978 Y93.181 E10.94497
G1 X66.508 Y92.646 E11.03921
G1 X58.565 Y84.704 E12.44541
G1 X58.852 Y84.467 E12.49200
G1 X59.172 Y84.246 E12.54067
G1 X66.962 Y92.036 E13.91972
G1 X67.088 Y91.843 E13.94853
G1 X67.344 Y91.354 E14.01770
G1 X63.555 Y87.564 E14.68866
G1 X64.619 Y87.564 E14.82194
G1 X67.638 Y90.583 E15.35638
G1 X67.779 Y90.021 E15.42891
G1 X67.819 Y89.699 E15.46946
G1 X65.684 Y87.564 E15.84750
G1 X66.748 Y87.564 E15.98077
G1 X68.195 Y89.010 E16.23683
G1 E14.23683 F2400.00000
G92 E0
G1 X59.686 Y94.341 F7800.000
G1 E2.00000 F2400.00000
G1 F1800
G1 X56.875 Y91.530 E2.49765
G1 E0.49765 F2400.00000
G92 E0
G1 X62.972 Y67.169 F7800.000
G1 E2.00000 F2400.00000
G1 F1800
G1 X62.579 Y67.198 E2.04675
