; generated by Slic3r Prusa Edition 1.39.1-alpha-prusa3d-win64 on 2018-02-08 at 12:36:38

; 

; external perimeters extrusion width = 0.45mm
; perimeters extrusion width = 0.45mm
; infill extrusion width = 0.45mm
; solid infill extrusion width = 0.45mm
; top infill extrusion width = 0.40mm
; first layer extrusion width = 0.80mm

M107
M104 S205 ; set temperature
G28 ; home all axes
G1 Z5 F5000 ; lift nozzle
; Filament gcode
M109 S205 ; set temperature and wait for it to be reached
G21 ; set units to millimeters
G90 ; use absolute coordinates
M82 ; use absolute distances for extrusion
G92 E0
G1 Z0.400 F7800.000
G1 E-2.00000 F2400.00000
G92 E0
G1 X61.912 Y61.818 F7800.000
G1 E2.00000 F2400.00000
G1 F1800
G1 X63.229 Y60.692 E2.20582
G1 X64.680 Y59.678 E2.41603
G1 X66.214 Y58.804 E2.62579
G1 X67.861 Y58.059 E2.84045
G1 X69.535 Y57.483 E3.05062
G1 X71.442 Y57.026 E3.28355
G1 X73.224 Y56.778 E3.49725
G1 X75.004 Y56.696 E3.70888
G1 X76.949 Y56.794 E3.94010
G1 X78.832 Y57.079 E4.16631
G1 X80.625 Y57.530 E4.38592
G1 X82.250 Y58.104 E4.59056
G1 X83.904 Y58.865 E4.80690
G1 X85.436 Y59.753 E5.01711
G1 X86.888 Y60.784 E5.22867
G1 X88.182 Y61.912 E5.43254
G1 X89.308 Y63.229 E5.63833
G1 X90.322 Y64.680 E5.84856
G1 X91.197 Y66.215 E6.05830
G1 X91.941 Y67.861 E6.27293
G1 X92.517 Y69.535 E6.48312
G1 X92.974 Y71.442 E6.71609
G1 X93.222 Y73.224 E6.92974
G1 X93.304 Y74.998 E7.14063
G1 X93.224 Y76.763 E7.35049
G1 X92.981 Y78.520 E7.56118
G1 X92.581 Y80.245 E7.77151
G1 X92.012 Y81.957 E7.98574
G1 X91.316 Y83.546 E8.19172
G1 X90.444 Y85.124 E8.40588
G1 X89.447 Y86.586 E8.61607
G1 X88.182 Y88.088 E8.84923
G1 X86.801 Y89.285 E9.06627
G1 X85.347 Y90.305 E9.27723
G1 X83.791 Y91.194 E9.49003
G1 X82.163 Y91.932 E9.70238
G1 X80.474 Y92.515 E9.91451
G1 X78.564 Y92.973 E10.14780
G1 X76.776 Y93.222 E10.36225
G1 X75.002 Y93.304 E10.57312
G1 X73.231 Y93.223 E10.78374
G1 X71.474 Y92.980 E10.99442
G1 X69.754 Y92.581 E11.20404
G1 X68.043 Y92.012 E11.41823
G1 X66.454 Y91.316 E11.62421
G1 X64.876 Y90.443 E11.83838
G1 X63.414 Y89.447 E12.04855
G1 X61.912 Y88.182 E12.28173
G1 X60.715 Y86.801 E12.49876
G1 X59.695 Y85.347 E12.70974
G1 X58.806 Y83.791 E12.92252
G1 X58.068 Y82.163 E13.13488
G1 X57.485 Y80.474 E13.34703
G1 X57.026 Y78.558 E13.58106
G1 X56.778 Y76.776 E13.79472
G1 X56.696 Y75.002 E14.00562
G1 X56.793 Y73.058 E14.23684
G1 X57.078 Y71.175 E14.46304
G1 X57.530 Y69.375 E14.68341
G1 X58.104 Y67.750 E14.88804
G1 X58.865 Y66.096 E15.10439
G1 X59.753 Y64.564 E15.31460
G1 X60.784 Y63.112 E15.52617
G1 X61.873 Y61.863 E15.72288
G1 E13.72288 F2400.00000
G92 E0
G1 X78.242 Y78.242 F7800.000
G1 E2.00000 F2400.00000
G1 F1800
G1 X77.661 Y78.730 E2.09016
G1 X77.273 Y78.977 E2.14474
G1 X76.754 Y79.233 E2.21349
G1 X76.210 Y79.418 E2.28171
G1 X75.757 Y79.519 E2.33682
G1 X75.000 Y79.585 E2.42710
G1 X74.224 Y79.517 E2.51964
G1 X73.642 Y79.375 E2.59083
G1 X73.247 Y79.231 E2.64065
G1 X72.867 Y79.054 E2.69043
G1 X72.359 Y78.746 E2.76105
G1 X71.758 Y78.243 E2.85412
G1 X71.270 Y77.661 E2.94437
G1 X71.023 Y77.273 E2.99895
G1 X70.775 Y76.772 E3.06538
G1 X70.625 Y76.359 E3.11753
G1 X70.484 Y75.781 E3.18815
G1 X70.416 Y75.021 E3.27883
G1 X70.456 Y74.422 E3.35012
G1 X70.535 Y73.969 E3.40471
G1 X70.752 Y73.284 E3.49009
G1 X70.946 Y72.867 E3.54462
G1 X71.254 Y72.359 E3.61524
G1 X71.757 Y71.758 E3.70830
G1 X72.355 Y71.257 E3.80094
G1 X72.867 Y70.946 E3.87213
G1 X73.284 Y70.752 E3.92671
G1 X73.969 Y70.535 E4.01211
G1 X74.421 Y70.456 E4.06664
G1 X75.015 Y70.417 E4.13725
G1 X75.755 Y70.481 E4.22555
G1 X76.205 Y70.580 E4.28023
G1 X76.754 Y70.767 E4.34904
G1 X77.273 Y71.023 E4.41785
G1 X77.661 Y71.270 E4.47243
G1 X78.242 Y71.758 E4.56259
G1 X78.730 Y72.339 E4.65275
G1 X78.977 Y72.727 E4.70733
G1 X79.225 Y73.228 E4.77376
G1 X79.375 Y73.642 E4.82596
G1 X79.517 Y74.224 E4.89715
G1 X79.584 Y74.980 E4.98731
G1 X79.544 Y75.578 E5.05850
G1 X79.465 Y76.031 E5.11308
G1 X79.242 Y76.736 E5.20085
G1 X78.977 Y77.273 E5.27204
G1 X78.730 Y77.661 E5.32663
G1 X78.281 Y78.196 E5.40966
G1 X77.735 Y77.735 F7800.000
G1 F1800
G1 X77.238 Y78.153 E5.48684
G1 X76.922 Y78.354 E5.53123
G1 X76.480 Y78.572 E5.58981
G1 X76.017 Y78.730 E5.64789
G1 X75.648 Y78.812 E5.69278
G1 X75.000 Y78.868 E5.77004
G1 X74.340 Y78.811 E5.84867
G1 X73.849 Y78.690 E5.90874
G1 X73.521 Y78.571 E5.95023
G1 X73.204 Y78.423 E5.99169
G1 X72.776 Y78.164 E6.05123
G1 X72.265 Y77.736 E6.13037
G1 X71.847 Y77.238 E6.20760
G1 X71.646 Y76.922 E6.25200
G1 X71.433 Y76.491 E6.30916
G1 X71.310 Y76.151 E6.35207
G1 X71.190 Y75.664 E6.41161
G1 X71.133 Y75.013 E6.48929
G1 X71.166 Y74.507 E6.54942
G1 X71.231 Y74.139 E6.59382
G1 X71.419 Y73.543 E6.66809
G1 X71.577 Y73.204 E6.71244
G1 X71.836 Y72.776 E6.77198
G1 X72.264 Y72.265 E6.85112
G1 X72.772 Y71.839 E6.92981
G1 X73.204 Y71.577 E6.98988
G1 X73.543 Y71.419 E7.03427
G1 X74.139 Y71.231 E7.10855
G1 X74.507 Y71.166 E7.15290
G1 X75.007 Y71.133 E7.21244
G1 X75.647 Y71.188 E7.28867
G1 X76.012 Y71.269 E7.33312
G1 X76.480 Y71.428 E7.39174
G1 X76.922 Y71.646 E7.45036
G1 X77.238 Y71.847 E7.49475
G1 X77.735 Y72.265 E7.57193
G1 X78.153 Y72.762 E7.64911
G1 X78.354 Y73.078 E7.69350
G1 X78.567 Y73.509 E7.75067
G1 X78.690 Y73.849 E7.79361
G1 X78.811 Y74.340 E7.85368
G1 X78.867 Y74.988 E7.93086
G1 X78.834 Y75.493 E7.99093
G1 X78.769 Y75.861 E8.03532
G1 X78.578 Y76.469 E8.11104
G1 X78.354 Y76.922 E8.17111
G1 X78.153 Y77.238 E8.21551
G1 X77.774 Y77.689 E8.28556
G1 X77.228 Y77.228 F7800.000
G1 F1800
G1 X76.814 Y77.576 E8.34976
G1 X76.572 Y77.731 E8.38396
G1 X76.206 Y77.911 E8.43238
G1 X75.824 Y78.041 E8.48031
G1 X75.539 Y78.104 E8.51499
G1 X75.000 Y78.152 E8.57922
G1 X74.457 Y78.104 E8.64394
G1 X74.057 Y78.006 E8.69289
G1 X73.794 Y77.911 E8.72605
G1 X73.541 Y77.793 E8.75920
G1 X73.193 Y77.581 E8.80765
G1 X72.772 Y77.229 E8.87286
G1 X72.424 Y76.814 E8.93708
G1 X72.269 Y76.572 E8.97128
G1 X72.091 Y76.210 E9.01919
G1 X71.994 Y75.943 E9.05286
G1 X71.897 Y75.547 E9.10131
G1 X71.849 Y75.005 E9.16600
G1 X71.876 Y74.593 E9.21497
G1 X71.926 Y74.310 E9.24917
G1 X72.086 Y73.802 E9.31233
G1 X72.207 Y73.541 E9.34651
G1 X72.419 Y73.193 E9.39497
G1 X72.771 Y72.772 E9.46017
G1 X73.189 Y72.421 E9.52492
G1 X73.541 Y72.207 E9.57387
G1 X73.802 Y72.086 E9.60807
G1 X74.310 Y71.926 E9.67123
G1 X74.593 Y71.876 E9.70541
G1 X75.000 Y71.849 E9.75387
G1 X75.538 Y71.896 E9.81803
G1 X75.820 Y71.958 E9.85225
G1 X76.206 Y72.089 E9.90068
G1 X76.572 Y72.269 E9.94911
G1 X76.814 Y72.424 E9.98331
G1 X77.228 Y72.772 E10.04751
G1 X77.576 Y73.186 E10.11171
G1 X77.731 Y73.428 E10.14591
G1 X77.909 Y73.790 E10.19382
G1 X78.006 Y74.057 E10.22750
G1 X78.104 Y74.457 E10.27645
G1 X78.151 Y74.996 E10.34065
G1 X78.124 Y75.407 E10.38960
G1 X78.074 Y75.690 E10.42380
G1 X77.913 Y76.202 E10.48748
G1 X77.731 Y76.572 E10.53643
G1 X77.576 Y76.814 E10.57063
G1 X77.267 Y77.183 E10.62771
G1 X77.327 Y77.616 F7800.000
G1 E8.62771 F2400.00000
G92 E0
G1 X82.100 Y82.084 F7800.000
G1 E2.00000 F2400.00000
G1 F1800
G1 X81.546 Y82.549 E2.08582
G1 X80.754 Y83.102 E2.20053
G1 X79.906 Y83.585 E2.31645
G1 X79.472 Y83.794 E2.37369
G1 X78.854 Y84.052 E2.45322
G1 X77.927 Y84.358 E2.56916
G1 X76.944 Y84.585 E2.68900
G1 X75.970 Y84.717 E2.80577
G1 X75.002 Y84.761 E2.92080
G1 X74.013 Y84.716 E3.03837
G1 X73.033 Y84.581 E3.15591
G1 X72.072 Y84.358 E3.27300
G1 X71.140 Y84.050 E3.38968
G1 X70.242 Y83.659 E3.50600
G1 X69.386 Y83.188 E3.62201
G1 X68.596 Y82.655 E3.73520
G1 X67.916 Y82.100 E3.83944
G1 X67.451 Y81.546 E3.92526
G1 X66.898 Y80.754 E4.03997
G1 X66.415 Y79.906 E4.15590
G1 X66.206 Y79.472 E4.21313
G1 X65.948 Y78.854 E4.29266
G1 X65.642 Y77.927 E4.40860
G1 X65.415 Y76.944 E4.52844
G1 X65.283 Y75.970 E4.64521
G1 X65.239 Y75.002 E4.76024
G1 X65.284 Y74.013 E4.87781
G1 X65.419 Y73.033 E4.99536
G1 X65.642 Y72.072 E5.11244
G1 X65.950 Y71.140 E5.22912
G1 X66.341 Y70.242 E5.34544
G1 X66.812 Y69.386 E5.46145
G1 X67.353 Y68.585 E5.57621
G1 X67.755 Y68.078 E5.65313
G1 X67.933 Y67.882 E5.68448
G1 X68.643 Y67.309 E5.79291
G1 X69.453 Y66.770 E5.90840
G1 X70.313 Y66.306 E6.02443
G1 X71.214 Y65.922 E6.14077
G1 X72.132 Y65.626 E6.25530
G1 X73.073 Y65.413 E6.36995
G1 X74.030 Y65.283 E6.48467
G1 X74.551 Y65.248 E6.54659
G1 X75.109 Y65.240 E6.61292
G1 X76.077 Y65.293 E6.72808
G1 X76.983 Y65.422 E6.83672
G1 X77.928 Y65.642 E6.95193
G1 X78.860 Y65.950 E7.06861
G1 X79.758 Y66.341 E7.18493
G1 X80.614 Y66.812 E7.30094
G1 X81.415 Y67.353 E7.41569
G1 X81.922 Y67.755 E7.49261
G1 X82.118 Y67.933 E7.52397
G1 X82.691 Y68.643 E7.63240
G1 X83.230 Y69.453 E7.74789
G1 X83.694 Y70.313 E7.86392
G1 X84.078 Y71.214 E7.98026
G1 X84.374 Y72.132 E8.09479
G1 X84.587 Y73.073 E8.20944
G1 X84.717 Y74.030 E8.32416
G1 X84.761 Y74.998 E8.43919
G1 X84.716 Y75.987 E8.55676
G1 X84.581 Y76.967 E8.67430
G1 X84.358 Y77.928 E8.79139
G1 X84.050 Y78.860 E8.90807
G1 X83.659 Y79.758 E9.02439
G1 X83.188 Y80.614 E9.14040
G1 X82.655 Y81.404 E9.25359
G1 X82.138 Y82.038 E9.35070
G1 X82.653 Y82.536 F7800.000
G1 F1800
G1 X82.447 Y82.736 E9.38483
G1 X81.983 Y83.114 E9.45585
G1 X81.136 Y83.705 E9.57860
G1 X80.231 Y84.221 E9.70229
G1 X79.765 Y84.446 E9.76376
G1 X79.112 Y84.719 E9.84785
G1 X78.120 Y85.046 E9.97188
G1 X77.612 Y85.176 E10.03421
G1 X77.064 Y85.289 E10.10058
G1 X76.042 Y85.428 E10.22315
G1 X75.001 Y85.476 E10.34683
G1 X73.948 Y85.427 E10.47206
G1 X72.904 Y85.283 E10.59725
G1 X71.880 Y85.046 E10.72208
G1 X70.885 Y84.717 E10.84657
G1 X69.926 Y84.300 E10.97070
G1 X69.013 Y83.797 E11.09447
G1 X68.163 Y83.223 E11.21633
G1 X67.425 Y82.621 E11.32942
G1 X66.886 Y81.983 E11.42857
G1 X66.295 Y81.136 E11.55132
G1 X65.779 Y80.231 E11.67501
G1 X65.554 Y79.765 E11.73648
G1 X65.281 Y79.112 E11.82057
G1 X64.954 Y78.120 E11.94460
G1 X64.824 Y77.612 E12.00693
G1 X64.711 Y77.064 E12.07330
G1 X64.572 Y76.042 E12.19587
G1 X64.524 Y75.001 E12.31955
G1 X64.573 Y73.948 E12.44478
G1 X64.717 Y72.904 E12.56997
G1 X64.954 Y71.880 E12.69480
G1 X65.283 Y70.885 E12.81929
G1 X65.700 Y69.926 E12.94342
G1 X66.203 Y69.013 E13.06719
G1 X66.782 Y68.157 E13.19000
G1 X67.211 Y67.615 E13.27210
G1 X67.436 Y67.368 E13.31174
G1 X67.813 Y67.047 E13.37056
G1 X68.221 Y66.733 E13.43172
G1 X69.085 Y66.158 E13.55500
G1 X70.002 Y65.663 E13.67880
G1 X70.964 Y65.252 E13.80295
G1 X71.951 Y64.934 E13.92613
G1 X72.946 Y64.710 E14.04728
G1 X73.958 Y64.572 E14.16861
G1 X74.521 Y64.534 E14.23563
G1 X75.115 Y64.526 E14.30614
G1 X76.156 Y64.582 E14.42990
G1 X77.106 Y64.719 E14.54389
G1 X78.120 Y64.954 E14.66758
G1 X79.115 Y65.283 E14.79206
G1 X80.074 Y65.700 E14.91619
G1 X80.987 Y66.203 E15.03996
G1 X81.843 Y66.782 E15.16278
G1 X82.385 Y67.211 E15.24488
G1 X82.632 Y67.436 E15.28452
G1 X82.953 Y67.813 E15.34334
G1 X83.267 Y68.221 E15.40450
G1 X83.842 Y69.085 E15.52778
G1 X84.337 Y70.002 E15.65158
G1 X84.748 Y70.964 E15.77573
G1 X85.066 Y71.951 E15.89891
G1 X85.290 Y72.946 E16.02006
G1 X85.428 Y73.958 E16.14138
G1 X85.476 Y74.999 E16.26507
G1 X85.427 Y76.052 E16.39030
G1 X85.283 Y77.096 E16.51548
G1 X85.046 Y78.120 E16.64032
G1 X84.717 Y79.115 E16.76480
G1 X84.300 Y80.074 E16.88893
G1 X83.797 Y80.987 E17.01271
G1 X83.223 Y81.837 E17.13456
G1 X82.691 Y82.489 E17.23452
G1 X83.206 Y82.987 F7800.000
G1 F1800
G1 X82.915 Y83.275 E17.28319
G1 X82.421 Y83.679 E17.35898
G1 X81.978 Y84.004 E17.42425
G1 X81.518 Y84.309 E17.48980
G1 X81.044 Y84.594 E17.55548
G1 X80.556 Y84.857 E17.62128
G1 X80.058 Y85.098 E17.68700
G1 X79.369 Y85.385 E17.77564
G1 X78.846 Y85.571 E17.84159
G1 X78.313 Y85.734 E17.90781
G1 X77.772 Y85.872 E17.97406
G1 X77.185 Y85.993 E18.04532
G1 X76.114 Y86.139 E18.17369
G1 X75.506 Y86.179 E18.24595
G1 X75.000 Y86.190 E18.30606
G1 X74.441 Y86.177 E18.37255
G1 X73.883 Y86.139 E18.43899
G1 X73.327 Y86.075 E18.50542
G1 X72.775 Y85.986 E18.57185
G1 X72.250 Y85.878 E18.63547
G1 X71.687 Y85.734 E18.70447
G1 X71.154 Y85.571 E18.77067
G1 X70.630 Y85.385 E18.83679
G1 X70.115 Y85.174 E18.90283
G1 X69.611 Y84.941 E18.96877
G1 X69.119 Y84.685 E19.03461
G1 X68.641 Y84.407 E19.10034
G1 X68.176 Y84.108 E19.16594
G1 X67.730 Y83.791 E19.23090
G1 X66.935 Y83.142 E19.35284
G1 X66.725 Y82.915 E19.38958
G1 X66.321 Y82.421 E19.46537
G1 X65.996 Y81.978 E19.53064
G1 X65.691 Y81.518 E19.59619
G1 X65.406 Y81.044 E19.66187
G1 X65.143 Y80.556 E19.72768
G1 X64.902 Y80.058 E19.79339
G1 X64.615 Y79.369 E19.88203
G1 X64.429 Y78.846 E19.94799
G1 X64.266 Y78.313 E20.01420
G1 X64.128 Y77.772 E20.08045
G1 X64.007 Y77.185 E20.15171
G1 X63.861 Y76.114 E20.28008
G1 X63.821 Y75.506 E20.35234
G1 X63.810 Y75.000 E20.41245
G1 X63.823 Y74.441 E20.47895
G1 X63.861 Y73.883 E20.54538
G1 X63.925 Y73.327 E20.61181
G1 X64.014 Y72.775 E20.67824
G1 X64.122 Y72.250 E20.74186
G1 X64.266 Y71.687 E20.81086
G1 X64.429 Y71.154 E20.87706
G1 X64.615 Y70.630 E20.94319
G1 X64.826 Y70.115 E21.00922
G1 X65.059 Y69.611 E21.07516
G1 X65.315 Y69.119 E21.14100
G1 X65.593 Y68.641 E21.20673
G1 X65.892 Y68.176 E21.27233
G1 X66.210 Y67.728 E21.33764
G1 X66.666 Y67.152 E21.42491
G1 X66.938 Y66.854 E21.47284
G1 X67.363 Y66.492 E21.53911
G1 X67.798 Y66.157 E21.60435
G1 X68.250 Y65.841 E21.66983
G1 X68.717 Y65.546 E21.73544
G1 X69.198 Y65.272 E21.80119
G1 X69.692 Y65.019 E21.86704
G1 X70.198 Y64.790 E21.93299
G1 X70.714 Y64.583 E21.99904
G1 X71.240 Y64.400 E22.06517
G1 X71.771 Y64.243 E22.13091
G1 X72.819 Y64.006 E22.25856
G1 X73.886 Y63.861 E22.38649
G1 X74.492 Y63.821 E22.45861
G1 X75.121 Y63.811 E22.53331
G1 X75.680 Y63.829 E22.59972
G1 X76.234 Y63.872 E22.66570
G1 X77.229 Y64.015 E22.78503
G1 X77.750 Y64.122 E22.84824
G1 X78.313 Y64.266 E22.91724
G1 X78.846 Y64.429 E22.98344
G1 X79.370 Y64.615 E23.04957
G1 X79.885 Y64.826 E23.11560
G1 X80.389 Y65.059 E23.18154
G1 X80.881 Y65.315 E23.24738
G1 X81.359 Y65.593 E23.31311
G1 X81.824 Y65.892 E23.37871
G1 X82.272 Y66.210 E23.44401
G1 X82.848 Y66.666 E23.53129
G1 X83.146 Y66.938 E23.57922
G1 X83.508 Y67.363 E23.64549
G1 X83.843 Y67.798 E23.71073
G1 X84.159 Y68.250 E23.77620
G1 X84.454 Y68.717 E23.84182
G1 X84.728 Y69.198 E23.90757
G1 X84.981 Y69.692 E23.97342
G1 X85.210 Y70.198 E24.03937
G1 X85.417 Y70.714 E24.10542
G1 X85.600 Y71.240 E24.17155
G1 X85.757 Y71.771 E24.23728
G1 X85.994 Y72.819 E24.36494
G1 X86.139 Y73.886 E24.49286
G1 X86.179 Y74.494 E24.56513
G1 X86.190 Y75.000 E24.62524
G1 X86.177 Y75.559 E24.69173
G1 X86.139 Y76.117 E24.75817
G1 X86.075 Y76.673 E24.82459
G1 X85.986 Y77.225 E24.89102
G1 X85.878 Y77.750 E24.95464
G1 X85.734 Y78.313 E25.02365
G1 X85.571 Y78.846 E25.08985
G1 X85.385 Y79.370 E25.15597
G1 X85.174 Y79.885 E25.22200
G1 X84.941 Y80.389 E25.28794
G1 X84.685 Y80.881 E25.35378
G1 X84.407 Y81.359 E25.41951
G1 X84.108 Y81.824 E25.48511
G1 X83.791 Y82.270 E25.55008
G1 X83.244 Y82.941 E25.65287
G1 X82.816 Y82.898 F7800.000
G1 E23.65287 F2400.00000
G92 E0
G1 X73.281 Y79.472 F7800.000
G1 E2.00000 F2400.00000
G1 F1800
G1 X77.676 Y83.867 E2.75422
G1 X77.783 Y83.842 E2.76759
G1 X78.460 Y83.619 E2.85404
G1 X74.960 Y80.119 E3.45451
G1 X75.907 Y80.034 E3.56986
G1 X79.200 Y83.328 E4.13499
G1 X79.657 Y83.111 E4.19634
G1 X79.885 Y82.981 E4.22822
G1 X76.716 Y79.812 E4.77202
G1 X76.959 Y79.729 E4.80316
G1 X77.432 Y79.496 E4.86716
G1 X80.537 Y82.600 E5.39991
G1 X81.145 Y82.176 E5.48984
G1 X78.062 Y79.093 E6.01889
G1 X78.623 Y78.622 E6.10777
G1 X81.711 Y81.711 E6.63780
G1 X82.176 Y81.143 E6.72678
G1 X79.094 Y78.061 E7.25574
G1 X79.163 Y77.978 E7.26887
G1 X79.496 Y77.432 E7.34652
G1 X82.597 Y80.532 E7.87862
G1 X82.730 Y80.335 E7.90758
G1 X82.979 Y79.883 E7.97017
G1 X79.811 Y76.714 E8.51389
G1 X79.986 Y76.158 E8.58463
G1 X80.031 Y75.903 E8.61612
G1 X83.321 Y79.193 E9.18070
G1 X83.549 Y78.669 E9.25002
G1 X83.619 Y78.459 E9.27691
G1 X80.119 Y74.959 E9.87742
G1 X80.047 Y74.136 E9.97767
G1 X79.956 Y73.764 E10.02414
G1 X83.867 Y77.675 E10.69521
G1 X84.058 Y76.834 E10.79981
G1 X73.165 Y65.941 E12.66915
G1 X74.074 Y65.818 E12.78038
G1 X84.182 Y75.927 E14.51515
G1 X84.222 Y74.934 E14.63565
G1 X75.075 Y65.788 E16.20531
G1 X75.579 Y65.791 E16.26647
G1 X76.166 Y65.847 E16.33800
G1 X84.149 Y73.829 E17.70793
G1 X84.059 Y73.168 E17.78889
G1 X83.925 Y72.573 E17.86293
G1 X77.420 Y66.068 E18.97926
G1 X78.230 Y66.294 E19.08135
G1 X78.955 Y66.572 E19.17554
G1 X83.981 Y71.597 E20.03801
G1 E18.03801 F2400.00000
G92 E0
